/* XPM */
static const char *conhecimento_NO[] = {
/* columns rows colors chars-per-pixel */
"128 128 231 2 ",
"   c #14140D",
".  c #1B160E",
"X  c #1D1B0E",
"o  c #1F1D06",
"O  c #171615",
"+  c #181715",
"@  c #171814",
"#  c #1A1A16",
"$  c #171718",
"%  c #191718",
"&  c #191718",
"*  c #171918",
"=  c #191918",
"-  c #191919",
";  c #181818",
":  c #1A1A18",
">  c #1A1A19",
",  c #1B1B19",
"<  c #1B1A18",
"1  c #1A1A1A",
"2  c #1B1B1B",
"3  c #1A1919",
"4  c #1C1B18",
"5  c #1B1C19",
"6  c #1D1C19",
"7  c #1C1C1A",
"8  c #1D1D1B",
"9  c #1F1E1A",
"0  c #1E1D19",
"q  c #1E1E1C",
"w  c #1E1D1D",
"e  c #1B1B19",
"r  c #231D0D",
"t  c #291E0B",
"y  c #241B02",
"u  c #221E14",
"i  c #291E12",
"p  c #201F1D",
"a  c #211E1A",
"s  c #281F19",
"d  c #1F2015",
"f  c #1F201B",
"g  c #1F201B",
"h  c #25210D",
"j  c #2B230D",
"k  c #2D290F",
"l  c #2A2206",
"z  c #32250B",
"x  c #332B0D",
"c  c #3A2C0B",
"v  c #3D2E06",
"b  c #39310F",
"n  c #242115",
"m  c #2B2414",
"M  c #2D2A15",
"N  c #21211B",
"B  c #21201C",
"V  c #23221E",
"C  c #22221D",
"Z  c #24231E",
"A  c #24221C",
"S  c #24241D",
"D  c #25241F",
"F  c #26251E",
"G  c #23221C",
"H  c #2A251B",
"J  c #27281E",
"K  c #2D2A1C",
"L  c #252810",
"P  c #322613",
"I  c #332B14",
"U  c #3A2E14",
"Y  c #33271C",
"T  c #332C1C",
"R  c #3A2F1B",
"E  c #3C3215",
"W  c #35311C",
"Q  c #3B341C",
"!  c #39341A",
"~  c #1E1D21",
"^  c #211E20",
"/  c #262521",
"(  c #252421",
")  c #292721",
"_  c #272822",
"`  c #2C2A23",
"'  c #2D2C29",
"]  c #322E22",
"[  c #392E22",
"{  c #332F29",
"}  c #2F3029",
"|  c #353123",
" . c #3B3423",
".. c #3E3A23",
"X. c #33322C",
"o. c #3A362C",
"O. c #3D392C",
"+. c #3D3B32",
"@. c #363530",
"#. c #45340E",
"$. c #422E13",
"%. c #413213",
"&. c #453916",
"*. c #42351B",
"=. c #433A1D",
"-. c #4A3C1C",
";. c #483718",
":. c #513E1D",
">. c #423725",
",. c #433B24",
"<. c #493E23",
"1. c #433D2B",
"2. c #493E2A",
"3. c #41372A",
"4. c #503F21",
"5. c #433F33",
"6. c #4F411D",
"7. c #54431D",
"8. c #5A461D",
"9. c #584417",
"0. c #474125",
"q. c #4D4224",
"w. c #45402B",
"e. c #4C422B",
"r. c #4D482E",
"t. c #544424",
"y. c #544923",
"u. c #5C4C25",
"i. c #52452C",
"p. c #5A4629",
"a. c #554A2D",
"s. c #5B4C2C",
"d. c #5E4726",
"f. c #5C512D",
"g. c #454235",
"h. c #4B4331",
"j. c #4D4934",
"k. c #434138",
"l. c #4A453C",
"z. c #49483F",
"x. c #514531",
"c. c #544B33",
"v. c #5B4D33",
"b. c #534C39",
"n. c #5C5235",
"m. c #55513D",
"M. c #5B533C",
"N. c #575435",
"B. c #624E2A",
"V. c #654D26",
"C. c #655125",
"Z. c #64532C",
"A. c #6A562D",
"S. c #6A592D",
"D. c #665829",
"F. c #725C2E",
"G. c #604F30",
"H. c #625433",
"J. c #6B5633",
"K. c #665933",
"L. c #6A5A34",
"P. c #62553C",
"I. c #645A3C",
"U. c #6C5C3C",
"Y. c #69573A",
"T. c #725E34",
"R. c #725E3B",
"E. c #785D39",
"W. c #6D6035",
"Q. c #6D613C",
"!. c #746134",
"~. c #7A6435",
"^. c #74633C",
"/. c #7A653C",
"(. c #7B693D",
"). c #7A6939",
"_. c #514D41",
"`. c #5A5346",
"'. c #655B41",
"]. c #6C5D41",
"[. c #625D4C",
"{. c #685944",
"}. c #735F42",
"|. c #6E6143",
" X c #6B634B",
".X c #67604B",
"XX c #736443",
"oX c #7B6644",
"OX c #736845",
"+X c #7D6A43",
"@X c #74664B",
"#X c #746A4B",
"$X c #7C6D4B",
"%X c #7E704A",
"&X c #7E7043",
"*X c #776B53",
"=X c #7E7152",
"-X c #7D725A",
";X c #717060",
":X c #816B3C",
">X c #846C35",
",X c #86713F",
"<X c #836E44",
"1X c #886B42",
"2X c #816D4D",
"3X c #826640",
"4X c #847144",
"5X c #84734C",
"6X c #8A744C",
"7X c #887649",
"8X c #816D52",
"9X c #837452",
"0X c #897452",
"qX c #8C7B51",
"wX c #847759",
"eX c #8D7C5C",
"rX c #847857",
"tX c #917C55",
"yX c #907C59",
"uX c #907650",
"iX c #977940",
"pX c #847C63",
"aX c #9A814E",
"sX c #93824F",
"dX c #978458",
"fX c #A28B5C",
"gX c #A58949",
"hX c #958363",
"jX c #9A8A69",
"kX c #A28C60",
"lX c #A49163",
/* pixels */
"O $ + # 0 + O + 0 # # # # 0 # O 0 7 O . n # # J d   ( 6 $ a V O # ( V O # B S 6 O w O # O O p 0 + O : + + & # @ # @ # # # + O V ( S 4 0 V 5 # V 0 O O 0 q q 0 q 0 O : : # : # # : # : # : 7 : : 2 : : # # : : : : : : : $ : : : : : # # # # # # : # : q 0 0 : : ",
"0 O 6 Z Z p O 0 ( ( # 0 V D 0 0 ( V 0 # V q : ( 0 # ( 6 O + 0 O 0 4 0 # : q O   O O O # # O O O O O + + O + V D V # g V V # # ( V a 0 4 6 # # 0 g # O : : q q q : O : : # : : # : # : # # : : : : : : : # # : : : : : : : : : : : : # : # # # # : : : 0 0 q : # ",
"Z @ S Z 0 0 # V ` Z # V ( g O # V B @ O : q O : 0 # 4 # O O O O O O O O O O O q : O 0 V ( O : w : + q V 4 4 V ( V O 0 S V # # S ( Z 4 O 0 # : V : # O # # # : : # O # # O # O O # # # # # : : : : : : # : : : : : : : : : : : : : : : 0 : : # : q : : 0 : : # # ",
"( : # V ( a @ 0 V 0 5 # g 0 O O # # O O O : : O O 0 a # O q O O O q 0 0 # S # 0 ( # # B @ # V V p + V Z S B ( 0 V g 0 0 V # O @ 0 Z 4 O : : # : O O # # # # # # # : : @ O # # # : # # @ # : : : : : : : : : : 0 : : : : : : : : : # : : : # # : : : : : : : # # ",
"# + O + 4 # O O O O # @ O O O O 0 5 : O : ( V ( 4 ( S # 0 S #   4 Z V 0 # a + # V # 0 Z # 6 S S Z + + 0 4 0 0 # 0 # O + + + + @ # O + & & q # O O : 7 # O # # # : 0 : : # : : # # # # # # : : : : : : : # : : : # # : : : # : # # # # # # # : # : # # : : : : : ",
"4 p 4 O O O & O # # @ # V V 0 @ B S 7 O g D 6 0 : 0 B O # V S O   6 V : O # O O O O # 0 # # # # O O O O O O # 0 0 O + # # # # : ( V + 4 ( f 0 # 5 # # # : : : : : : : : # : : : : @ O O : : : : : : : # # # # # # # # # : O # : : : O : : : : : q q 0 : : : : : ",
"( ( 0 # V 0 + 4 V V 6 # V B 0 @ B S : O 5 0 S q O # 0 O 0 0 7 : O : O O O O O O O O O O O O @ 7 # O O O # : 0 ( Z # 0 V V : O V ) Z 0 0 q 0 0 # 5 5 # # # : : # : : # : # # # # # # : : : : : : : : : O # : : : : : : : : # : : : : : 0 0 0 : : 2 : : : 2 q : : ",
"V p O Z V S 6 4 Z Z B a 0 4 V # # 6 # @ O O # # O O # O O O $ $ O O O O O O # + : # # 4 # @ # 0 : # g 0 ( V # ( ( # ( ( ( q O q 0 0 : O : : O O # : @ @ # @ : O # # # : O # : : # : : : : : : : : : : : : : : : : : # : 7 # : : : : : : 0 : : : : : : : : : : : ",
"Z V # V V a 0 O # # # # @ + + $ O O O : O O # O O # : : O : : q O O : # O @ # : 0 : 0 4 0 O : V V # 7 ( 0 : # ( V # V V # 0 O : O O & & & : : : : $ # : # # : # # # : : # : : : : : : : : : : : : : : : : : : : # : # 5 7 # # : : : # : # # : : : : : : : : : : ",
": : + + # O O O O $ O + 0 V # O # 0 7 O O : ( q O : # # O 0 0 # O # # # # @ # 4 0 # # # O O : # 0 O O : O O # 4 # # # # # # : O # : : & w : w : : : : 0 : 0 0 : : 0 0 : @ # : : # : : : : : : : : : : : : $ : : # : # # # # # : : # # # # : : : : : : 2 2 2 : : ",
": : $ $ V 0 O O : O : # q q : # V V ( # # q 0 0 # # # # O O : # O O # @ O O O O O O O O # O O : : # 6 # a Z a 4 B ( 0 V V 0 : O : : # O : : : # # : 0 : # : 0 # # : : : # # # # # O # # # : : : : : : : : : : : : : # # # # # # : : : : # : : : : : : : : 2 2 : ",
"0 g 0 O 0 V # # : : : # # : # : q 0 0 # # : O # # O O O O O O O O O O O O O O O O O O : : O : q O # ( 6 V ( 0 0 V ( 0 0 V D 0 O : : : O # # : # @ : # # # # : # # O O O O O # # # # 0 : # : : : : : : : : : : : : : : : : # # # : : : : : : $ : : : : : : : : : ",
"0 V q # 0 0 0 O # # O O # # # # # # # O O O O # O O # # O O O O O O O O $ O O # : # O : @ O # q @ 0 S # + q # 0 V V V 0 V 0 : # : : # O # : # O O # # O # # O # O # # # O @ # # # # 0 : # : : : : : : : : : : : : : : : : : : : : : : : : : : : : : : : : : : : ",
"# O O : O @ # O O O O # # # # : : : : : O # 0 # O : ( : 0 # 7 : # O O O # O O : # : O # # O O 0 q : : : O 0 p + 4 4 4 # # $ O : O : : : : : # # # # # # : : : O : 0 0 : # 0 g 5 # q 0 : # : : : : : : : : : : : : : : : : : : : : : : : : : : : : : : : : : : : ",
"O # # O 0 g # q 0 # 7 0 # # : : : : 7 0 # # 0 : O : q 0 q : 0 q # O O # # O O O O # # O O O O O O O $ $ # + # + # : # O # : O : : : # 0 : : # # # : : # # : 0 # : 0 V 0 # 0 0 0 O : q : # : : : : : : : : : : : : : : : : : : : : : : : : : : : : : : : : : : : ",
"O # # # V # # V 0 O # : # # : : # : q 7 : : 0 : # # 0 5 # O # # O O O O O O O O O O O O O O O # q : O : 7 7 # # 0 ( 0 # q g 7 2 0 # : q 0 O : # O # : # : 0 0 : : 0 0 : @ # # # # O : : O : : : $ : : : : : : : $ : : : : : : : : : : : : : : : : : : : : : : : ",
": : : @ 0 V 4 V 0 # # : # # # # # : : : : : : : # # # O O # O O O O # # O O # @ # O @ # : O # : : q O V S B # 0 Z V : 0 q V 7 $ : : # : : # : : O O O # # O # : : # O # # # # # : : : : : : : $ $ : : : : : : : : : : : : : : : : : : : : : : : : : : : : : : : ",
"O # O O O 4 + # # # @ # # # # # # # # : # # # # 0 # O : : # O # # # : 0 # @ : : : # # # : O : : : # : ( S 0 # 0 Z 0 + @ 0 0 O O # # O O # # # # # # O # # # : 7 # 0 # 0 0 # : : : # : : : : : $ $ : : : : : : : : : : : : : : : : : : : : : : : : : : : : : : : ",
"O O O O O + & O O + # # # # # : # : : # # : : # 0 q # # : # O # # O # : : O # : : O @ # # O O : 0 : O : # # # + # # # # # @ @ O @ 0 q 0 # q q : : 0 # O : q q 0 0 V # : q : # : # # : : : : : : : : : : : : : : : : : : : : : : : : : : : : : : : : : : : : : : ",
"O 7 # O 0 : : + O : 0 : # : : : : : : : # : : : : 0 # # # O O O O @ # # # # # # O O O @ O O @ O O O $ O O O O # 0 : : # V V 0 : 0 g 5 0 # 0 0 # # q 0 O # 0 ( 0 7 0 # : : # : : : : : : : : $ $ : : : : 2 2 : : : : : : : : : : : : : : : : : : : : : : : : : : ",
"V V 5 # V # 5 # 7 f 0 # # : : : # # # : # # : : : : : O # @ O # # # # # : @ # @ O # O # : q 0 O : : : $ : : O : p q 4 O V V 7 @ 0 B 0 6 # 4 0 # # V V # # 0 0 # # : O : : : : : : : : $ $ : : : : : $ : : : 2 2 : : O : 2 : : : : : : : : : : : : : : : : : : : ",
"0 0 5 O # 0 g # 5 0 : : # : # # : # O # # # # : : # # # O O # # # # # # : # 0 0 # : # O : 0 # 0 q V # 0 B V # : 0 : V : q ( 0 # : : V q : # # # # + # # # # # # @ # : : $ : : : : : : : : : : : : : $ : : : q 2 q q : 2 q : : : : : : : : : : : : : : : : : : : ",
"# O O O O : 0 @ O O # # # # O # : # # # : # : 0 : : : : # # : : O O : # : # : : # 0 : # 0 : # V V V 0 @ 5 6 : # : # 0 O O # # : $ & $ $ : O # 0 @ # # V a @ V V # # 0 0 : : : : : : : : : : : : : $ : q : : q q q q : : : : : : : : : : : : : : : : : : : : : : ",
"$ O : : O O : $ : $ # # O # : : : # : : # : : : : : : : # : : : : O : # : # O # O # # # 4 # O 5 : O # O @ : O + # : : : O # # : @ : V 7 O 0 V V # 6 0 V 0 # V g 0 # 5 0 : : : : : O : : : : O : : : : : : : : : : : : : : : : : : : : : : : : : : : : : : : : : ",
"O : 7 q O : : : : : : : # # # # # # : 0 : : : 0 0 # # # : : : : : O O O # O O # # # O O O O O O : : O : O O : # q ( 0 O q B 0 : # B ( S 6 V V V # a Z 0 @ V V V 0 # # : O @ O O # # # # # # # # : : : # # : : : : q 2 : ( 0 : : : : : : : : : : : : : : : : : : ",
"O # : O : 0 0 0 O : : # # # # : # O : 0 : : # : : : : # # : : : $ : : O : # # # : q 0 # 0 4 # # V q # # : # f # 0 V 0 # a V ) # 4 S 6 B 4 # : + : & 4 4 + @ # O O # # # : # O O # # # : # @ # # 0 q 0 : : 0 # : q q q : q q : : : : : : : : : : : : : : : : : : ",
"# # : @ : q 0 0 : # # # # # # O # O # # : # @ : : # : : : : : : : : : : : : : : : 0 0 : p p 0 # q V 0 # 0 0 # @ # 0 # # 0 p q : # 4 z.B @ @ + + & + + + # # O : : @ # 7 0 0 : : : # : : # # # # : q : : q q : # : q : : q 0 # # : : : : : : : : : : : : : : : : ",
"# @ # O # O O O # # # # O O # O # O : : # # @ q V : : : # : $ : : : : : : : : # : : : : : : # # q 0 : O O # O : : @ # O O O $ : # # o.0 @ # 0 0 0 + 0 4 0 4 0 q q 0 # 0 q 0 # 0 4 # # : # : # # # : : # 0 # # : : : : : : : : # : : # : : : : : : : : : : : : : ",
"# O # O O # : # # # # # # # : : : : 0 0 5 # # q V 0 : 7 : : : : : : : : : : : # # : O O + + # # + : O # # # : : : @ : # # 0 a 0 @ 4 4 # # 0 V V a # 4 p V + # q q : : 0 7 : # # : # # # O O # # O : 0 # 5 @ O # : : : : : : : : : # # : : 2 : : : 2 2 : : : : : ",
"# : 7 # # # 0 : # : : : # O : 7 : q q q 0 # # 0 7 # : # # # : : # : : $ $ $ $ : # # : # : : : : 0 : : q 0 : : : : @ : # # 6 B a # + 0 V # # 0 V 0 + : 0 0 + + : : # : # # # # + # @ # : # : # # : : : # # 7 # : : : : : q : : 0 : : : # # : : # : q q : : : : : ",
"# : 0 0 : # 0 7 # # # # O O : # # : 0 # : : : # # # # : : : # # : # : : : : : : : : : : : : : : 2 : 2 q q : : # O O # : # : : : + # : q : # 0 + O + O # O O O # # @ # # # # + # 4 O w q 0 p # : f q : # 0 : # : : : : 2 q : : : : : 0 : # # : : : # : : : : : : ",
"O # # # : # # # # O O O # : # # : O O : : : # 0 : # : 0 q q 0 : 0 q : : 2 2 : : : : : : $ O : $ : : : : : : : : # O # # # O O O # # # # # + O # 0 0 # : : # : : # # f 0 0 # : : q & ^ q 0 0 # V ( B : : 0 : O : : : : : : : : : : # : : # # : : : # : : # : : : ",
"O O O : # # # O # : O : 0 5 # # 7 # 0 q B 0 # 0 q # # 0 V V q : 0 q : : : 2 : $ : $ O $ O O O $ : : : : # O : : # @ # # : $ O O O : : # # + O # : : : 0 : # : 0 # : q q 0 4 q 0 q : : 0 V 0 # 0 V 0 0 # 0 : # # : : : : : : 0 : : : 0 : : # # # : : : : : q : : ",
": # : : # # : O # : @ : 0 5 # # : : 0 V D 0 # 0 g 0 5 g g q : : : : : : $ : $ : $ O O O $ : : : : : : : : : q : # # # # : : $ : $ : : O # O O # : # O : : O # : : # 0 q 0 : : 4 # O O # 0 # O # # # O O : # # @ : : : : : V V q : q q : : 7 # # : : : : 2 q 2 : ",
"# # : : # : : # O # # # 7 # # # # : 0 q 6 # # 7 # 5 : : # : # # # : : O : : : : : $ $ $ $ : : : : 2 2 : : q q 0 # : # : : : : : O $ : : : # O O O : O O # @ : : : : : # # : # # # 7 0 @ # # # # : : # # V q # # : : : : q V q 0 0 0 4 # : 0 0 # : : 0 q : : : : ",
"# # O # O # : : # # # # # # # # # O # # # 5 : : : # # : : : : : : : # # : : : : : : : : : : : : : : : : : q q : : : : : : : : $ O $ : $ : : O O $ : : : : O $ & : & : : : V # : 0 V 0 5 V 0 # 0 ( D V q B 6 q : 0 0 : # # 0 ( V # 4 0 # 5 0 0 : 0 0 : 2 : : : : ",
"# : # # # # : : # # # # # # # O : # O : : : : q 0 : q 7 # 0 0 : : : : : : : : : : : : : : : : : : : : 2 : : : : : : : : : : : : : : $ : : $ : : : : : : : $ O # 0 # # a : q q : V 6 # V g ( 5 0 ( ( ( f B 6 f : # : : : O : q q : O # # # # # : : O : q : : : 2 ",
"# # # # : : : : : : # : : # # : 0 : : q 0 : # 0 0 7 q 0 : q 0 : : : : : : : : : : : O $ : : : : 2 2 : : : : : : : : : : : : : : : : : : : $ : : : : : : : # # 4 # ` X.6 # 0 V 7 V 7 : V ( V 0 @ # 0 7 : @ # @ : # # # # : : q : : # 0 0 # 7 q V 0 O 0 q : : : : ",
"O : : : : : : : : : # : : # : : 7 # : q q 7 # : 0 7 7 : : 0 : : # : : : : : : : : : : : : : : : q q 2 : : : : : 2 : : : : : : : : : : $ : : : : : : : : : : : 4 # ( X.# 7 5 # # : : # # @ O # # # # : O 0 B # @ : : : # # 0 ( p + 0 V V # V V q : 0 q : : : : 2 ",
": : : # : : : q : O : : : : # : : # O 0 0 # # : : # : # : : : : : : : : : : : : : : : : : : : 0 f q q : : : 2 2 : : : : : : : # 0 : w : # # : : : : : : : # : : : # # 4 # 5 # # # # # # 0 q O # 7 # ( : V ` q : V q V : # V S B 4 0 0 0 # : V 0 # : : : : : : : ",
"# # # # # # : : # : : : : O O # # O # # # # # : q : : : : : : : : : : : 2 : : : : : : : : : : g } q 2 : : : : : : : : : : w 4 a a B + 0 6 # # : : # 6 2 : # : # : : 0 : # 0 0 7 7 : : # 0 V # 0 V D ( 4 V ` g 0 ( S ( : # 0 6 6 # # O # # : # # : # : : : : : : ",
"O # # # : # # # # # : : : O O # # : # : V f # : q : 2 : : : : : : : : : : : : : : : : : : : : 0 g q 2 : : : : : : : : : : q V a n M c.] a 6 0 0 6 n # : # # : # : : # # # # # 0 0 : : : : V V # 0 0 4 # 0 V # # : : # # $ & O O $ $ # 0 4 + 0 # # : : : : : : : ",
": O # : 0 : O # # # : : : : # # # # : 0 0 0 O : q 2 2 : : : : : : : : : : : : : : : : : : : : : q 2 : : : : : : : : : 0 a p a h.q.p.lX%.Y K a m m h K a # # # # : : # : : : : : : : : # # 0 4 # + # # # @ # : 0 + ^ q V : 0 V # O q ( V V # V V V : : : : 2 2 2 ",
": # # : 0 # : 0 7 # # : : : # # # # : 7 0 7 # : : : : : : : : : : : : : : : : : : : : : : : : : : : : : : : : : : : 4 4 a Z A  .$XZ.).C.eXQ I $XXXrX X. 0 7 4 : : # # : : : : # : : : # # 0 # V 0 # S ` 0 6 S Z 4 _ ( ) 0 0 ( V : q Z ` ) 0 V S V # : q : : : : ",
"0 4 # : q $ q 0 0 : : : : : # # # # : O # # : : : : : : : : : : : : : : : : : : : : : : : : : : 2 2 : : : : : : : : : 4 0 p H n Z.u.B.Y.2.y n.H.J.n.h A d # 6 7 7 # : : : : : # : : : # 0 0 # V 0 # V S a H n S # V ` ( 6 V ` ( : 6 S S 0 # 0 q 2 : : : : : : : ",
"# # # # 0 : & & $ & : : # $ : # : O # : : : : : : : : : : : : : : : : : : : : : : : : : : : : : : : : : : $ : : : : : : q q a n ,.=X8Xa.m n Q $X^.l M r n K | d n 6 : 2 : : : : : : : # 0 q # 0 0 @ 0 ( 4 a 4 V 4 p 0 + # V 4 0 : # 5 @ # 0 O : : : : : : : : : ",
"O # # O # @ + : : O $ : : : : : : : : : 2 q : : : : : : : : # : : : : : : : : : : : : : : : : : 2 : : : : $ : : # # # : q q 4 B d ]  .n u s u U.tX*.I '.v.@X2.n a 6 4 2 : : : : # # : # : 0 # : 7 # O q 4 + # # + + O # # + 0 : 0 0 # V S ( 0 0 V 7 0 0 : : : : ",
"0 V 5 0 0 # # 0 0 # $ : : : # # : : : : 2 q : : : 2 2 : : # # # # : : : : : : : : : : : : : : : 2 : : : : : : # # # # # 0 0 a a g 6 a a a a u n.@XT T H.:.A.;.R 3.` # : + : : : : # # # # # : : @ : 0 O & # 4 0 + # V # + V ( # S ` # g S # 0 ( V @ 0 f 0 : : 0 ",
"D ( g V V a # 0 a 0 : : : : # : 0 : # : : : : : : : : : : # 5 0 0 0 : : : : : : : : : : : : : : : : : : : : # # # 5 0 6 g n n n K n a a 4 # X h m u ] XXA.T.+XL.P. .# 6 : : : : : # # # : : 0 # O q V 0 + 0 V Z 0 V ( Z 0 0 ( # Z ( # V ( 5 O V V 0 V 0 0 : : 7 ",
"f 0 # # 0 # : 0 # # : # # # : : : # @ # : : : : : : : : : : 0 a H Z 0 : : : : : : : : : : : : : : : : : : : : : 0 0 0 B B T j OX$Xj  .u [  .1.R r a ] e.R.).8.L.E X # X # 7 : : # # # : : : : : : q ( 4 0 V V 4 # V V V : O S 0 4 V 0 0 B 0 # & w : - # # # 2 : ",
"@ # O O : : # O # # : # # : : : : 7 7 : 0 0 : # : 2 : : : : q H [.| 4 : : : : : : : : : : 4 4 0 q : # : : : : 4 0 0 V A n 5.U.:X(.%Xa.P @X5XwX .6 B a u R Y.n.I I c.M.i.I # 7 : # # : : : : : : # 0 q B # a Z # @ : B : : : # 6 # + 4 0 0 O 4 p : : q V g 0 q f ",
"0 0 : : 0 : : : # : : : : : : : 0 7 7 : : : : # : : : : : : q A O.H 0 : : : 2 : : : : : : # ' X.: 0 # : : : # # 0 0 B A H m H.A.!.n.t  .XXL.c j # # h Z s n H h s.6XJ.H.@XH : : # # : : : : # : # # # @ # # # # @ 0 0 : : + V ( ( 0 V ` Z # S H # 4 Z S V g g V ",
"( ( # 7 : : # : : : : : : : : : : : : : # : # # : : : : : # 2 a 6 a 7 # : : 2 : : : : : : 6 B B 0 4 4 0 6 6 4 4 0 6 a A m M ! XX|.E H u H.eX$.E i.c.b.u a a n o XXA.d.;.v.H 2 : # : $ : : : O O # # : # # 0 V V @ 0 ` D : 0 ) B ( V 0 V 0 # B ` V # 0 S S 0 0 V ",
"V ( 0 # q 0 # : q : : : # 0 7 # : : : # # # # # # # : : : # 2 4 6 4 # # : : : : : : : : 4 0 6 # 2 4 a A n H B 6 6 6 n n m M Q *.m m m h ,.-XU =.n.U.u.P ] B u T {.}.$XI.m B q : : : : : : : # # # 0 0 4 # 6 0 0 # g ( D # # p ` _ q + V V 0 ( V V # q B 5 # : : ",
": : : # : # # # # : # # : : ( S # : : : : : # # : : : : : # : : # # # # : : : & & 2 2 q q q 0 # & 4 n H  .Y T H n n n m m ,.|.q.m m *.f.j T r e.U.|.%XU.m.` a A m >.,.M M n # # : : : : : : : : # 0 q 0 : 0 # V g # g V : : : 0 ( 2 : : : : : O # 0 # # B 0 : : ",
"# # O # : : # : : 0 : : 0 # X.' # 7 $ $ : 2 : # : : # : : # # : # # # # : : : # # p n u n p a # : 4 H XX<XoXi.m K M T m M @Xs.H.! R sXsXU n n U <.9XZ.H.x o a d n n n R p.t.2.H # : : : : : : : # O : : : : : # @ @ # O : : : 7 : : : q ( q : 0 ( ( : 0 ) V # V ",
"0 q # : : : : q 7 0 : : 7 0 0 6 0 : : : $ : : : : 0 : # : # # : # # # # # + $ : # U XXs.I I a 0 0 A u t.:X4X7X,.H W n.Q I *XXX=Xx -.aXqXI M M I M ,.i.z %.s.2.M n n m U.~.aX=Xm # : : : : : : : : # # O O O 0 0 @ @ 0 7 # # : S J 6 0 S ( V : S ( V 4 V S ( V 0 ",
"0 0 : 0 0 : : 0 0 : : : : 0 0 : : : # : $ : : : # # : # # # # : # # : : : O $ : X y.:XR.4.=.b.u n L 0.E %.s.u.R ! E +XH.m ! #X,.H j ].=.h c.n.I.x r n m U.+XJ.Q.H u i.6X:X).=.n 6 # : : : : : : : $ @ # 0 # V D 5 g D ( g # V J J ` 0 D g f 0 S ` 0 4 V ( V 0 0 ",
"0 : : 0 : : : : : 7 : # # : : # # # # & : : : : : : : : : : : : # # # : : O : : u /.~.R.J.^.jXm h f./.R.-.*. .m v.^.6X}.1.u H H s n A u M Z.Z.oXs.h.K ,.2XA.d.s.] n K U v.=.i a 6 # : : : : : : : : 0 g 0 @ V ( # V D ( V # 0 0 f q : 7 $ : : # 6 6 a # # # # # ",
": 4 : : : 4 0 4 : : : # # # # # # : & : : : : : : : : : : : : : # # # : : $ O : H H.R.t.t.|.I h E (.V.7.K.].m m a.J.<XXXm a a a u 6 # a m t.7X4X$Xw.m  .q.oXP.m H 0 6 A r ! H n 6 6 7 : # : : : : # 0 # O O q 0 @ 5 0 # # # # # @ : : : : 2 : # H -X| 4 6 ( 0 0 ",
"# 4 4 : 4 q V 0 4 0 # : : : # # : : $ : : : : : # # : : : : : : # : : @ $ O # 0 X r Q c.r X d r i.<X8.S.qXs.m n r.n.I.j u w 2 q 0 g g 0 a X <.K.! m n a H m m H u a n r E =Xe.r # 6 # # # : # # # # # @ @ # @ # # # @ 0 0 5 # q q : : q f V 0 6 ` | H 6 V ( ( 6 ",
"0 0 q 4 4 q V q q 0 : : : : # : : : : : : : : : # # : : : : : : : : : : O O 5 # b.Q r j I n B s P H.5XJ.y.R M L n n H B 6 # a 0 u h h u a B # h h n K ` A M Z./.a.T # c.XX%.Y.|.K 5 5 : # : : : # 0 # 5 V 0 : # V 0 0 ( 0 0 # q q : : q f ( q q ( J V # B ( 0 # ",
"V 0 ( 0 0 p 0 0 q 0 : # # # # : : : : : : : # # # # : : # $ $ : : : : : : @ 7 X I.9Xq.p.qXI.# n n W v.,.P r c.n.r n a : 7 n r >.H.!.4Xi.u 6 0 d n 1..Xh m H.iXgXhXT u  .J.T.C.q.] 5 5 : # : : # # 5 # 5 g 5 # q 0 # # q 0 : # : q : : 2 f V 0 : ~ 0 4 : 5 5 # 7 ",
"0 4 q 4 4 q 0 4 4 : # # # # # O : : : : : : # # # # : 7 # : : : : : : : : @ : # I =Xp.6X6Xc.X u u j h H m -.K.$Xi.n a @ 7 # x.eXf.9.fX].. 0 0 . x.}./.U.K R R.!.[ p n m +XF.(.E X g # : : : : # # 0 5 # 5 # # : : # # : # # # 7 : : : 2 : @ : : 2 # 4 : 0 5 @ : ",
": 0 4 : : : : : : : # : : : $ $ : : : : # # # # O # : : : : : : : : : : : @ : 6 K #XXXL.l X a n a.R.x H a Z.dXT.9XI u # 7 4 ,.Z.c !.XXM a 4 a r H.2X:X).M n j j A q 0 m XXZ./.Q.,.6 : : : # : : : 7 7 # # # # # : : # O # : : : : : : : # : V q : 0 q q ( 0 # ( ",
"p ( p q 4 q w : : : : : : : : : $ : : : # # # # # # : : : # : : : : : : : @ : 4 A H 1.m u 0 0 n U.tXy.P.T j L.U.P.n a : : A t :.6XZ.j u 6 # 4 a M i.$X*.L T i.I.u a 0 a  .2.m.w.b.0 # # : : : : : # : # : : # # : : : : : : : q q : : : : 2 q : : q : # D _ 0 0 ",
"( ( V q q q w : : : : : : : : : : : : : O # # : # # : : : : # : : : : : : O : # a ^ + 4 # : 4 X R XX/.0Xm ] b.T n 6 : 4 p u *.^.^.%.u a # # # 0 n u  .O.r P.p.K.x.a 0 0 4 a B B # 0 : # : : : : : # : : # # # # : : : : : : : : : $ : : $ 2 q : # 0 # 0 g B # 0 ",
"p ( q : : : : : : : : : : : : : : : : # O O O # # # # # # # : : : : : $ : # : # 6 p # n 0 4 # 6 H a.OXv.m Z # a B 0 # 6 a K wXZ.v XXY q 4 # # # r R T r m H.:XS.'.` # 4 q V B 0 0 5 : : : : : : : : : : : : # : : : O $ : : : : : : : : : : : : # # O # # # # # ",
"0 : + # & : : : : : # : : : : : : : # : # O # # # O # : # # : : : : : : : # # # # n ,.P K n 4 6 6 h =.Q u n B B 0 5 0 6 6 a P.qXW.hX[ 4 a 4 # ..{.*X X,.m #X~./.j A 0 a n n m # 6 5 : : : : : : # : 0 7 0 7 : : : : $ $ : : : : & : : : : : : # # # # O 7 # # : ",
"# # : : : : : : : # # : : # # : : : : # : : O $ # # # : # # : : : : : : : # : #  .*.L.qXH.m n # d n T I ,.m r m W j.K 6 a a u I 0.! a 0 4 a # x.eXR.=X1.n w.P.@X1.B a i x I.9Xe.# 6 # : : : : : : : : 5 0 # # : : : $ $ : : : # # # $ : $ : : : : + : : 0 0 : : ",
"# 0 q q : : : : : # # : : # # 4 4 : : # : : : : $ # # # # # : : : : : : : O : O M.K.:.B.+X].n 4 a h a.0X9XI W c.XX+XQ.n a 0 g 6 # 4 q 0 a n ] j j y OXw.a n T w.h.n M $XqX3X8.=Xn 6 # : : : : : : : : # : # O q : : : : : : # # # # $ $ : : : : : : : : 0 V q : ",
"# : q 0 : : : : : # # : 0 : # : 4 : : # : : : $ : # # # # # : : : : : & & O : 4 Q W.L.U.$XR s a u ,.0X6XY. . .i.U.<XT.v.a f 5 a 0 0 0 0 n Q U.c.3.m j M u n m n n X I $XoXt.+XU.u g # : : : : : : : : : : # # : : : $ : : : : # # # : : : : : : : : : ( 0 0 : : ",
"O : 0 : : : : # # # # : # @ : : : : : # # : : $ $ O # # # : : : : : : : : @ : 4 n U P.#X*.m A n # r.0X7.U H I P e.XXP.,.u H H a B n a n e.6XT.H.,.j j j T I r # 6 a u m M h c eX| # 0 : : : : : : : : # # : : q : : $ : : # : O ( _ O : : : : : : : : : # : # # ",
"# : : : # : : # # # # # # : 0 : : : : # # : # : : : # # # # # # : : : : : # $ # 5 a u x &.*.m.h A W I l U <.M.K ..,.r.T *.+Xt.H m c.>.u i.^.+XU.Q j @XeX@X#X .# 6 # r h w.Q j K B 5 # # : : : : : : : # # 0 0 : : : : : : # : # : : : : : : : : : : 2 : # : 4 # ",
"# 7 : # # # : # # : : : # 0 0 : : # : : : : : : : : : # # # # # : : : $ : O $ @ # q n U S.qX].k T m R @XI.5XOXh n d L L ^.kXY.t H.5X@XR Q XXe.x x m 2.{.U.$X0.u m c.5X7.7.Q.,.H 0 5 # # : : : : : : # # # @.V # : : : : : # # : : : : : : : : : : : : : # # : : ",
"0 q 0 : : # : # # : : : : 0 : # O # : : : : : : : # : # # O O # # O $ $ $ # : @ # # T H.:XA.v...m H I e.v.6Xa.r V H I m L.tX>.x U.G.$Xe.m r.,.i.s.I I t t.rXr H m jXu.S.F.!.#Xn 6 5 5 # : : : : : : : # 4 0 5 # q q : : : : : : : : $ : : $ O $ : # : : # # : # ",
"0 7 : : # : : # : : : : # # : # # # # : $ : : : : # : # # # # : : : @ $ # # # # # 4 M #X/.7.U ! v.m n m R 9XM n n  .P.U &.%.m P -.H.n.M L M x @XXXu.f.! T b.H A r ,.E B.A.1Xq.# a 7 # : : : : : : : : : : : # : 2 : : q 2 : : : : : : : : : : : # # # O O # # : ",
"0 : : : : # 7 5 : # # # # # # O # @ # : : : : : : @ : : O # # # # O O : : # # # # # n M.U U a.f.4Xf.K V H ` 6 B n i.R.A.y.x.m I Q e.I Q m.Q I U 6.+X(.N.u a n r L j m  .R.XXj n 6 # : : : : : : : : : : : $ : : : : : 2 : : : : : : : : : : : # V 0 # # @ # : : ",
"0 : : : 7 0 g 0 0 : : : : : 7 : : # 5 0 : : : : : O # : # : O O # # # : : # # # # # # # P XXU.#.~.4XT a u # # 7 n c.9XA.XXa.x W.Q j U U.XXP.R j f.1X6Xx.s A I Y.H.-.E H n T n 5 4 # : O : : : : : : : $ : : : : : : : : : : 2 : : : : : : : : # V 0 # # @ : : V ",
": : : : 0 0 a B 0 0 q q : : 0 : : # # : : : : : : O $ : : : # # # # O : : : : # : # 5 0 O.XX8.~.A.u.T a 5 : # 7 s I oXJ.U z W.7XL.z <.^.E.J.@XT I XX*.u Z u H.7XV.J.$X .6 5 : : : # : # # : $ : : : : : : : q : : : : : : : : : : : : : : q q 5 # # # # # : : : ",
": : : : q 0 a ` V 0 2 q q : : : : # # : : : : # # O : : : : # # # # : : : : : : : : # 0 m U.!.9.T.^.Q a 7 6 a 0 4 c.9XU.! k W.fXK.t  XH.dXU.I ` B 6 n H B m H.V.).C.z B 5 # : : : # : : : : : : : : : : : : 2 : : : : : : : : : : : : : : q ( # 5 # # # # : : : ",
": 2 : : 0 0 p V 0 0 2 : q : : : : # # : # # # # : : : : 2 : # # : # : : : : : : : : # 6 n U +X(./.W.I F V ` u a 6 n m r n h q.9Xk m T h a.,.# B B D ` n n L <.L.A.fX=.5 5 # # : : : $ : : : : : : : : : : : 2 : : 2 : : : : : : : : : : : : : # # # # # : : : : ",
": : : : : 0 q 0 4 4 : 2 : : : : : : : 0 0 7 # : 0 : : q q q # 7 : # # # # # : : : # # # a m a.y.b ! u i m -Xb.m B 0 p s p B n T n a 6 S n J H n X n h.H.*.j <.5Xz a.M 5 # # # : : : : : : : $ : : : $ $ : : : : : : : : : $ : : : : : : : : : : : : : : : : $ $ ",
": : : : : : 4 4 : : : q : : : : : # 0 V g 0 5 0 0 : : q q 0 : : # # : : : # # : : # # # 4 A W u n u 2.U.9.).0X! n H m n n B 6 a 6 # 6 6 u L j Q '.m a.,X^.Q R ,.n # # 4 # # # # : : : O O O $ : : : O O : : : : : : : # # : : : : : : : : : : : : : : : : : $ $ ",
"7 7 7 : : : : : 2 2 2 2 : : : # # # 5 ` B 0 0 : : # 0 0 B 0 : # # # # : : # # : : : # # : 6 6 0 a r n.dX).C.^.XXj I XXE  .u  .H n 6 : J m.s.t.U.5Xz H.>X,Xe.A 6 0 5 : # # # # # f O # O O O O : $ : : $ : : : : : $ # # # : $ $ : : : : : : : : : : : : : : : : ",
"0 0 : : : : : 2 q 2 : : : : : # # # 5 6 6 0 7 : : : 0 B B 0 : : : : : # : # # : : : : : : # 7 # 0 # e.i.s.U.a.! ! i.yX^.1.n q.c.r B g H s.S.~.S.E P Q A.fXv.B g # # # # @ # # 5 0 : # # # @ O : $ $ : : : : : : : : : : : : : : : : : : : : : : : : : : $ : : : ",
"0 0 : : : : : q q 2 : : : : : # # # # 5 # # : : : : 7 0 0 0 : 7 0 : # : : # # # # : : : : # : # : 0 6 u n K h n I K.+XZ. .m H.dX;.h n r 0.4X(.D.y.Q n I q.c.a 0 # # # 7 # # 5 6 5 : # # : # O : : : : : : : : & & : : # : : : : : : $ : : : : : : : : : : : : : ",
"g 0 : 0 w : 0 q q q q : : 0 : : # : : : : : : : : # 5 5 0 7 : : # 0 # : : # # # # : : : : : : : : # 0 a a a a B h y.qXJ.M ! J.<X/.Q m X m.v.p.^.%XQ n B 6 # a 5 # # : 0 0 : 5 g 0 # O O # # O : : : : : : : : : : : 4 @.: : : & : : : $ $ : : : : : : : : : : : ",
"0 0 0 0 q : 0 q q q 0 0 4 : 0 : : : : : : : : : : # # # 6 : # : : : # : : : # : : # # O : : : : @ + # # 4 4 0 0 A 2.9XL.y ^.L.f.jX#X# A a r Q hX2.u a 4 0 a 4 5 : : : 0 : : : 6 : + O O O # : : : : : $ : : O # + # 4 0 : : : : : : : # : : : : : : w : : : : : ",
"0 : 2 2 w : 4 0 B a 4 4 : : : : : : : # # : : : : # # # # : : : & + : 0 # # 4 : # # # # : : : # # : : @ : 4 # 7 V n h.! I #X,.Q c. .a 0 0 a H T a a 4 : : 0 : # 4 O # # : : : 4 # # : O : 0 : # O # # # : : : : # # # # # : : : : : # # # O $ : : : : : $ : 0 0 ",
"7 0 0 q 4 4 0 B B B a 4 : : : # : : # : : : : # # @ # : : : : 4 # : 0 0 0 0 a : : : @ # # : 7 # : : # # # : ) ) a Z a a H a H K H u a # : 4 4 4 a 4 : : 4 : # # V X.4 4 4 p 4 4 4 0 0 @ : 0 # # # # # # : : : : # # # # # O # : : # # # # O O $ : : : : : : 7 0 ",
"0 B 0 0 4 4 B H n A a 4 : : : O : # # : : : # # # # # 0 4 : 0 p 0 : 4 # 4 a V 0 : : O # # : : # # # # # # # Z F u 4 a a 4 6 a a B a 0 # : $ : q 0 p # 4 ( 0 # 0 V ` 0 0 0 p 0 0 ( p 0 : @ 0 # # # # : : : : : : # : : : # O # # : : # # # O O O : : : & : $ 0 0 ",
"A A Z 0 0 0 B | j.H a 6 : : # # : : # # 6 6 5 0 a a 6 4 a 0 0 V 0 # # # # 0 0 6 # : O O # O # # # # # # 6 0 0 6 B H a a # # B H V : 0 0 0 O : q : 0 : : V 0 0 Z V # 4 0 0 0 # 4 # # 4 # : : # # # O : : : : : : # : O # # O # O O # # : # # $ $ : : : : : : # 0 ",
"` o.Z a 0 0 B | j.H a 0 4 : : : : : : : 5 6 6 B S A Z a 0 0 0 0 5 # 5 # # 5 6 # # : # # # # : 0 : # 5 0 0 B D V Z H ] ( q 0 B H B 5 0 0 0 # 0 0 : 0 # # f 0 V Z 0 0 4 0 # # # : # : # # @ O # # # : : : : $ : : # # ( : O # O O O O : 0 # # : $ O & & : # + # # ",
"J ] H B 0 0 B A n A 0 7 7 : : @ : 4 0 0 : : 0 A T e.] A a V V 0 4 0 6 # 0 g 6 # 0 0 : : # 6 # 5 V 0 0 0 B ( k.n V a b.] 0 q 0 B V 5 # # 0 # : # # # # # : : 4 4 4 4 4 # : : # # 0 a 0 # # 0 # # # : : @ : : : : 5 # X.g # : O O : : : : : # @ O + + : # # O + # ",
"B B H V p 0 6 a H A B 0 # # + # 0 V Z 0 0 4 a A i.dX,.A A S B a 0 0 0 # 0 0 5 5 0 0 f 0 # # # 5 0 0 0 0 # V B a a B m m 0 4 # 6 : : @ # : : : : : # O # : 0 4 # 0 0 0 # : : : : 0 4 0 0 0 V V : # 0 q : : : : : # # @ # 0 : : O $ : : : O O @ O # # # # # # + + ",
"0 q Z A Z a 0 n H T K n 6 # # # 0 S H 6 0 q 0 Z 1.Y.! A V B 0 0 : 0 : # 5 0 0 # 5 0 0 0 5 # # # : # # 4 # 0 6 # 4 6 u a 6 # # B 4 # 0 g 0 # # 5 V 0 # : 0 f 0 : q 0 # # : : : : : 0 0 4 # 0 # : : # 0 0 : : : : # : # # # : : O @ $ O : # # # @ # # @ 4 4 # # # ",
"# 0 F  . .B B n Q $X0.H V 0 # 0 V Z A n 6 q q V K m m p ~ f 0 4 + : 4 # # : : # # # # # # # # # : : # : : : # : w + | ] a 0 0 D B a H H A 6 # g B S 0 : 7 0 : # 0 0 # + # : q : # # # # @ # # # # 5 : : : : : : : : : : : : : : # : O $ # # # # # # F 6 0 ` 0 @ ",
"6 a H 1.O.Z V n R v.,.] S V 0 0 V A a A 6 q 0 0 0 0 6 4 2 # # : & & : : + # : # # # 5 # # # : : : : : 0 0 0 6 4 w 4 n ` A 0 0 B 6 B ` H O.A # 6 6 g # # + # # # # # + # # # : : : # a 0 # # 0 : 0 q : : q : : : : : : : : : : # # : : : # # # # # # X.a 0 V # @ ",
"a a A H Z Z a B H m W  .H B 6 # 6 H  .m a 4 4 4 # # # # : : : : : : : : & & : # # # # # # # : : : : : 0 p p 0 4 4 4 B g.H 4 # n # # g J `.6 # @ # # # # + # # O # # # : : : : & # 0 V p # 0 0 4 0 V 0 0 V q : q 2 : $ $ O # # @ # 7 0 : # # # # # # # 4 # # @ O ",
"q 0 0 0 0 0 4 : B H T W | H 6 5 0 J  X] n a 4 4 6 5 # # : : 7 : : 2 : # : : : : # # : : : @ : : : # # 4 0 0 4 # # 4 6 a a ] O.# a 6 5 a s V 4 # 0 0 + : q q 0 O : q q : : : : : # 0 a a 0 # q 4 # 0 a 0 0 q : : : : : : $ O O @ # 0 : 0 : : # # + + # # # # # O ",
"w 2 : 0 g 0 p a H K I ! ..H a 0 B H T H H A a a 0 5 : # : : : : : : # # : # # # # # # : # O : : : # # : : 4 # # # 4 0 0 B K 1.Z a a 4 B H Z 4 # 0 0 # 0 V V V # 7 0 0 : : q 0 : # # 4 # 4 # : : # # 6 # # # : : : : : : : O @ # # : : 0 : : # O # 4 O # g # # O ",
"q 0 # Z S H H T ! Q Q e.0.T a 7 Z H 1. .H H A Z 0 6 0 # : : # # # # 0 0 # # # # # # # # # $ : $ : : # # # : # # 4 6 0 0 V a X B S a 4 0 A Z 4 4 0 V 6 V V 0 0 # # 7 5 # 4 # # # # # # + # # # 0 # ` ( Z # # : 2 : : : : : : : # # # : 4 : : : O # 4 + + # # # O ",
"B B 6 B K T T *.&Xa.W c.0.K V # 0 n h. .K H B Z 6 # # : : : # : 5 ( 6 a 0 # # # # : # # # O : : : # # # + : # 0 0 0 V a a a 6 6 a u 4 6 a 4 B B 0 0 0 4 0 4 # # # # # # V ` # # 0 0 V # # 0 V 4 4 a a ) 0 4 q q # : # # # : : @ ' ( : : # # # # O + # + # O + O ",
"p q 0 S  . .m ,.$Xe.K H n B 0 : 7 B n H g.K B B 0 0 4 2 2 4 0 4 # 1..X# 0 : # : # # # # # # 4 # # # # : $ : # a a 6 S a 4 a 4 4 # # # # 4 6 o.V 4 4 # 6 # 0 V S a a H Z a ` 0 0 a l.] 4 0 V V 0 0 a V 6 0 0 0 4 : # # # O # # # g q : : # # # O O + + O O O O O ",
": : 4 n S K K K H T H A S g # 0 0 0 n H A A V 0 0 0 0 w : 4 p q #  .M.u q : : 0 5 # @ # 0 ) 4 4 # # # # @ : # # 6 6 B a n a 4 4 # # # 4 V B 6 0 0 # # a 0 # ' o.4 B ` A 4 0 Z 0 a F A 6 0 0 5 0 # 0 V a # # 4 # # # # # O O # @ # # : : : O O O @ O O # O O O # ",
"0 V 4 a B H H B J S a 6 B 5 # 0 : # 6 0 6 6 : : # 6 0 a 0 a a 0 4 u X a 4 # 0 4 4 # # 4 4 ' V 4 4 # # # # : # 0 0 6 a H H H 4 a 0 6 B a ( B a 0 0 # # 0 4 0 V a a o.a 4 0 0 0 6 0 0 4 # # : # : # 0 ( # } 0 # # O O : # # # # # # # : : # O O # O ` ` O # O O O ",
"0 V B 6 B n B 6 0 V 0 # 0 0 # # : # 7 # # : @ # 0 # 0 0 V 0 4 # @ # 6 4 4 4 a A A A 4 4 4 6 a 6 0 # 5 # # # # 0 a 6 a A H H A Z 6 6 0 0 0 0 4 # 0 4 : 4 # 4 a a a ` 4 0 : : 4 4 # # # : : : 0 V 0 # 0 4 ) 0 # # # # : : : O : # 0 # # # # # $ : O +.] O # O + # ",
"0 0 # # 0 B 0 0 # 0 # : # : # : # : : : # # # 6 0 0 a 0 ' Z 0 # # # # 4 # 4 S k.n A 4 4 4 4 4 4 a B B 6 # # # 6 B S a B a a S S a 6 a 0 0 V 0 4 : : : : 4 4 4 4 a # A 4 : 4 : # 4 : : : : # 4 0 : # 0 4 # # 0 4 : : : # : O # # 5 @ O O # # O O # . @ 5 O # # + ",
"a 0 # 4 6 6 5 : # : : : 0 0 : : : : : 2 : 5 a A Z a a a a 0 6 # # 4 # : # # 0 n u u 6 4 4 + 4 a 4 5.| # # O # 4 0 0 6 4 6 0 6 0 V 6 ' a 4 4 4 0 4 4 2 4 4 B ` A A Z a a 4 w p 0 : : # # # # 4 4 & 4 0 4 4 # # : : : # # # O O # # # O O O O O O O # # # @ # # @ ",
"n a # 4 B H g 7 5 V : : 0 0 f : : 0 q : # 6 # 5.o.# a a a 4 0 4 0 4 # : # # 0 B ] A 4 a a # 4 a ] K u A # # # # # # 4 # 4 6 6 0 0 B B 0 0 4 0 0 0 w : 0 6 a B o.| a a a 6 ^ a 4 : # # # # # 4 4 : : # + # # # # # + + + O O # O # @ O O : # O # # # # X.# @ # @ ",
"| a 4 B H J V 0 H H 0 a V 0 0 0 f f V @ # 6 # m n H ) 4 4 # 6 0 0 6 # 4 6 # B u [.` @ 6 4 4 # n | a u # 4 # @ # 4 6 # 4 6 6 6 0 p S S B 0 0 a a a Z 0 6 6 6 6 a B a a . X w p ( : # # # # # # # + # # # + + : ' + # + # O O # # # # O : : # O # : # # 0 4 # # # ",
"] A 6 0 S ( V V H H H a a Z V 0 0 0 # # # 4 4 6 a A H 4 4 4 4 0 4 4 B n 6 n m m r a 0 n a 4 4 4 4 6 # # 4 4 # # 0 0 0 a a B a a V B 0 0 0 a n O.a a 0 0 a 4 a a 6 a . k._.+ V V O # # 0 5 # 4 # ` V # # # + # 0 # # + : : O : : 0 V O : : # O $ # O # # # 4 @ # ",
"A B : 4 V a 6 B | | H a 0 a V V 0 : # # : 4 : : 4 4 6 a 4 a a 0 0 0 V | h.j c.pXu A B B B 6 4 4 p 6 # ] H 4 # 0 a S 0 0 a V V a p 0 6 # 6 4 { ] a Z V 0 6 4 6 6 6 6 # 5.O.& q O # # # 0 0 # 0 4 X.Z # 5 # # # # : : # q : # # : 0 : O O O O O @ # O @ # # # # # ",
"4 4 # 4 0 4 0 n K O.1.H 0 0 V S 0 # 4 q w 4 : : # # 4 a a Z B 0 4 0 Z T M.U  .h.n n B B 0 0 4 p p u u A A 4 4 4 A ] n B 0 B 0 ` B 5 5 5 6 a A A u u S 0 4 4 4 6 6 6 a # # 0 : q 4 # 4 p : : _ 4 # # 0 # # # # # # # @ # # # + O # # # O # O O @ # # # + # # + # ",
"# # 7 5 a 0 S H A K T H 0 0 q 0 0 : 0 V p a 4 4 # : a n H ` B S V # B M ,. .m u T ] H ` 6 V S n n ] ` a 4 0 4 4 H H H B 6 0 0 a 0 5 # # a S A u H g.B a 0 6 6 B S 6 0 0 4 # # # : # 4 0 # : # + # # # # # # # # O # # # : # # 0 0 0 # : 0 : O # 0 # # # q # # # ",
"6 d 6 0 V a a A A H m 4 4 4 4 # # # 0 a H H B a 4 4 a n K ` 6 6 # 4 H ! ,.W r n A ` B a 0 p a n 1.] H a q q 4 0 H K | 0 a 6 6 6 6 6 # 6 A r m K m O.0 0 0 0 0 ` k.4 4 4 # + + # + # # # # # # : : # 0 5 # # # # : : # # O O O : f q # + 7 q : 4 0 a 4 # # : # 4 ",
"n | m n Z 0 a B B A n 6 6 4 : : 4 0 a B 1.O.A A a 0 a A H B 6 0 0 # K m.H u # 0 B ) B 0 a 0 6 a H a a a 4 w 4 4 B H H a 0 6 6 a 6 6 4 a A w.Q h.m n 6 4 0 0 V B a a # # + + # # # : : # # # # : : # 0 0 # # : # # 0 : # : O O # 0 0 # # 7 0 : 4 Z a 4 # # q # # ",
"I M.Q m A # 4 a A H J a 4 # 4 0 a B S H T ] H H A 6 n A B 6 0 V V 6 Z A ) 0 0 V a # 4 0 0 0 0 4 w 0 4 : 4 4 6 B n n n 6 6 # 4 6 # A K J u b.Q  .| H 6 # 4 0 a V a a n a # O + + + + 4 # # # # : # O O : # # # # O : q : : O O # @ # + # O # # @ V { 4 0 # ( 0 # ",
",.=.<.T A a 0 S H ,.3.A 0 6 a 6 | g.H ] H H T | A n n Z 6 # V S H A a B # @ @ 0 6 # 0 0 0 4 : $ : # # # 4 S H n H n s H 4 5 B A a m T T m H m  .T a 4 # 4 4 0 0 n n  .| # @ O O O + + O # # # # # # # O O O O O $ # + # : O # : # # O # : : # 0 4 0 0 0 : : : # ",
"I Q q. .H Z H ` |  .I H 0 6 Z A K O.K J H H T ` H H B B 0 # 0 B n n 6 # # @ O @ # # 7 0 4 q 4 # 0 B 0 6 # K w.K K H A Z a 0 S J H K m T H n m M m a 6 4 # # 4 4 6 K [.H # # # # # # O & + O 4 # 0 # : : 0 # + # # # # # # # # # # # # : q : 4 0 # # 0 # O 4 4 # ",
"m ..Q  .m n Z ` S H H B 0 V S ) B B S g n H T o.A 6 6 # # # # H | H A a 4 # # 6 4 B S B a 6 B n H m n n m M m n H H H H # # # o.O.m |  .m n n H J a 4 4 # # : : : a n 6 # # # # # O #   K [.O 6 # # # 4 a 4 @ 4 6 4 # : : # # # : : # # : : : # # # 6 # # # : # ",
"n H H H m n Z 0 0 0 0 0 0 0 6 0 6 6 6 g n >.'.! K n 6 0 V 0 6 K  .H A ` H a # a A H H H n H ] m | | n T  . .n # a n K K # # 6 B u m T H H n 6 6 | a # # # # # : 4 6 6 V 0 # # # # @ # # m O.# 6 0 0 0 a a 4 4 H S 6 # q q # # # : : O # # : : # 6 # # # # # # + ",
"6 B A S | J a V w : q q : 0 a 4 0 B 4 n J | 0.! | B B Z ) V 6 H S B | H H Z p A H ` B 6 n A A K 5.I 3.T T I u a a n O.n n n H H I Q m m ] H a 6 6 a 4 + 4 6 H n u 6 # ( 4 # 4 # #   # # # O : V 4 6 0 Z a 6 @ ' B 6 # # : # # # # O # # # : V # # 0 0 # 0 V + O ",
"a 6 A A H H H ) V p B 0 4 Z S 0 p B 0 n H H m | ` B a H ` B a ) ( V Z H Z Z Z A n A B 6 6 6 A K H T M.r.! T T m H K 1.n  .w.h m i.|.m T T K ` 4 a u 4 # 0 . *Xe.X 7 # 4 # # # # 4 l.6 # # ( ( 0 a @ ) B 4 4 # # 5 # # # : # # : : : : : 0 0 6 0 6 a B # 0 Z 4 @ ",
"a a A S B a ` ` ( 4 a a a n J Z 0 0 0 # 0 Z A Z Z B V Z Z H B 0 4 0 6 a a H K A n n a B a 6 Z T H m j U ! Q I I | ] H m T T c.W Q e.T | r  .o.4 4 4 0 : 0 # h.h.T V 4 u # # # # a { # 5 # a 6 # # z.X.# 6 4 4 @ 6 # # 5 : : # : : : : : 0 0 V 0 # a 0 # a ( V # ",
"H H 6 6 # # a a V # # 0 a ] g.a a 0 7 : q q 0 : 4 6 6 K ) Z 6 a 0 0 H H o.K K H ] A B 0 a 6 a n H H M M c.c.m  .T H H n n n '.! R *.1. .w.W u # : + 4 4 4 a u `.| H 4 4 # # 4 6 4 O # 5 5 6 . # # ` A B S 6 0 X.g 6 # 5 # : : 7 : : # O 7 0 V 4 # # p # 0 # @ # ",
"K H 6 5 O   # : # : & : 4 H ] A a 0 : q : : : : p 6 # K Z a a ( 6 S ` ] O.H u u H H # # A a # n O.H m T M j h T T u H u X n r r >.c.,.T j.I X # $ : a B ) 6 n o r 4 6 6 # # B 0 0 4 # # @ 4 # # 0 # # a 0 6 4 X.0 0 5 0 5 # : : : : # # @ # # # 4 # # : O O O 0 "
};
