/* XPM */
static char *conhecimento[] = {
/* columns rows colors chars-per-pixel */
"128 128 231 2 ",
"   c #14140D",
".  c #1B160E",
"X  c #1D1B0E",
"o  c #1F1D06",
"O  c #171615",
"+  c #181715",
"@  c #171814",
"#  c #1A1A16",
"$  c #171718",
"%  c #191718",
"&  c #191718",
"*  c #171918",
"=  c #191918",
"-  c #191919",
";  c #181818",
":  c #1A1A18",
">  c #1A1A19",
",  c #1B1B19",
"<  c #1B1A18",
"1  c #1A1A1A",
"2  c #1B1B1B",
"3  c #1A1919",
"4  c #1C1B18",
"5  c #1D1C19",
"6  c #1C1C1A",
"7  c #1D1D1B",
"8  c #1F1E1A",
"9  c #1E1D19",
"0  c #1E1E1C",
"q  c #1E1D1D",
"w  c #1B1B19",
"e  c #231D0D",
"r  c #291E0B",
"t  c #241B02",
"y  c #221E14",
"u  c #291E12",
"i  c #201F1D",
"p  c #211E1A",
"a  c #281F19",
"s  c #1F2015",
"d  c #1F201B",
"f  c #1F201B",
"g  c #25210D",
"h  c #2B230D",
"j  c #2D290F",
"k  c #2A2206",
"l  c #32250B",
"z  c #332B0D",
"x  c #3A2C0B",
"c  c #3D2E04",
"v  c #39310F",
"b  c #242115",
"n  c #2B2414",
"m  c #2D2A15",
"M  c #21211B",
"N  c #21201C",
"B  c #23221E",
"V  c #22221D",
"C  c #24231E",
"Z  c #24221C",
"A  c #24241D",
"S  c #25241F",
"D  c #26251E",
"F  c #23221C",
"G  c #2A251B",
"H  c #27281E",
"J  c #2D2A1C",
"K  c #252810",
"L  c #322613",
"P  c #332B14",
"I  c #3A2E14",
"U  c #33271C",
"Y  c #332C1C",
"T  c #3A2F1B",
"R  c #3C3215",
"E  c #35311C",
"W  c #3B341C",
"Q  c #38341A",
"!  c #1E1D21",
"~  c #211E20",
"^  c #262521",
"/  c #252421",
"(  c #292721",
")  c #272822",
"_  c #2C2A23",
"`  c #2D2C29",
"'  c #322E22",
"]  c #392E22",
"[  c #332F29",
"{  c #2F3029",
"}  c #353123",
"|  c #3B3423",
" . c #3E3A23",
".. c #33322C",
"X. c #3A362C",
"o. c #3D392C",
"O. c #3D3B32",
"+. c #363530",
"@. c #45340E",
"#. c #422E13",
"$. c #413213",
"%. c #453916",
"&. c #42351B",
"*. c #433A1D",
"=. c #4A3C1C",
"-. c #483718",
";. c #513E1C",
":. c #423725",
">. c #433B24",
",. c #493E23",
"<. c #433D2B",
"1. c #493E2A",
"2. c #41372A",
"3. c #503F21",
"4. c #433F33",
"5. c #4F411D",
"6. c #54431D",
"7. c #5A461D",
"8. c #584417",
"9. c #474125",
"0. c #4D4224",
"q. c #45402B",
"w. c #4C422B",
"e. c #4D482E",
"r. c #544424",
"t. c #544923",
"y. c #5C4C25",
"u. c #52452C",
"i. c #5A4629",
"p. c #554A2D",
"a. c #5B4C2C",
"s. c #5E4726",
"d. c #5C512D",
"f. c #454235",
"g. c #4B4331",
"h. c #4D4934",
"j. c #434138",
"k. c #4A453C",
"l. c #49483F",
"z. c #514531",
"x. c #544B33",
"c. c #5B4D33",
"v. c #534C39",
"b. c #5C5235",
"n. c #55513D",
"m. c #5B533C",
"M. c #575435",
"N. c #624E2A",
"B. c #654D25",
"V. c #655125",
"C. c #63532C",
"Z. c #6A562D",
"A. c #6A592D",
"S. c #665829",
"D. c #725C2E",
"F. c #604F30",
"G. c #625434",
"H. c #6B5633",
"J. c #665933",
"K. c #6A5A34",
"L. c #62553C",
"P. c #645A3C",
"I. c #6C5C3C",
"U. c #69573A",
"Y. c #725E34",
"T. c #725E3B",
"R. c #785D39",
"E. c #6D6035",
"W. c #6D613C",
"Q. c #746134",
"!. c #7A6435",
"~. c #74633C",
"^. c #7A653B",
"/. c #7B693D",
"(. c #7A6939",
"). c #514D41",
"_. c #5A5346",
"`. c #655B41",
"'. c #6C5D41",
"]. c #625D4C",
"[. c #685944",
"{. c #735F42",
"}. c #6E6143",
"|. c #6B634B",
" X c #67604B",
".X c #736443",
"XX c #7B6644",
"oX c #736845",
"OX c #7D6A43",
"+X c #74664B",
"@X c #746A4B",
"#X c #7C6D4B",
"$X c #7E704A",
"%X c #7E7043",
"&X c #7A6F52",
"*X c #756954",
"=X c #7E7152",
"-X c #7D725A",
";X c #717060",
":X c #816B3C",
">X c #846C35",
",X c #86713F",
"<X c #836E44",
"1X c #886B42",
"2X c #816D4D",
"3X c #826640",
"4X c #847144",
"5X c #84734C",
"6X c #8A744C",
"7X c #887649",
"8X c #816D52",
"9X c #837452",
"0X c #897452",
"qX c #8C7B51",
"wX c #847759",
"eX c #8D7C5C",
"rX c #847857",
"tX c #917C55",
"yX c #907C59",
"uX c #907650",
"iX c #977940",
"pX c #847C63",
"aX c #9A814E",
"sX c #93824F",
"dX c #978458",
"fX c #A28B5C",
"gX c #A58949",
"hX c #958363",
"jX c #9A8A69",
"kX c #A28C60",
"lX c #A49163",
/* pixels */
"O $ + # 9 + O + 9 # # # # 9 # O 9 6 O . b # # H s   / 5 $ p B O # / B O # N A 5 O q O # O O i 9 + O : + + & # @ # @ # # # + O B / A 4 9 B 4 # B 9 O O 9 0 0 9 0 9 O : : # : # # : # : # : 6 : : 2 : : : # : : : : : : : $ : : : : : # # # # # # : # : 0 9 9 : : ",
"9 O 5 C C i O 9 / / # 9 B S 9 9 / B 9 # B 0 : / 9 # / 5 O + 9 O 9 4 9 # : 0 O   O O O # # O O O O O + + O + B S B # f B B # # / B p 9 4 5 # # 9 f # O : : 0 0 0 : O : : # : : # : # : # # : : : : : : : # # : : : : : : : : : : : : # : # # # # : : : 9 9 0 : # ",
"C @ A C 9 9 # B _ C # B / f @ # B N @ O : 0 O : 9 # 4 # O O O O O O O O O O O 0 : O 9 B / O : q : + 0 B 4 4 B / B O 9 A B # # A / C 4 O 9 # : B : # O # # # : : # O # # O # O O # # # # # : : : : : : # : : : : : : : : : : : : : : : 9 : : # : 0 : : 9 : : # # ",
"/ : # B / p @ 9 B 9 4 # f 9 O O # # O O O : : O O 9 p # O 0 O O O 0 9 9 # A # 9 / # # N @ # B B i + B C A N / 9 B f 9 9 B # O @ 9 C 4 O : : # : O O # # # # # # # : : @ O # # # : # # @ # : : : : : : : : : : 9 : : : : : : : : : # : : : # # : : : : : : : # # ",
"# + O + 4 # O O O O # @ O O O O 9 4 : O : / B / 4 / A # 9 A #   4 C B 9 # p + # B # 9 C # 5 A A C + + 9 4 9 9 # 9 # O + + + + @ # O + & & 0 # O O : 6 # @ # # # : 9 : : # : : # # # # # # : : : : : : : # : : : # # : : : # : # # # # # # # : # : # # : : : : : ",
"4 i 4 O O O & O # # @ # B B 9 @ N A 6 O f S 5 9 : 9 N O # B A O   5 B : O # O O O O # 9 # # # # O O O O O O # 9 9 O + # # # # : / B + 4 / d 9 # 4 # # # : : : : : : : : # : : : : @ O O : : : : : : : # # # # # # # # # : O # : : : O : : : : : 0 0 9 : : : : : ",
"/ / 9 # B 9 + 4 B B 5 # B N 9 @ N A : O 4 9 A 0 O # 9 O 9 9 6 : O : O O O O O O O O O O O O @ 6 # O O O # : 9 / C # 9 B B : O B ( C 9 9 0 9 9 # 4 4 # # # : : # : : # : # # # # # # : : : : : : : : : O # : : : : : : : : # : : : : : 9 9 9 : : 2 : : : 2 0 : : ",
"B i O C B A 5 4 C C N p 9 4 B # # 5 # @ O O # # O O # O O O $ $ O O O O O O # + : # # 4 # @ # 9 : # f 9 / B # / / # / / / 0 O 0 9 9 : O : : O O # : @ @ # @ : O # # # : O # : : # : : : : : : : : : : : : : : : : : # : 6 # : : : : : : 9 : : : : : : : : : : : ",
"C B # B B p 9 O # # # # @ + + $ O O O : O O # O O # : : O : : 0 O O : # O @ # : 9 : 9 4 9 O : B B # 6 / 9 : # / B # B B # 9 O : O O & & & : : : : $ # : # # : # # # : : # : : : : : : : : : : : : : : : : : : : # : # 4 6 # # : : : # : # # : : : : : : : : : : ",
": : + + # O O O O $ O + 9 B # O # 9 6 O O : / 0 O : # # O 9 9 # O # # # # @ # 4 9 # # # O O : # 9 O O : O O # 4 # # # # # # : O # : : & q : q : : : : 9 : 9 9 : : 9 9 : @ # : : # : : : : : : : : : : : : $ : : # : # # # # # : : # # # # : : : : : : 2 2 2 : : ",
": : $ $ B 9 O O : O : # 0 0 : # B B / # # 0 9 9 # # # # O O : # O O # @ O O O O O O O O # O O : : # 5 # p C p 4 N / 9 B B 9 : O : : # O : : : # # : 9 : # : 9 # # : : : # # # # # O # # # : : : : : : : : : : : : : # # # # # # : : : : # : : : : : : : : 2 2 : ",
"9 f 9 O 9 B # # : : : # # : # : 0 9 9 # # : O # # O O O O O O O O O O O O O O O O O O : : O : 0 O # / 5 B / 9 9 B / 9 9 B S 9 O : : : O # # : # @ : # # # # : # # O O O O O # # # # 9 : # : : : : : : : : : : : : : : : : # # # : : : : : : $ : : : : : : : : : ",
"9 B 0 # 9 9 9 O # # O O # # # # # # # O O O O # O O # # O O O O O O O O $ O O # : # O : @ O # 0 @ 9 A # + 0 # 9 B B B 9 B 9 : # : : # O # : # O O # # O # # O # O # # # O @ # # # # 9 : # : : : : : : : : : : : : : : : : : : : : : : : : : : : : : : : : : : : ",
"# O O : O @ # O O O O # # # # : : : : : O # 9 # O : / : 9 # 6 : # O O O # O O : # : O # # O O 9 0 : : : O 9 i + 4 4 4 # # $ O : O : : : : : # # # # # # : : : O : 9 9 : # 9 f 4 # 0 9 : # : : : : : : : : : : : : : : : : : : : : : : : : : : : : : : : : : : : ",
"O # # O 9 f # 0 9 # 6 9 # # : : : : 6 9 # # 9 : O : 0 9 0 : 9 0 # O O # # O O O O # # O O O O O O O $ $ # + # + # : # O # : O : : : # 9 : : # # # : : # # : 9 # : 9 B 9 # 9 9 9 O : 0 : # : : : : : : : : : : : : : : : : : : : : : : : : : : : : : : : : : : : ",
"O # # # B # # B 9 O # : # # : : # : 0 6 : : 9 : # # 9 4 # O # # O O O O O O O O O O O O O O O # 0 : O : 6 6 # # 9 / 9 # 0 f 6 2 9 # : 0 9 O : # O # : # : 9 9 : : 9 9 : @ # # # # O : : O : : : $ : : : : : : : $ : : : : : : : : : : : : : : : : : : : : : : : ",
": : : @ 9 B 4 B 9 # # : # # # # # : : : : : : : # # # O O # O O O O # # O O # @ # O @ # : O # : : 0 O B A N # 9 C B : 9 0 B 6 $ : : # : : # : : O O O # # O # : : # O # # # # # : : : : : : : $ $ : : : : : : : : : : : : : : : : : : : : : : : : : : : : : : : ",
"O # O O O 4 + # # # @ # # # # # # # # : # # # # 9 # O : : # O # # # : 9 # @ : : : # # # : O : : : # : / A f # 9 C 9 + @ 9 9 O O # # O O # # # # # # O # # # : 6 # 9 # 9 9 # : : : # : : : : : $ $ : : : : : : : : : : : : : : : : : : : : : : : : : : : : : : : ",
"O O O O O + & O O + # # # # # : # : : # # : : # 9 0 # # : # O # # O # : : O # : : @ @ # # O O : 9 : O : # # # + # # # # # @ @ O @ 9 0 9 # 0 0 : : 9 # O : 0 0 9 9 B # : 0 : # : # # : : : : : : : : : : : : : : : : : : : : : : : : : : : : : : : : : : : : : : ",
"O 6 # O 9 : : + O : 9 : # : : : : : : : # : : : : 9 # # # O O O O @ # # # # # # O O O O O O @ @ O O $ O O O O # 9 : : # B B 9 : 9 f 4 9 # 9 9 # # 0 9 O # 9 / 9 6 9 # : : # : : : : : : : : $ $ : : : : 2 2 : : : : : : : : : : : : : : : : : : : : : : : : : : ",
"B B 4 # B # 4 # 6 d 9 # # : : : # # # : # # : : : : : O # @ O # # # # # : @ # @ O # O # : 0 9 O : : : $ : : O : i 0 4 O B B 6 @ 9 N 9 5 # 4 9 # # B B # # 9 9 # # : O : : : : : : : : $ $ : : : : : $ : : : 2 2 : : O : 2 : : : : : : : : : : : : : : : : : : : ",
"9 9 4 O # 9 f # 4 9 : : # : # # : # O # # # # : : # # # O O # # # # # # : # 9 9 # : # O : 9 # 9 0 B # 9 N B # : 9 : B : 0 / 9 # : : B 0 : # # # # + # # # # # # @ # : : $ : : : : : : : : : : : : : $ : : : 0 2 0 0 : 2 0 : : : : : : : : : : : : : : : : : : : ",
"# O O O O : 9 @ O O # # # # O # : # # # : # : 9 : : : : # # : : O O : # : # : : # 9 : # 9 : # B B B 9 @ 4 5 : # : # 9 O O # # : $ & $ $ : O # 9 @ # # B p @ B B # # 9 9 : : : : : : : : : : : : : $ : 0 : : 0 0 0 0 : : : : : : : : : : : : : : : : : : : : : : ",
"$ O : : O O : $ : $ # # O # : : : # : : # : : : : : : : # : : : : O : # : # O # O # # # 4 # O 4 : O # O @ : O + # : : : O # # : @ : B 6 O 9 B B # 9 9 B 9 # B f 9 # 4 9 : : : : : O : : : : O : : : : : : : : : : : : : : : : : : : : : : : : : : : : : : : : : ",
"O : 6 0 O : : : : : : : # # # # # # : 9 : : : 9 9 # # # : : : : : O O O # O O # # # O O O O O O : : O : O O : # 0 / 9 O 0 N 9 : # N / A 5 B B B # p C 9 @ B B B 9 # # : O @ O O # # # # # # # # : : : # # : : : : 0 2 : / 9 : : : : : : : : : : : : : : : : : : ",
"O # : O : 9 9 9 O : : # # # # : # O : 9 : : # : : : : # # : : : $ : : O : # # # : 0 9 # 9 4 # # B 0 # # : # d # 9 B 9 # p B ( # 4 A 5 N 4 # : + : & 4 4 + @ # O O # # # : # O O # # # : # @ # # 9 0 9 : : 9 # : 0 0 0 : 0 0 : : : : : : : : : : : : : : : : : : ",
"# # : @ : 0 9 9 : # # # # # # O # O # # : # @ : : # : : : : : : : : : : : : : : : 9 9 : i i 9 # 0 B 9 # 9 9 # @ # 9 # # 9 i 0 : # 4 l.N @ @ + + & + + + # # O : : @ # 6 9 9 : : : # : : # # # # : 0 : : 0 0 : # : 0 : : 0 9 # # : : : : : : : : : : : : : : : : ",
"# @ # O # O O O # # # # O O # O # O : : # # @ 0 B : : : # : $ : : : : : : : : # : : : : : : # # 0 9 : O O # O : : @ # O O O $ : # # X.9 @ # 9 9 9 + 9 4 9 4 9 0 0 9 # 9 0 9 # 9 4 # # : # : : # # : : # 9 # # : : : : : : : : # : : # : : : : : : : : : : : : : ",
"# O # O O # : # # # # # # # : : : : 9 9 4 # # 0 B 9 : 6 : : : : : : : : : : : # # : O O + + # # + : O # # # : : : @ : # # 9 p 9 @ 4 4 # # 9 B B p # 4 i B + # 0 0 : : 9 6 : # # : # # # O O # # O : 9 # 4 @ O # : : : : : : : : : # # : : 2 : : : 2 2 : : : : : ",
"# : 6 # # # 9 : # : : : # O : 6 : 0 0 0 9 # # 9 6 # : # # # : : # : : $ $ $ $ : # # : # : : : : 9 : : 0 9 : : : : @ : # # 5 N p # + 9 B # # 9 B 9 + : 9 9 + + : : # : # # # # + # @ # : # # # # : : : # # 6 # : : : : : 0 : : 9 : : : # # : : # : 0 0 : : : : : ",
"# : 9 9 : # 9 6 # # # # O O : # # : 9 # : : : # # # # : : : # # : # : : : : : : : : : : : : : : 2 : 2 0 0 : : # O O # : # : : : + # : 0 : # 9 + O + O # O O O # # @ # # # # + # 4 O q 0 9 i # : d 0 : # 9 : # : : : : 2 0 : : : : : 9 : # # : : : # : : : : : : ",
"O # # # : # # # # O O O # : # # : O O : : : # 9 : # : 9 0 0 9 : 9 0 : : 2 2 : : : : : : $ O : $ : : : : : : : : # O # # # O O O # # # # # + O # 9 9 # : : # : : # # d 9 9 # : : 0 & ~ 0 9 9 # B / N : : 9 : O : : : : : : : : : : # : : # # : : : # : : # : : : ",
"O O O : # # # O # : O : 9 4 # # 6 # 9 0 N 9 # 9 0 # # 9 B B 0 : 9 0 : : : 2 : $ : $ O $ O O O $ : : : : # O : : # @ # # : $ O O O : : # # + O # : : : 9 : # : 9 # : 0 0 9 4 0 9 0 : : 9 B 9 # 9 B 9 9 # 9 : # # : : : : : : 9 : : : 9 : : # # # : : : : : 0 : : ",
": # : : # # : O # : @ : 9 4 # # : : 9 B S 9 # 9 f 9 4 f f 0 : : : : : : $ : $ : $ O O O $ : : : : : : : : : 0 : # # # # : : $ : $ : : O # O O # : # O : : O # : : # 9 0 9 : : 4 # O O # 9 # O : # # O O : # # @ : : : : : B B 0 : 0 0 : : 6 # # : : : : 2 0 2 : ",
"# # : : # : : # O # # # 6 # # # # : 9 0 5 # # 6 # 4 : : # : # # # : : O : : : : : $ $ $ $ : : : : 2 0 : : 0 0 9 # : # : : : : : O $ : : : # O O O : O O # @ : : : : : # # : # # # 6 9 @ @ # # # : : # # B 0 # # : : : : 0 B 0 9 9 9 4 # : 9 9 # : : 9 0 : : : : ",
"# # O # O # : : # # # # # # # # # O # # # 4 : : : # # : : : : : : : # # : : : : : : : : : : : : : : : : : 0 0 : : : : : : : : $ O $ : $ : : O O $ : : : : O $ & : & : : : B # : 9 B 9 4 B 9 # 9 / S B 0 N 5 0 : 9 9 : # # 9 / B # 4 9 # 4 9 9 : 9 9 : 2 : : : : ",
"# : # # # # : : # # # # # # # O : # O : : : : 0 9 : 0 6 # 9 9 : : : : : : : : : : : : : : : : : : : : 2 : : : : : : : : : : : : : : $ : : $ : : : : : : : $ O # 9 # # p : 0 0 : B 5 # B f / 4 9 / / / d N 5 d : # : : : O : 0 0 : O # # # # # : : O : 0 : : : 2 ",
"# # # # : : : : : : # : : # # : 9 : : 0 9 : # 9 9 6 0 9 : 0 9 : : : : : : : : : : : O $ : : : : 2 2 : : : : : : : : : : : : : : : : : : : $ : : : : : : : # # 4 # _ ..5 # 9 B 6 / 9 : B / B 9 @ # 9 6 : @ # @ : # # # # : : 0 : : # 9 9 # 6 0 B 9 O 9 0 : : : : ",
"O : : : : : : : : : # : : # : : 6 # : 0 0 6 # : 9 6 6 : : 9 : : # : : : : : : : : : : : : : : : 2 0 2 : : : : : 2 : : : : : : : : : : $ : : : : : : : : : : : 4 # / ..# 6 4 # # : : # # @ O # # # # : O 9 N # @ : : : # # 9 / i + 9 B B # B B 0 : 9 0 : : : : 2 ",
": : : # : : : 0 : O : : : : # : : # O 9 9 # # : : # : # : : : : : : : : : : : : : : : : : : : 9 d 0 0 : : : 2 2 : : : : : : : # 9 : q : # # # : : : : : : # : : : # # 4 # 4 # # # # # # 9 0 O # 6 # / : B _ 0 : B 0 B : # B A N 4 9 9 9 # : B 9 # : : : : : : : ",
"# # # # # # : : # : : : : O O # # O # # # # # : 0 : : : : : : : : : : : 2 : : : : : : : : : : f { 0 2 : : : : : : : : : : q 4 p p p + 9 5 # # : : # 5 2 : # : # : : 9 : # 9 9 6 6 : : # 9 B # 9 B S / 4 B _ f 9 / A / : # 9 5 5 # # O # # : # # : # : : : : : : ",
"O # # # : # # # # # : : : O O # # : # : B d # : 0 : 2 : : : : : : : : : : : : : : : : : : : : 9 f 0 2 : : : : : : : : : : 0 B p b m x.' p 5 9 9 5 b # : # # : # : : # # # # # 9 9 : : : : B B # 9 9 4 # 9 B # # : : # # $ & O O $ $ # 9 4 + 9 # # : : : : : : : ",
": O # : 9 : O # # # : : : : # # # # : 9 9 9 O : 0 2 2 : : : : : : : : : : : : : : : : : : : : : 0 2 : : : : : : : : : 9 p i p g.0.a.lX$.U J p n n g J p # # # # : : # : : : : : : : : # # 9 4 # + # # # @ # : 9 + ~ 0 B : 9 B # O 0 / B B # B B B : : : : 2 2 2 ",
": # # : 9 # : 9 6 # # : : : # # # # : 6 9 6 # : : : : : : : : : : : : : : : : : : : : : : : : : : : : : : : : : : : 4 4 p C Z | #XC.(.V.eXW P #X.XrX|.. 9 6 4 : : # # : : : : # : : : # # 9 # B 9 # A _ 9 5 A C 4 ) / ( 9 9 / B : 0 C _ ( 9 B A B # : 0 : : : : ",
"9 4 # : 0 $ 0 9 9 : : : : : # # # # : O # # : : : : : : : : : : : : : : : : : : : : : : : : : : 2 2 : : : : : : : : : 4 9 i G g C.y.N.U.1.t b.G.H.b.g Z s # 5 6 6 # : : : : : # : : : # 9 9 # B 9 # B A p G b A # B _ / 5 B _ / : 5 A A 9 # 9 0 2 : : : : : : : ",
"# # # # 9 : & & $ & : : # $ : # : O # : : : : : : : : : : : : : : : : : : : : : : : : : : : : : : : : : : $ : : : : : : 0 0 p b >.&X8Xp.n b W #X~.k m e b J } s b 5 : 2 : : : : : : : # 9 0 # 9 9 @ 9 / 4 p 4 B 4 i 9 + # B 4 9 : # 4 @ # 9 O : : : : : : : : : ",
"O # # O # @ + : : O $ : : : : : : : : : 2 0 : : : : : : : : # : : : : : : : : : : : : : : : : : 2 : : : : $ : : # # # : 0 0 4 N s ' | b y a y I.tX&.P `.c.+X1.b p 5 4 2 : : : : # # : # : 9 # : 6 # O 0 4 + # # + + O # # + 9 : 9 9 # B A / 9 9 B 6 9 9 : : : : ",
"9 B 4 9 9 # # 9 9 # $ : : : # # : : : : 2 0 : : : 2 2 : : # # # # : : : : : : : : : : : : : : : 2 : : : : : : # # # # # 9 9 p p f 5 p p p p y b.+XY Y G.;.Z.-.T 2._ # : + : : : : # # # # # : : @ : 9 O & # 4 9 + # B # + B / # A _ # f A # 9 / B @ 9 d 9 : : 9 ",
"S / f B B p # 9 p 9 : : : : # : 9 : # : : : : : : : : : : # 4 9 9 9 : : : : : : : : : : : : : : : : : : : : # # # 4 9 5 f b b b J b p p 4 # X g n y ' .XZ.Y.OXK.L.| # 5 : : : : : # # # : : 9 # O 0 B 9 + 9 B C 9 B / C 9 9 / # C / # B / 4 O B B 9 B 9 9 : : 6 ",
"d 9 # # 9 # : 9 # # : # # # : : : # @ # : : : : : : : : : : 9 p G C 9 : : : : : : : : : : : : : : : : : : : : : 9 9 9 N N Y h oX#Xh | y ] | <.T e p ' w.T.(.7.K.R X # X # 6 : : # # # : : : : : : 0 / 4 9 B B 4 # B B B : O A 9 4 B 9 9 N 9 # & q : - # # # 2 : ",
"@ # O O : : # O # # : # # : : : : 6 6 : 9 9 : # : 2 : : : : 0 G ].} 4 : : : : : : : : : : 4 4 9 0 : # : : : : 4 9 9 B Z b 4.I.:X/.$Xp.L +X5XwX| 5 N p y T U.b.P P x.m.u.P # 6 $ # # : : : : : : # 9 0 N # p C # @ : N : : : # 5 # + 4 9 9 O 4 i : : 0 B f 9 0 d ",
"9 9 : : 9 : : : # : : : : : : : 9 6 6 : : : : # : : : : : : 0 Z o.G 9 : : : 2 : : : : : : # ` ..: 9 # : : : # # 9 9 N Z G n G.Z.Q.b.r | .XK.x h # # g C a b G g a.6XH.G.+XG : : # # : : : : # : # # # @ # # # # @ 9 9 : : + B / / 9 B _ C # A G # 4 C A B f f B ",
"/ / # 6 : : # : : : : : : : : : : : : : # : # # : : : : : # 2 p 5 p 6 # : : 2 : : : : : : 5 N N 9 4 4 9 5 5 4 4 9 5 p Z n m Q .X}.R G y G.eX#.R u.x.v.y p p b o .XZ.s.-.c.G 2 : # : $ : : : O O # # : # # 9 B B @ 9 _ S : 9 ( N / B 9 B 9 # N _ B # 9 A A 9 9 B ",
"B / 9 # 0 9 # : 0 : : : # 9 6 # : : : # # # # # # # : : : # 2 4 5 4 # # : : : : : : : : 4 9 5 # 2 4 p Z b G N 5 5 5 b b n m W &.n n n g >.-XI *.b.I.y.L ' N y Y [.{.#XP.n N 0 : : : : : : : # # # 9 9 4 # 5 9 9 # f / S # # i _ ) 0 + B B 9 / B B # 0 N 4 # : : ",
": : : # : # # # # : # # : : / A # : : : : : # # : : : : : # : : # # # # : : : & & 2 2 0 0 0 9 # & 4 b G | U Y G b b b n n >.}.0.n n &.d.h Y e w.I.}.$XI.n._ p Z n :.>.m m b # # : : : : : : : : # 9 0 9 : 9 # B f # f B : : : 9 / 2 : : : : : O # 9 # # N 9 : : ",
"# # O # : : # : : 9 : : 9 # ..` # 6 $ $ : 2 : # : : # : : # # : # # # # : : : # # i b y b i p # : 4 G .X<XXXu.n J m Y n m +Xa.G.Q T sXsXI b b I ,.9XC.G.z o p s b b b T a.t.1.G # : : : : : : : # O : : : : : # @ @ # O : : : 6 : : : 0 / 0 : 9 / / : 9 ( B # B ",
"9 0 # : : : : 0 6 9 : : 6 9 9 5 9 : : : $ : : : : 9 : # : # # : # # # # # + $ : # I .Xa.P P p 9 9 Z y t.:X4X7X>.G E b.W P &X.X=Xz =.aXqXP m m P m >.u.l $.a.1.m b b n I.!.aX=Xn # : : : : : : : : # # O O O 9 9 @ @ 9 6 # # : A H 5 9 A / B : A / B 4 B A / B 9 ",
"9 9 : 9 9 : : 9 9 : : : : 9 9 : : : # : $ : : : # # : # # # # : # # : : : O $ : X t.:XT.3.*.v.y N g 9.R $.a.y.T Q R OXG.n Q @X>.G h '.*.g x.b.P.z e b n I.OXH.W.G y u.6X:X(.*.b 5 # : : : : : : : $ @ # 9 # B S 4 f S / f # B H H _ 9 S f d 9 A _ 9 4 B / B 9 9 ",
"9 : : 9 : : : : : 6 : # # : : # # # # & : : : : : : : : : : : : # # # : : O : : y ^.!.T.H.~.jXn g d.^.T.=.&.| n c.~.6X{.<.y G G a b Z y m C.C.OXa.g.J >.2XZ.s.a.' b J I c.*.u p 5 # : : : : : : : : 9 f 9 @ B / # B S / B # 9 9 d 0 : 6 $ : : # 5 5 p # # # # # ",
": 4 : : : 4 9 4 : : : # # # # # # : & : : : : : : : : : : : : : # # # : : $ O : G G.T.t.r.}.P g R /.B.6.J.'.n n p.H.<X.Xn p p p y 5 # p n r.7X4X#Xq.n | 0.XXL.n G 9 5 Z e Q G b 5 5 6 : # : : : : # 9 # O O 0 9 @ 4 9 # # # # # @ : : : : 2 : # G -X} 4 5 / 9 9 ",
"# 4 4 : 4 0 B 9 4 9 # : : : # # : : $ : : : : : # # : : : : : : # : : @ $ O # 9 X e W x.e X s e u.<X7.A.qXa.n b e.b.P.h y q 2 0 9 f f 9 p X ,.J.Q n b p G n n G y p b e R =Xw.e # 5 # # # : # # # # # @ @ # @ # # # @ 9 9 4 # 0 0 : : 0 d B 9 5 _ } G 5 B / / 5 ",
"9 9 0 4 4 0 B 0 0 9 : : : : # : : : : : : : : : # # : : : : : : : : : : O O 4 # v.W e h P b N a L G.5XZ.t.T m K b b G N 4 # p 9 y g g y p N # g g b J _ Z m C.^.p.Y # x..X$.U.}.J 4 4 : # : : : # 9 # 4 B 9 : # B 9 9 / 9 9 # 0 0 : : 0 d / 0 0 / H B # N / 9 # ",
"B 9 / 9 9 i 9 9 0 9 : # # # # : : : : : : : # # # # : : # $ $ : : : : : : @ 6 X P.9X0.i.qXP.# b b E c.>.L e x.b.e b p : 6 b e :.G.Q.4Xu.y 5 9 s b <. Xg n G.iXgXhXY y | H.Y.V.0.' 4 4 : # : : # # 4 # 4 f 4 # 0 9 # # 0 9 : # : 0 : : 2 d B 9 : ! 9 4 : 4 4 # 6 ",
"9 4 0 4 4 0 9 4 4 : # # # # # O : : : : : : # # # # : 6 # : : : : : : : : @ : # P =Xa.6X6Xx.X y y h g G n =.J.#Xu.b p @ 6 # z.eXd.8.fX'.. 9 9 . z.{.^.I.J T T.Q.] i b n OXD./.R X f # : : : : # # 9 4 # 4 # # : : # # : # # # 6 : : : 2 : @ : : 2 # 4 : 9 4 @ : ",
": 9 4 : : : : : : : # : : : $ $ : : : : # # # # O # : : : : : : : : : : : @ : 5 J @X.XK.k X p b p.T.z G p C.dXY.9XP y # 6 4 >.C.x Q..Xm p 4 9 e G.2X:X(.m b h h Z 0 9 n .XC.^.W.>.5 : : : # : : : 6 6 # # # # # : : # O # : : : : : : : # : B 0 : 9 0 0 / 9 # / ",
"i / i 0 4 0 q : : : : : : : : : $ : : : # # # # # # : : : # : : : : : : : @ : 4 Z G <.n y 9 9 b I.tXt.L.Y h K.I.L.b p : : Z r ;.6XC.h y 5 # 4 p m u.#XW K Y u.P.y p 9 p | 1.n.q.v.9 # # : : : : : # : # : : # # : : : : : : : 0 0 : : : : 2 0 : : 0 : # S ) 9 9 ",
"/ / B 0 0 0 q : : : : : : : : : : : : : O # # : # # : : : : # : : : : : : O : # p ~ + 4 # : 4 X T .X^.0Xn ' v.Y b 5 : 4 i y &.~.~.@.y p # # # 9 n y | o.e L.a.J.z.p 9 9 4 p N N # 9 : # : : : : : # : : # # # # : : : : : : : : : $ : : $ 2 0 : # 9 # 9 f N # 9 ",
"i / 0 : : : : : : : : : : : : : : : : # O O O # # # # # # # : : : : : $ : : : # 5 i # b 9 4 # 5 G p.oXc.n C # p N 9 # 5 p J wXC.c .XU 0 4 # # # e T Y e n G.:XA.`._ # 4 0 B N 9 9 4 : : : : : : : : : : : : # : : : O $ : : : : : : : : : : : : # # O # # # # # ",
"9 : + # & : : : : : # : : : : : : : # : # O # # # O # : # # : : : : : : : # # # # b >.L J b 4 5 5 g *.W y b N N 9 4 9 5 5 p L.qXE.hX] 4 p 4 #  .[.*X|.>.n @X!.^.h Z 9 p b b n # 5 4 : : : : : : # : 9 6 9 6 : : : : $ $ : : : : & : : : : : : # # # # O 6 # # : ",
"# # : : : : : : : # # : : # # : : : : # : : O $ # # # : # # : : : : : : : # : # | &.K.qXG.n b # s b Y P >.n e n E h.J 5 p p y P 9.Q p 9 4 p # z.eXT.=X<.b q.L.+X<.N p u z P.9Xw.# 5 # : : : : : : : : 4 9 # # : : : $ $ : : : # # # $ : $ : : : : + : : 9 9 : : ",
"# 9 0 0 : : : : : # # : : # # 4 4 : : # : : : : $ # # # # # : : : : : : : O : O m.J.;.N.OX'.b 4 p g p.0X9XP E x..XOXW.b p 9 f 5 # 4 0 9 p b ' h h t oXq.p b Y q.g.b m #XqX3X7.&Xb 5 # : : : : : : : : # : # O 0 : : : : : : # # # # $ $ : : : : : : : : 9 B 0 : ",
"# : 0 9 : : : : : # # : 9 : # : 4 : : # : : : $ : # # # # # : : : : : & & O : 4 W E.K.I.#XT a p y >.0X6XU.| | u.I.<XY.c.p d 4 p 9 9 9 9 b &.I.x.2.n h m y b n b b X P #XXXr.OXI.y f # : : : : : : : : : : # # : : : $ : : : : # # # : : : : : : : : : / 9 9 : : ",
"O : 9 : : : : # # # # : # @ : : : : : # # : : $ $ O # # # : : : : : : : : @ : 4 b I L.@X&.n Z b # e.0X6.I G P L w..XL.>.y G G p N b p b w.6XY.G.>.h h h Y P e # 5 p y n m g x eX} # 6 : : : : : : : : # # : : 0 : : $ : : # : O / ) O : : : : : : : : : # : # # ",
"# : : : # : : # # # # # # : 9 : : : : # # : # : : : # # # # # # : : : : : # $ # 4 p y z %.&.n.g Z E P k I ,.m.J  .>.e.Y &.OXr.G n x.:.y u.~.OXI.W h +XeX+X@X| # 5 # e g q.W h J N 4 # # : : : : : : : # # 9 9 : : : : : : # : # : : : : : : : : : : 2 : # : 4 # ",
"# 6 : # # # : # # : : : # 9 9 : : # : : : : : : : : : # # # # # : : : $ : O $ @ # 0 b I A.qX'.j Y n T +XP.5XoXg b s K K ~.kXU.r G.5X+XT W .Xw.z z n 1.[.I.#X9.y n x.5X6.6.W.>.G 9 4 # # : : : : : : # # # +.B # : : : : : # # : : : : : : : : : : : : : # # : : ",
"9 0 9 : : # : # # : : : : 9 : # O # : : : : : : : # : # # O O # # O $ $ $ # : @ # # Y G.:XZ.c. .n G P w.c.6Xp.e B G P n K.tX:.z I.F.#Xw.n e.>.u.a.P P r r.rXe G n jXy.A.D.Q.@Xb 5 4 4 # : : : : : : : # 4 9 4 # 0 0 : : : : : : : : $ : : $ O $ : # : : # # : # ",
"9 6 : : # : : # : : : : # # : # # # # : $ : : : : # : # # # # : : : @ $ # # # # # 4 m @X^.6.I Q c.n b n T 9Xm b b | L.I %.$.n L =.G.b.m K m z +X.Xy.d.Q Y v.G Z e >.R N.Z.1X0.# p 6 # : : : : : : : : : : : # : 2 : : 0 2 : : : : : : : : : : : # # # O O # # : ",
"9 : : : : # 6 4 : # # # # # # O # @ # : : : : : : @ : : O # # # # O O : : # # # # # b m.I I p.d.4Xd.J B G _ 5 N b u.T.Z.t.z.n P W w.P W n.W P I 5.OX/.M.y p b e K h n | T..Xh b 5 # : : : : : : : : : : : $ : : : : : 2 : : : : : : : : : : : # B 9 # # @ # : : ",
"9 : : : 6 9 f 9 9 : : : : : 6 : : # 4 9 : : : : : O # : # : O O # # # : : # # # # # # # L .XI.@.!.4XY p y # # 6 b x.9XZ..Xp.z E.W h I I..XL.T h d.1X6Xz.a Z P U.G.=.R G b Y b 4 4 # : O : : : : : : : $ : : : : : : : : : : 2 : : : : : : : : # B 9 # # @ : : B ",
": : : : 9 9 p N 9 9 0 0 : : 9 : : # # : : : : : : O $ : : : # # # # O : : : : # : # 4 9 o..X7.!.Z.y.Y p 4 : # 6 a P XXH.I l E.7XK.l ,.~.R.H.+XY P .X&.y C y G.7XB.H.#Xo.5 4 : : : # : # # : $ : : : : : : : 0 : : : : : : : : : : : : : : 0 0 4 # # # # # : : : ",
": : : : 0 9 p _ B 9 2 0 0 : : : : # # : : : : # # O : : : : # # # # : : : : : : : : # 9 n I.Q.8.Y.~.W p 6 5 p 9 4 x.9XI.Q j E.fXJ.r |.G.dXI.P _ N 5 b G b n G.B.(.V.l N 4 # : : : # : : : : : : : : : : : : 2 : : : : : : : : : : : : : : 0 / # 4 # # # # : : : ",
": 2 : : 9 9 i B 9 9 2 : 0 : : : : # # : # # # # : : : : 2 : # # : # : : : : : : : : # 5 b I OX/.^.E.P D B _ y p 5 b n e b g 0.9Xj n Y g p.>.# N N S _ b b K ,.K.Z.fX*.4 4 # # : : : $ : : : : : : : : : : : 2 : : 2 : : : : : : : : : : : : : # # # # # : : : : ",
": : : : : 9 0 9 4 4 : 2 : : : : : : : 9 6 6 # : 9 : : 0 0 0 4 6 : # # # # # : : : # # # p n p.t.v Q y u n -Xv.n N 9 i a i N b Y b p 5 A b H G b X b g.G.&.h ,.5Xl p.m 4 # # # : : : : : : : $ : : : $ $ : : : : : : : : : $ : : : : : : : : : : : : : : : : $ $ ",
": : : : : : 4 4 : : : 0 : : : : : # 9 B f 9 4 9 9 : : 0 0 9 : : # # : : : # # : : # # # 4 Z E y b y 1.I.8.(.0XQ b G n b b N 5 p 5 # 5 5 y K h W `.n p.,X~.W T >.b # # 4 # # # # : : : O O O $ : : : O O : : : : : : : # # : : : : : : : : : : : : : : : : : $ $ ",
"6 6 6 : : : : : 2 2 2 2 : : : # # # 4 _ N 9 6 6 : # 9 9 N 9 : # # # # : : # # : : : # # : 5 5 9 p e b.dX(.V.~..Xh P .XR | y | G b 5 : H n.a.t.I.5Xh G.>X,Xw.Z 5 9 4 : # # # # # d O # O O O O : $ : : $ : : : : : $ # # # : $ $ : : : : : : : : : : : : : : : : ",
"9 9 : : : : : 2 0 2 : : : : : # # # 4 5 5 9 6 : : : 9 N N 9 : : : : : # : # # : : : : : : # 6 # 9 # w.u.a.I.p.Q Q u.yX~.<.b 0.x.e N f G a.A.!.S.R L W Z.fXc.N f # # # # @ # # 4 9 : # # # @ O : $ $ : : : : : : : : : : : : : : : : : : : : : : : : : : $ : : : ",
"9 9 : : : : : 0 0 2 : : : : : # # # # 4 # # : : : : 6 9 9 9 # 6 9 : # : : # # # # : : : : # : # : 9 5 y b J g b P J.OXC.| n G.dX-.g b e 9.4X:XS.t.W b P 0.x.p 9 # # # 6 # # 4 5 4 : # # : # O : : : : : : : : & & : : # : : : : : : $ : : : : : : : : : : : : : ",
"f 9 : 9 q : 9 0 0 0 0 : : 9 : : # : : : : : : : : # 4 4 9 6 : : # 9 # : : # # # # : : : : : : : : # 9 p p p p N g t.qXH.m Q H.<X^.W n X n.c.i.~.$XW b N 5 # p 4 # # : 9 9 : 4 f 9 # O O # # O : : : : : : : : : : : 4 +.: : : & : : : $ $ : : : : : : : : : : : ",
"9 9 9 9 0 : 9 0 0 0 9 9 4 : 9 : : : : : : : : : : # 4 # 5 : # : : : # : : : # : : # # O : : : : @ + # # 4 4 9 9 Z 1.9XK.t ~.K.d.jX@X# Z p e W hX1.y p 4 9 p 4 4 : : : 9 : : : 5 : + O O O # : : : : : $ : : O # + # 4 9 : : : : : : : # : : : : : : q : : : : : ",
"9 : 2 2 q : 4 9 N p 4 4 : : : : : : : # # : : : : # # # # : : : & + : 9 # # 4 : # # # # : : : # # : : @ : 4 # 6 B b g.Q P @X>.W x.W p 9 9 p G Y p p 4 : : 9 : # 4 O # # : : : 4 # # : O : 9 : # O # # # : : : : # # # # # : : : : : # # # O $ : : : : : $ : 9 9 ",
"6 9 9 0 4 4 9 N N N p 4 : : : # : : # : : : : # # @ # : : : : 4 # : 9 9 9 9 p : : : @ # # : 6 # : : # # # : ( ( p C p p G p G J G y p # : 4 4 4 p 4 : : 4 : # # B ..4 4 4 i 4 4 4 9 9 @ : 9 # # # # # # : : : : # # # # # O # : : # # # # O O $ : : : : : : 6 9 ",
"9 N 9 9 4 4 N G b Z p 4 : : : O : # # : : : # # # # # 9 4 : 9 i 9 : 4 # 4 p B 9 : : O # # : : # # # # # # # C D y 4 p p 4 5 p p N p 9 # : $ : 0 9 i # 4 / 9 # 9 B _ 9 9 9 i 9 9 / i 9 : @ 9 # # # # : : : : : : # : : : # O # # : : # # # O O O : : : & : $ 9 9 ",
"Z Z C 9 9 9 N } h.G p 5 : : # # : : # # 5 5 4 9 p p 5 4 p 9 9 B 9 # # # # 9 9 5 # : O O # @ # # # # # # 5 9 9 5 N G p p # # N G B : 9 9 9 O : 0 : 9 : : B 9 9 C B # 4 9 9 9 # 4 # # 4 # : : # # # O : : : : : : # : O # # O # O O # # : # # $ $ : : : : : : # 9 ",
"_ X.C p 9 9 N } h.G p 9 4 : : : : : : : 4 5 5 N A Z C p 9 9 9 9 4 # 4 # # 4 5 # # : # # # # : 9 : # 4 9 9 N S B C G ' / 0 9 N G N 4 9 9 9 # 9 9 : 9 # # d 9 B C 9 9 4 9 # # # : # : # # @ O # # # : : : : $ : : # # / : O # O O O O : 9 # # : $ O & & : # + # # ",
"H ' G N 9 9 N Z b Z 9 6 6 : : @ : 4 9 9 : : 9 Z Y w.' Z p B B 9 4 9 5 # 9 f 5 # 9 9 : : # 4 4 4 B 9 9 9 N / j.b B p v.' 9 0 9 N S 4 # # 9 # : # # # # # : : 4 4 4 4 4 # : : # # 9 p 9 # # 9 # # # : : @ : : : : 4 # ..f # : O O : : : : : # @ O + + : # # O + # ",
"N N G B i 9 5 p G Z N 9 # # + # 9 B C 9 9 4 p Z u.dX>.Z Z A N p 9 9 9 # 9 9 4 4 9 9 d 9 # # # 4 9 9 9 9 # B N p p N n n 9 4 # 5 : : @ # : : : : : # O # : 9 4 # 9 9 9 # : : : : 9 4 9 9 9 B B : # 9 0 : : : : : # # @ # 9 : : O $ : : : O O @ O # # # # # # + + ",
"9 0 C Z C p 9 b G Y J b 5 # # # 9 A G 5 9 0 9 C <.U.Q Z B N 9 9 : 9 : # 4 9 9 # 4 9 9 6 4 # # # : # # 4 # 9 5 # 4 5 y p 5 # # N 4 # 9 f 9 # # 4 B 9 # : 9 d 9 : 0 9 # # : : : : : 9 9 4 # 9 # : : # 9 9 : : : : # : # # # : : O @ $ O : # # # @ # # @ 4 4 # # # ",
"# 9 D o.| N N b W #X9.G B 9 # 9 B C Z b 5 0 0 B J n n i ! d 9 4 + : 4 # # : : # # # # # # # # # : : # : : : # : q + } ' p 9 9 S N p G G Z 5 # f N A 9 : 6 9 : # 9 9 # + # : 0 : # # # # @ # # # # 4 : : : : : : : : : : : : : : # : O $ # # # # # # D 5 9 _ 9 @ ",
"5 p G <.o.C B b T c.>.' A B 9 9 B Z p Z 5 0 9 9 9 9 5 4 2 # # : & & : : + # : # # # 4 # # # : : : : : 9 9 9 5 4 q 4 b _ Z 9 9 N 5 N _ G o.Z # 5 5 f # # O # # # # # + # # # : : : # p 9 # # 9 : 9 0 : : 0 : : : : : : : : : : # # : : : # # # # # # ..p 9 B # @ ",
"p p Z G C C p N G n E | G N 5 # 5 G | n p 4 4 4 # # # # : : : : : : : & & & : # # # # # # # : : : : : 9 i i 9 4 4 4 N f.G 4 # b # # f H _.5 # @ # # # # + # # O # # # : : : : & # 9 B i # 9 9 4 9 B 9 9 B 0 : 0 2 : $ $ O # # @ # 6 9 : # # # # # # # 4 # # @ O ",
"0 9 9 9 9 9 4 : N G Y E } G 5 4 9 H |.' b p 4 4 5 4 # # : : 6 6 : 2 : # : : : : # # : : : @ : : : # # 4 9 9 4 # # 4 5 p p ' o.# p 5 4 p a B 4 # 9 9 + : 0 0 9 O : 0 0 : : : : : # 9 p p 9 # 0 4 # 9 p 9 9 0 : : : : : : $ O O @ # 9 : 9 : : # # + + # # # # # O ",
"q 2 : 9 f 9 i p G J P Q  .G p 9 N G Y G G Z p p 9 4 : # : : : : # : # # : # # # # # # : # O : : : # # : : 4 # # # 4 9 9 N J <.C p p 4 N G C 4 # 9 9 # 9 B B B # 6 9 9 : : 0 9 : # # 4 # 4 # : : # # 5 # # # : : : : : : : O @ # # : : 9 : : # O # 4 O # f # # O ",
"0 9 # C A G G Y Q W W w.9.Y p 6 C G <.| G G Z C 9 5 9 # : : # # # # 9 9 # # # # # # # # # $ : $ : : # # # : # # 4 5 9 9 B p X N A p 4 9 Z C 4 4 9 B 5 B B 9 9 # # 6 4 # 4 # # # # # # + # # # 9 # _ / C # # : 2 : : : : : : : # # # : 4 : : : O # 4 + + # # # O ",
"N p 5 N J Y Y &.%Xp.E x.9.J B # 9 b g.| J G N C 5 # # : : : # : 4 / 5 p 9 # # # # # # # # O : : : # # # + : # 9 9 9 B p p p 5 5 p y 4 5 p 4 N N 9 9 9 4 9 4 # # # # # # B _ # # 9 9 B # # 9 B 4 4 p p ( 9 4 0 0 # : # # # : : @ ` / : : # # # # O + # + # O + O ",
"i 0 9 A | | n >.#Xw.J G b N 9 : 6 N b G f.J N N 9 9 4 2 2 4 9 4 # <. X# 9 : # : # # # # # # 4 # # # # : $ : # p p 5 A p 4 p 4 4 # # # # 4 5 X.B 4 4 # 5 # 9 B A p p G C p _ 9 9 p k.' 4 9 B B 9 9 p B 5 9 9 9 4 : # # # O # # # f 0 : : # # # O O + + O O O O O ",
": : 4 b A J J J G Y G Z A f # 9 9 9 b G Z Z B 9 9 9 9 q : 4 i 0 # o.m.y 0 : : 9 4 # @ # 9 ( 4 4 # # # # @ : # # 5 5 N p b p 4 4 # # # 4 B N 5 9 9 # # p 9 # ` X.4 N _ Z 4 9 C 9 p D Z 5 9 9 4 9 # 9 B p # # 4 # # # # # O O # @ # # : : : O O O @ O O # O O O # ",
"9 B 4 p N G G N H A p 5 N 4 # 9 : # 5 9 5 5 : : # 5 9 p 9 p p 9 4 y X p 4 # 9 4 4 # # 4 4 ` B 4 4 # # # # : # 9 9 5 p G G G 4 p 9 5 N p / N p 9 9 # # 9 4 9 B p p X.p 4 9 9 9 5 9 9 4 # # : # : # 9 / # { 9 # # O O : # # # # # # # : : # O O # O _ _ O # O O O ",
"9 B N 5 N b N 5 9 B 9 # 9 9 # # : # 6 # # : @ # 9 # 9 9 B 9 4 # @ # 5 4 4 4 p Z Z Z 4 4 4 5 p 5 9 # 4 # # # # 9 p 5 p Z G G Z C 5 5 9 9 9 9 4 # 9 4 : 4 # 4 p p p _ 4 9 : : 4 4 # # # : : : 9 B 9 # 9 4 ( 9 # # # # : : : O : # 9 # # # # # $ : O O.' O # O + # ",
"9 9 # # 9 N 9 9 # 9 # : # : # : # : : : # # # 5 9 9 p 9 ` B 9 # # # # 4 # 4 A j.b Z 4 4 4 4 4 4 p N N 5 # # # 5 N A p N p p A A p 5 p 9 9 B 9 4 : : : : 4 4 4 4 p # Z 4 : 4 : # 4 : : : : # 4 9 : # 9 4 # # 9 4 : : : # : O # # 4 @ O O # # O O # . @ 4 O # # + ",
"p 9 # 4 5 5 4 : # : : : 9 9 : : : : : 2 : 4 p Z C p p p p 9 5 # # 4 # # # # 9 b y y 5 4 4 + 4 p 4 4.} # # O # 4 9 9 5 4 5 9 5 9 B 5 ` p 4 4 4 9 4 4 2 4 4 N _ Z Z C p p 4 q i 9 : : # # # # 4 4 & 4 9 4 4 # # : : : # # # O O # # # O O O O O O O # # # @ # # @ ",
"b p # 4 N G f 6 4 B : : 9 9 d : : 9 0 : # 5 # 4.X.# p p p 4 9 4 9 4 # : # # 9 N ' Z 4 p p # 4 p ' J y Z # # # # # # 4 # 4 5 5 9 9 N N 9 9 4 9 9 9 q : 9 5 p N X.} p p p 5 ~ p 4 : # # # # # 4 4 : : # + # # # # # + + + O O # O # O O O : # @ # # # # ..# @ # @ ",
"} p 4 N G H B 9 G G 9 p B 9 9 9 d d B @ # 5 # n b G ( 4 4 # 4 9 9 5 # 4 5 # N y ]._ @ 5 4 4 # b } p y # 4 # @ # 4 5 # 4 5 5 5 9 i A A N 9 9 p p p C 9 5 5 5 5 p N p p . X q i / : # # # # # # # + # # # + + : ` + # + # O O # # # # O : : # O # : # # 9 4 # # # ",
"' Z 5 9 A / B B G G G p p C B 9 9 9 # # # 4 4 5 p Z G 4 4 4 4 9 4 4 N b 5 b n n e p 9 b p 4 4 4 4 5 # # 4 4 # # 9 9 9 p p N p p B N 9 9 9 p b o.p p 9 9 p 4 p p 5 p . j.).+ B B O # # 9 4 # 4 # _ B # # # + # 9 # # + : : O : : 9 B O : : # O $ # O # # # 4 @ # ",
"Z N : 4 B p 5 N } } G p 9 p B B 9 : # # : 4 : : 4 4 5 p p p p 9 9 9 B } g.h x.pXy Z N N N 5 4 4 i 5 # ' G 4 # 9 p A 9 9 p B B p i 9 5 # 5 4 [ ' p C B 9 5 4 5 5 5 5 # 4.o.& 0 O # # # 9 9 # 9 4 ..C # 4 # # # # : : # 0 : # # : 9 : O O O O O @ # O @ # # # # # ",
"4 4 # 4 9 4 9 b J o.<.G 9 9 B A 9 # 4 0 q 4 : : # # 4 p p C N 9 4 9 C Y m.I | g.b b N N 9 9 4 i i y y Z Z 4 4 4 Z ' b N 9 N 9 _ N 4 4 4 5 p Z Z y p A 9 4 4 4 5 4 5 p # # 9 : 0 4 # 4 i : : ) 4 # # 9 # # # # # # # @ # # # + O # # # O # O O @ # # # + # # + # ",
"# # 6 4 p 9 A G Z J Y G 9 9 0 9 9 : 9 B i p 4 4 # : p b G _ N A B # N m >.| n y Y ' G _ 5 B A b b ' _ p 4 9 4 4 G G G N 5 9 9 p 9 4 # # p A Z y G f.N p 9 5 5 N A 5 9 9 4 # # # : # 4 9 # : # + # # # # # # # # O # # # : # # 9 9 9 # : 9 : O # 9 # # # 0 # # # ",
"5 s 5 9 B p p Z Z G n 4 4 4 4 # # # 9 p G G N p 4 4 p b J _ 5 5 # 4 G Q >.E e b Z _ N p 9 i p b <.' G p 0 0 4 9 G J } 9 p 5 5 5 5 4 # 5 N e n J n o.9 9 9 9 9 _ j.4 4 4 # + + # + # # # # # # : : # 9 4 # # # # : : # # O O O : d 0 # + 6 0 : 4 9 p 4 # # : # 4 ",
"b } n b C 9 p N N Z b 5 5 4 : : 4 9 p N <.o.Z Z p 9 p Z G N 5 9 9 # J n.G y # 9 N ( N 9 p 9 5 p G p p p 4 q 4 4 N G G p 9 5 5 p 5 5 4 p Z q.W g.n b 5 4 9 9 B N p p # # + + # # # : : # # # # : : # 4 9 # # : # # 9 : # : O O # 9 9 # # 6 9 : 4 C p 4 # # 0 # # ",
"P m.W n Z # 4 p Z G H p 4 # 4 9 p N A G Y ' G G Z 5 b Z N 5 9 B B 5 C Z ( 9 9 B p # 4 9 9 9 9 4 q 9 4 : 4 4 5 N b b b 5 5 # 4 5 # Z J H y v.W o.} G 5 # 4 9 p B p p b p # O + + + + 4 # # # # : # O O : # # # # O : 0 : : O O # @ # + # O # # @ B [ 4 9 # / 9 # ",
">.*.,.Y Z p 9 A G >.2.Z 9 5 p 5 } f.G ' G G Y } Z b b C 5 # B A G Z p N # @ @ 9 5 # 9 9 9 4 : $ : # # # 4 A G b G b a G 4 4 N Z p n Y Y n G n | Y p 4 # 4 4 9 9 b b | } # @ O O O + + O # # # # # # # O O O O @ $ # + # : O # : # # O # : : # 9 4 9 9 9 : : : # ",
"P W 0.| G C G _ } | P G 9 5 C Z J o.J H G G Y _ G G N N 9 # 9 N b b 5 # # @ O @ # # 6 9 4 0 4 # 9 N 9 5 # J q.G J G a C 9 9 A H G J n Y G b n m n p 5 4 # # 4 4 5 J ].G # # # # # # O & + O 4 # 9 # : : 9 # + # # # # # # # # # # # # : 0 : 4 9 # # 9 # O 4 4 # ",
"n  .W | n b C _ A G G N 9 B A ( N N A f b G Y X.Z 5 5 # # # # G } G Z p 4 # # 5 4 N A N p 5 N b G n b b n m n b G n G G # # # X.o.n } | n b b G H p 4 4 # # : : : p b 5 # # # # # O #   J ].O 5 # # # 4 p 4 @ 4 5 4 # : : # # # : : # # : : : # # # 5 # # # : # ",
"b G G G n b C 9 9 9 9 9 9 9 5 9 5 5 5 f b :.`.Q J b 5 9 B 9 5 J | G Z _ G p # p Z G G G b G ' n } } b Y | o.b # p n J _ # # 5 Z y n Y G G b 5 5 } p # # # # # : 4 5 5 B 9 # # # # @ # # n o.# 5 9 9 9 p p 4 4 G A 5 # 0 0 # # # : : O # # : : # 5 # # # # # # + ",
"5 N Z A } H p B q : 0 0 : 9 p 4 9 N 4 b H } 9.Q } N N C ( B 5 G A N } G G C i Z G _ N 5 b Z Z J 4.P 2.Y Y P y p p b o.b b b G G P W n n ' G p 5 5 p 4 + 4 5 G b y 5 # / 4 # 4 # #   # # # O : B 4 5 9 C p 5 @ ` N 5 # # : # # # # O # # # : B # # 9 9 # 9 B + O ",
"p 5 Z Z G G G ( B i N 9 4 C A 9 i N 9 b G G n } _ N p G _ N p ( / B C G C C C Z b Z N 5 5 5 Z J G Y m.e.Q Y Y n G J <.b | q.g n u.}.n Y Y m _ 4 p y 4 # 9 . *Xw.X 6 # 4 # # # # 4 k.5 # # / / 9 p @ ( N 4 4 # # 4 # # # : # # : : : : : 9 9 5 9 5 p N # p C 4 @ ",
"p p Z A N p _ _ / 4 p p p b H C 9 9 9 # 9 C Z C C N B C C G N 9 4 9 5 p p G J Z b b p N p 5 C Y G n h I Q W P P } ' G n J Y x.E W w.Y } e | X.4 4 4 9 : 9 # g.g.Y B 4 y # # # # p [ # 4 # p 5 # # l...# 5 4 4 @ 5 # # 4 6 : # : : : : : 9 9 B 9 # p 9 # p / B # ",
"G G 5 5 # # p p B # # 9 p ' f.p p 9 6 : 0 0 9 : 4 5 5 J ( C 5 p 9 9 G G X.J J G ' Z N 9 p 5 p b G G m m x.x.n | Y G G b b b `.Q T &.<.o.q.E y # : + 4 4 4 p y _.} G 4 4 # # 4 5 4 O # 4 4 5 . # # _ Z N A 5 9 ..f 5 # 4 # : : 6 : : # O 6 9 B 4 # # i # 9 # @ # ",
"J G 5 4 O   # : # : & : 4 G ' Z p 9 : 0 : : : : i 5 # J C p p / 5 A _ ' o.G y y G G # # Z p # b o.G n Y m h g Y Y y G y X b e e :.x.>.Y h.P X # $ : p N ( 5 b o e 4 5 5 # # N 9 9 4 # # @ 5 # # 9 # # p 9 5 4 ..9 9 4 9 4 # : 6 : : # # @ # # # 4 # # : O O O 9 "
};
