/* XPM */
static const char *energia_SO[] = {
/* columns rows colors chars-per-pixel */
"128 128 256 2 ",
"   c #0A0C06",
".  c #03040B",
"X  c #060B0C",
"o  c #0A0C0C",
"O  c #080607",
"+  c #120D0B",
"@  c #18080A",
"#  c #0C110C",
"$  c #0A1107",
"%  c #11110C",
"&  c #161109",
"*  c #060B13",
"=  c #0A0C13",
"-  c #060B1B",
";  c #0B0C1B",
":  c #070418",
">  c #120D14",
",  c #120D1C",
"<  c #1B0D1C",
"1  c #180716",
"2  c #0D1013",
"3  c #0D111B",
"4  c #061112",
"5  c #111114",
"6  c #12111B",
"7  c #1B111A",
"8  c #26080B",
"9  c #260A17",
"0  c #360918",
"q  c #271219",
"w  c #391718",
"e  c #310D0B",
"r  c #0C0C23",
"t  c #0C0C2B",
"y  c #070627",
"u  c #120D23",
"i  c #1B0D24",
"p  c #130D2B",
"a  c #1A0D2B",
"s  c #170428",
"d  c #0E1123",
"f  c #0F112B",
"g  c #121123",
"h  c #1A1123",
"j  c #12112A",
"k  c #1A112B",
"l  c #0C0C33",
"z  c #0C0B3B",
"x  c #070537",
"c  c #130C34",
"v  c #1A0D33",
"b  c #130C3B",
"n  c #1A0C3C",
"m  c #160538",
"M  c #0E1134",
"N  c #161137",
"B  c #230C23",
"V  c #230C2A",
"C  c #2A0A27",
"Z  c #360827",
"A  c #261225",
"S  c #270938",
"D  c #360737",
"F  c #231137",
"G  c #38152E",
"H  c #38221D",
"J  c #470A18",
"K  c #531014",
"L  c #700E15",
"P  c #52291B",
"I  c #6D2A19",
"U  c #4E0E2F",
"Y  c #6E0E2F",
"T  c #552B2C",
"R  c #70322F",
"E  c #784834",
"W  c #0C0B43",
"Q  c #0C0A4B",
"!  c #090549",
"~  c #130C43",
"^  c #1B0C44",
"/  c #130C4B",
"(  c #1B0C4B",
")  c #170548",
"_  c #161046",
"`  c #0C0A54",
"'  c #0B0759",
"]  c #130B54",
"[  c #1B0B54",
"{  c #130B5B",
"}  c #1B0B5B",
"|  c #170557",
" . c #14104D",
".. c #260848",
"X. c #350849",
"o. c #260858",
"O. c #350658",
"+. c #2B1251",
"@. c #0B0667",
"#. c #130B63",
"$. c #1B0B64",
"%. c #130A6B",
"&. c #1B0B6C",
"*. c #180568",
"=. c #0A0677",
"-. c #130B73",
";. c #130A7B",
":. c #190778",
">. c #1A106B",
",. c #260868",
"<. c #350667",
"1. c #260777",
"2. c #360578",
"3. c #2E126B",
"4. c #4F0E4F",
"5. c #6E0F4F",
"6. c #562654",
"7. c #6F334E",
"8. c #4E0D6F",
"9. c #6F0D6F",
"0. c #56266F",
"q. c #722F70",
"w. c #784452",
"e. c #8D1014",
"r. c #AD0C0F",
"t. c #92112C",
"y. c #B00B2C",
"u. c #8C302D",
"i. c #AE2E2A",
"p. c #9F2817",
"a. c #D2090E",
"s. c #E9050D",
"d. c #D41E2A",
"f. c #8E4A34",
"g. c #AC4D2F",
"h. c #A9602C",
"j. c #C8542A",
"k. c #8B0F52",
"l. c #92304F",
"z. c #AC2D50",
"x. c #8F126E",
"c. c #AD1271",
"v. c #8F2F71",
"b. c #AD2D6F",
"n. c #AD0C50",
"m. c #CE0F51",
"M. c #D30C73",
"N. c #E80B71",
"B. c #D91C59",
"V. c #91494F",
"C. c #A34B5E",
"Z. c #CC4E61",
"A. c #0C0588",
"S. c #180788",
"D. c #0B0498",
"F. c #180697",
"G. c #1B1192",
"H. c #260688",
"J. c #360488",
"K. c #270498",
"L. c #370399",
"P. c #301399",
"I. c #0A03A8",
"U. c #1706A8",
"Y. c #0B03B7",
"T. c #1706B8",
"R. c #1611B4",
"E. c #2805A7",
"W. c #3704A8",
"Q. c #2605B7",
"!. c #3804B7",
"~. c #3B14B1",
"^. c #450498",
"/. c #510E8E",
"(. c #700F8F",
"). c #702B92",
"_. c #4604A9",
"`. c #4404B7",
"'. c #540EAF",
"]. c #6F0CB1",
"[. c #712EB0",
"{. c #55249C",
"}. c #0B03C7",
"|. c #1705C7",
" X c #0A03D8",
".X c #1706D8",
"XX c #2705C7",
"oX c #3705C7",
"OX c #2706D7",
"+X c #3805D8",
"@X c #3612D3",
"#X c #1807E8",
"$X c #1807F4",
"%X c #1107EC",
"&X c #2607E8",
"*X c #3707E8",
"=X c #280AF4",
"-X c #3608F3",
";X c #2714F6",
":X c #3213EF",
">X c #4607C8",
",X c #4706D8",
"<X c #5608D8",
"1X c #5310CD",
"2X c #6708D9",
"3X c #700ECF",
"4X c #5528D3",
"5X c #712DD1",
"6X c #4607E8",
"7X c #5708E9",
"8X c #5915E6",
"9X c #4B0EF1",
"0X c #6807E8",
"qX c #7809E8",
"wX c #7211EE",
"eX c #722AE3",
"rX c #5C24EA",
"tX c #7745B8",
"yX c #900F90",
"uX c #B10E90",
"iX c #8E2F90",
"pX c #AA288D",
"aX c #8F0EB0",
"sX c #AD0FAF",
"dX c #9031AE",
"fX c #AE2DAF",
"gX c #D00F8D",
"hX c #E90794",
"jX c #CC0DB3",
"kX c #E706B1",
"lX c #CA2CA4",
"zX c #9947A0",
"xX c #8E0ED2",
"cX c #AF0FD2",
"vX c #8E31D4",
"bX c #AD2FD5",
"nX c #900BED",
"mX c #A806E8",
"MX c #B806EB",
"NX c #B110F0",
"BX c #8F29E7",
"VX c #B12AE9",
"CX c #CF0BCD",
"ZX c #E908D3",
"AX c #CF2CD4",
"SX c #D10CF1",
"DX c #E905E9",
"FX c #EC03F4",
"GX c #ED03FA",
"HX c #E808F6",
"JX c #F207F6",
"KX c #E914F3",
"LX c #CB2AF0",
"PX c #9348D5",
"IX c #A948D9",
"UX c #A64BE3",
/* pixels */
"I.Y.5X4X7XNXHXFXGXFXHXHXCXy.p.f.@   O O O y }.D.x 7.R . @ @ X   @.A.` F.6X=XH.u.t.X./ @.@.&.H.K.Q.!.'.).7.R U @ . x y : a p p p s s m c p t z ~ ] -.&.n A q &   O       $ o l Y.I.|.L.X.4.Z u 7 o # = ; = * X X = x |.#X' L j.e - R.|.! P f.8 . = = - - - ; , ; ",
"}.}.T.tX4X6XqXMXSXMXMXsXn.i.f.@ O O O O X * A.}.! 2.V.O 8 e     W I.D.T.>X*XO.K u.C l z t ; , r z ' D.|.OX1X).zXv.7.J 9 : y x @.{ u < B , ; ; = X * t W x ; > + o   $ $   $ * @.U.I.T.O.J.<.s B 1 + $     X * * = * @.&X.Xm p.i.@ x |..X! I i.8 . * ; - - ; ; ; ",
"7.E. XT.4X5X4X8XwXvXv.V.f.P O O X O . . X X Q  X@.=.zXw @ K O o y D.Y.}.>X>X4.J R 9 t t ; 5 + +     - x @.A.I.oX@X4X5XdXiXq.0.3...O 1 < > 1 > +     O O - r :   o   $ $   $ $ - A.D.D.H.1.!.,.s 0 8 + # * * * * * * * A.;X|.s i.p.O x T.#X@.K g.K . * ; - - ; ; ",
"7.f.6.:.D.U.{.{.6.R P q O .   O O O O X X X x }.D.=.4X7.O L 8 X * =.}.%XQ.,X9.J T P : r ; > %   O O X O O * : y ! =.D.Q.@X8XeX[.q.7.P e 1 : o o *     * O X * * * X     X   # = t A.D.D...E.oX*.D K 8 + ; ; = = ; - = y F.;XU.9 i.u.. y U.$XD.U j.I @ * - ; , ; ",
"}.E.0.7.7.G 1 . . . : : + + o         o * * = A.}.A.OXzXO L K o   x Y.$XT.oXaXL w R : r = = o   X O   O O O   O O O * y x ' A.I.|.@X{.q.u.I e : y t r X O O   X * * * * X o 5 5 # Q D.D.;.,.+XoX*.4.U < u u , c @.Q ; > a U.=XF.9 j.L . r A.#X.X2.z.i.K @ O . . ",
"{ D.Y.T.~.[.q.7.T e 1 y :   o   O O   X * * = ! .XI. X5XG L L @ X X @.%X}.D.3Xk.@ f.q - ; *   X X       O   O X y ! =.A.:.3.0.6.G &.I..X!.6.u.u.+.=.x + q &   X X * = = * * # % % ; ` =.=.p 1.&XT.:.9.U s a u b / l = 1 > r U.;XA.0 d.L . X @.|.%X|.[.uXc.v.0.+.",
"{ / t  .@.I.|.@X{.w.w.0.G @ @ + X X X * - - - y T.}. XrX0.L e.8 * O x }. X@.'.pX@ P R : ; * X X     o X O O x A.}. X4XeXbXVXVXcXx.u.R 3.I. XE.6.f.E 9 . O     X * * * : = = + % o # = Q ` y p U.#XD.O.t.Z s u ; > = X ; ; = y T.-XA.J d.L . o ; ` I.}..X1XqXBXvX",
"v u = o o r ! =.I.}.OXrX[.v.u.K 9 : : , , ; ; = F. X X6X).Y L 8 o O * A.#X' 1.xXZ 1 f.1 - * * X o   X X * @..X%X:XPXbXVXSXSXSXSXSXuXY u.T ! F.}.A.T f.I O . l @.y X 1 < * = = % # * X r l y - ` #X.X-.Y t.9 ; ; = ; #.A.b @ 8 b I.;XD.K d.L O X   ; y x x x x m ",
"@ O o X * ; x y y Q A.Y.#X+X5XiXl.Y 0 1 : > u r F..X}.oXdX4.K e @ O   x T.=.! 8X8.. E P : - = * o *   y F.#X%X4XIXBXmXHXFXJXFXFXFXDXgXe.u.P . @.}.}.$.R h.w x ` ; + 1 1 = = ; > 5 * * * ; - * - ;.#X}.) L L = , * * { @.` &.k @ C T.$XI.U d.L O O o o o X     o ",
"6.U e @ O . y y x @.y c 2.F.}.OX>X[.v.7.P 8 1 y |.%X}.^.fX8.8 e e   $ o =.A.y E.'.: w f.: r ; * * * - A..X X,XIX2XnXHXFXFXFXFXFXJXFXDXm.e.u.H . t I.#X=.w h.P . X O O O * - ; = 2 4 ; > ; - = = - D.$XA.9 e.J * * o   t T.}.y e e.S |.;X}.4.d.r.8 * ; = * ; > > ",
"R.P./.8.G q @ @ : =.=.y q G s *.U.}..X~.).q.q./.OX&X'.5.yXv.O 9 0   $ o l ` * @.*X{ O f.P y ; = o   W .X}.#XPXeXqXSXHXGXGXFXJXJXJXFXGXkXy.e.f.1 o ; A.%XA.@ h.I y W z l p u , p t ; o + ; - = - = l }..X! J e.8 4     t =.W X 8 9   x |.;X X8.s.a.8 * u r r t t ",
"! @.=.;.H.J.+.q 8 1 x y : u m ' @.S.Q.&X&X*XqXfXc.aX3XZ 8.b.1 1 C r r , = t l x XXT.y I g.1 r - # $ ;..X X6XUX7XNXHXDXkXZXSXnXnXSXKXFXFXN.r.p.P . 4 * @.#XA.1 h.R ! @.z u 1 1 b { r o % o - = * - - ` .X}.x L e.    o X O * o X * = ; l Y.$X#X^.m.d.K m W ~ ~ ^ ",
"r ` @.@.%.S.K.K.H.,.<.O...S ,.E.Q.E.>X>XoX6X7X/.t.pX1Xm s l.0 : < t p p 6 c %.l F.-X;.8 j.T x r * > F..X XrXvXqXSXZXN.s.d.^.#X#X6XSXJXGXkXr.e.R O X   o A.#XA.@ j.I .   O O O : @.` X > 7 ; ; = - - ; ;.%XI.s e.L O = X * = * > > o - = x D.;X;X>XuXN.n.8.:.:.,.",
"- ! A.I.T.E.!.>X>X>X,X,X1X].].'./.O.<.+.m 1.Q.OXK.8.vX).@ p.I . o - t l l W U.:.-.8X>X' I Z.*./ u s E.#X%XeXvXqXHXkXs.s.r.y }.;X%XnXJXFXkXy.e.f.        - I.$X@.e j.J y y W x , m &.l o A < : ; ; = ; t D.$XD.9 r.K O * * * * = * o * - o y =..X;X*XaXhXjX].E.K.",
"* ; l ` =.F.T.XX~.0.8.2.O...o.$.[ B 9 < ; ; t Q S.T.#X~.U i.u.O X * r l Q { |.&XT.>XBX'.S z.x.A.$.[ W.&X#XrXvXnXHXkXs.s.r.y |.;X%XnXJXHXkXy.e.f.+ # $     x |..Xx P Z.K.I.Y.2.J J +.#.r < A 1 ; ; = ; ; x T.$X@.J e.8 * = * = = * * = ; ; ; t @.|.;X;X2XCXZXxXoX",
"* = ; ; r t W Q ~ 1 , i , ; ; r r r r ; , , 5 5 ; l D..Xy 8 u.8 * ; , t z #.U.;X&XoXBXVX/.U Z./.D.S.oX*X&X8XIXqXHXFXhXd.d.(.&X&X6XSXDXFXkXy.e.E O # $ X X X ' #XU.. g.l.! W u + O y Q t ; < , = ; - ; u r ' #X.X! L e.1 - = = = * - r u u r l W { U.=X9X7XmXKXSX",
"* = ; r t t r 3 2 6 d r r r u p p u u 6 6 6 5 6 6   W R.l > T q - u u p z / ;.OX:X&X3XAXbXJ.x.M.L.U.OX*X+X7XIX0XSXJXFXZXZXKXVXNXSXFXFXFXgXr.u.P O # # X $ # - =.#X=.8 j.4.! * , h : y - ; ; ; = ; , r u t r A.=X|.m t.t.1 ; ; - - - r u u u z ~ ~ -.Y..X:X6XnXMX",
"X * = - r t t u 6 5 6 6 6 6 u p p p g 6 6 6 6 6 5 - r z t t ; 6 u u g p b ~ { U.:X=XoXxXLXvX<.m.pXK.|.*X,X6XbXeXnXHXFXGXGXFXJXJXJXFXFXDXm.e.f.q ; = # #   X $ y T.|.y I C.s ; + > ; - = ; * = ; ; ; ; r r - l D.=XU.S y.L : ; ; r r r u g j b ~ Q ] #.F.Q.E.E.W.",
"X * * = - t t p 6 6 6 6 6 6 6 6 , ; ; ; , g 6 6 6 - r t f d d g g u u p b ~ / :.XX;X&X'.cXVX'.X.m.v.I.#X*X+XeXIX7XNXHXFXFXGXFXGXFXFXHXjXt.i.R : , > 4 4 X o o   ' %X@.O C.6.. % % = - - ; * * - = * - ; r t r l T.=XD.Z y.K : r r r u p j M b ~ ( ~ ( } $.$.$.} ",
"  o * = - d t l f 6 6 6 6 6 5 6 6 6 ; ; u r g g 6 6 6 g g g g g u u t c b b ~ b *.OX;XT.9.sX7XXX..b.iXT.&XOX+XPXBX7XNXHXJXGXFXHXHXHXCXt.e.f.7 r , > 5 2 o * * X - I.T.: J V.: ; ; ; * - ; ; ; = * * = - 3 d - ; Q |.#XA.U t.J ; r u p p p M ~ ~ b c v v c c N p ",
"= = = 2 = ; t l f 6 5 5 6 6 6 6 6 6 t t p u u u g ; 5 6 f g f g u p l l c c b b c :.&X|...l.].=X.X2.pXdXXX#XOX>XIX2X7XnXMXSXHXSXSXcXY L f.w ; r ; > 5 5 2 = X * X Q .X@.O R P y W z t r t ; = ; > = * = 3 - - - t ` I.|.` 0 Y C r p p t M M z b [ $.b v 1.S.S.1.",
"> > > % = ; t l f 6 3 6 6 6 6 5 6 3 , u t l l b M 6 7 , g g g g j c l l c c c v h c F.#X' G v.Q.$X&X!.yXfX3X&X+X'.IX3X>X,X<X0X0X].4.I f.q : ; ; - ; 5 5 5 5 o #   * D.}.y e f.@ : y t t r - - ; > = * * * = * * - l Q @.~ u < B u t p j M l l c :.T.] ( ,X-X&X7X",
"+ % 5 2 > , t l M g g g 6 6 5 5 2 = 2 3 r W ` { ] c k i g 6 g g j c c M p p p g 6 5 l T.T.x T 7.A..X=X+X].fXbX7X&X7XbXbXvX5X5X).R E T @ . # * ; - ; > o % 5 # # #   x .XF.. I I . X y y r - - ; , = o * * * o * - l @.F.F.:.o.D C 9 u y - j g u [ -.t p XX$X%X*X",
"= + * * = ; r l t g g u , 6 > > = 2 4 4 3 t z ` { Q v B B i u u u c l M j g g 6 5 # $ Q |.A.: E T @.T.&X-X<XsXlXyX^.K.!.'.{.6.P K 8 O X     * ; - - > > % % & + o   !  X X' 6.l.X.m a v s > > > = = * * * X * * - r Q A.U.|.+X>X'.q.R I Z y y u s u > , U. X XOX",
"8.5.U D ..o.n s B 7 6 , , 6 > + > > 2 2 # o ; l W Q ~ a B B < 6 g p p j j g 6 3 5 % #   @..X=.y f.T ' U.OX-X*X].gXm.Y D ' =.! @ @ @ + X X X * - - = ; , , ; t Q @.=.|.*X9XxXcXcX].).q.6.G 9 > +   o * X * * * * = - - t W #.;.F.XX+X`.q.l.R U : r i , , { A.A.S.",
"xXaX].].2X<X_.9.Y 0 9 > ; 3 > > > > + % o X o = r W Q t h q 7 6 g g g j j g 6 5 5 5 > o o ;..X=.S V.U @.:.U.&X-X6XaXgXm.k.2.*.< 8 @ +         - y y x ! =.U.XX6XwXBXLXAXpXx.5.4.D S s s > = + o     X * = r - o o = o = t t t t ] S.|.#XQ./.u.R w 1 ; = > r y r ",
"LXLXLXLXLXLXVXbXpXc.k.U C 1 1 + o X X O   o   = r l W t h q 7 g g j f j j g 7 5 5 5 5 5 = r D..X=.C f.4.' M $.Q.#X=X7XxXAXAXcXyXk.Y U S m ! | :.F.!.1XwXBXBXbXlXlXv.4.Z 8 O O O o ; ; r - * o * *     O O z ' x z n m p u s s : : x Q ;.U.&XQ.3.w.R e O o = * X ",
"<.,.1.H.W.>X8XeXBXVXVXAXbXfXpXyX(./.8.U 0 8 + ; r l W l p h j f M c c c p < 7 5 5 2 o 2 ; ; r D..XA.X.V.4.: < n @.Y.%X$X9XnXNXLXSXZXAXAXVXNXNXNXLXLXLXNXBXaXx.L e 8 O X * * = = * = = - *   o o   X r ' =.I.|.XX<X3X3XqXxXdXyXx.5.4.D s y | |.%X|.0.u.I e 1 = X ",
"= = = - y x ! ' =.A.H.oX6X8X3XsXsX(.8.U 0 9 + 2 3 t l M c a N b b n v v a 7 7 5 5 = = ; ; ; - l D.#XI.,.V.T s u j ~ -.U.|.OX6X8XwXNXNXNXNXMXcXxX]./.^.W.J.C J 0 1 ; = = = * = = * X * - * X o O W F.Y..X9XwXnXNXLXAXAXAXbXBXVXVXLXLXAXfXv.Y 4.W.$X%X^.l.p.J 1 X ",
"2 5 > > > , 6 5 6 u d Q }..X@.J t.8 . O X * > ; - r t M k v b ~ c a a h g 7 5 % % = = ; = - - - t ;..X.XK.l.u.Z u d r c Q ;..XOXoX3X3X2X2X'.(.9.4.Z q < 1 o   o o * * * * * = * * = 4 3 * X ; { T.%X-XrX[.pXlXpXk.U D ..@.D.I.A.K.>X,X8XBXdXv.v.[.*X%X'.b.z.4.| ",
"5 5 2 > ; ; 5 2 3 3 5 t |.R.y K u.: 3 o * * ; ; - t p f j a N c u u , 6 , 5 % % o X * * * - - r t z =.|.#XF.6.u.U i p b b ] F.K.S.| S n | p > 8 @ o X X X * * X X * * * * * * * * ; ; - - x ;.Y.&X6X'.q.g.u.J O . x @.I.}.@X4X).q.q.0.H.D.OX*X'.).IXBX*X1XfXfX'.",
"5 5 > > 5 5 2 2 = - - @.#X@.@ u.G x t ; > > > 3 d d t t g g p g 6 > , 3 3 2 & &   X o * * - r t p c z { F.|.F.O.U Z V v ( { -.H.:...q 8 8 + # 4 * = * * * * = * X o o o o * * * * > = x D.}.&X9X].9.g.f.w O . * @.|.%X#X5XBXBXnXxX9.R E G x F.%X#X!.dXAX<X+XeX5X",
"6 6 > 5 5 % 5 5 2 ; y T.U.y U u.: , 7 > > > > 3 d f t , , , , 5 3 t l t 1 & % $ o = * o = ; r r u p b / #.S.F.H.| S S S ( } &.:.H.o.9 9 9 + $ 4 * * 4 * * * * * * O o   o * = = * = y =. X$X+X(.i.g.P O : * * =.%X%X#XPXbXmXMXSXSXSXx.L f.H : ' R.%XI.4.C.q.#.$.",
"< u , 5 5 5 5 5 5 = @.#X%.: C.4.r q 8 + o ; , r d f g 6 , > o z { Q s < 8 &     * ; r * = ; r u u p m ) *.:.S.H.,.X.....o.o.,.:.1.,.B 9 8 & % o * * * * * * o * o       X * * * * - =.#X#XU.5.g.u.8 . = =   `  X%X XvXVXMXSXHXGXFXFXZXm.e.f.7 O : =.#X}.) V.V.m ",
"7.s , > 5 % 5 2 2 t R..X' 4.zXS.&.X.Z 9 > , u r d f g 6 = ; ] F.' < 0 8 +     o   y W ; > u l z Q =.=.*.J.J.H.J.H.<.,.1.,.,.1.1.1.,.v 9 & & + o * * * o o X X o   $   o = = o - y =..X.X:.u.g.K : t W W p p U.$X%X4XbXMXHXFXDXJXJXFXGXkXa.p.E O ; * ' |. XY.vXzX",
"u.T : 6 5 % 2 = * @.$XY.*.fXeXXXW.'./.<...V B i r j g ; ] U.T.) K K 9 = * o $ 4   l A.@.*.K.Q.XX,X7X0XqXmXxX3X3X3X3X3X1X^.8.8.2.1.,.F 9 9 @ & # o o *   X X X       o = - = - @.T.#XU.4.g.f.9 x @.=.A.H.1.H.OX=X*XPXNXSXkXZXKXnXnXKXJXDXB.r.f.w . * X x U.}.T.[.",
"L f.q ; 5 5 2 * - T.#XI.(.AXoXoX_./.^.!.W.<.D Z B u t ;.&XT.S u.I 8 * * =   $ r ` D..XOX6XwXwXqXnXxXxXmXqXqXqX0X0X0X0XnXxXsXyX8.<.<.D C 9 9 + +   o * o o X     o o * 2 = y A.#X.Xo.u.i.K : x @.D.F.F.K.K.XX-X*X8XIXmXgXs.d.].%X#XqXKXFXhXa.e.R . X X O - x y y ",
"e.R T * > > = = =.&X}.U.AX3X+X<X3X(.].<X!.J.8.4.S ..K.&XD.0 p.I O = o X X l ;.I.}.*X7X0X0XnXNXSXKXKXHXHXKXKXKXKXSXSXMXMXSXMXcXaX(.8.O...9 8 + o $   o   o * X   X * o r @.T.#X=X{.u.p.K . r ' D.F.:.,.,.1.|.=X-X8XVXmXm.s.a.1.$X$X&XSXJXkXa.e.E + X X * * * * = ",
"t.K T : 5 > * Q #X#XD.iXb.1.H.J.1.1.E.Q.E.W.^.J.J.!.6XK.J i.K . 4 o   r @.}.#XOX7XqXnXMXSXZXZXjXsXaX].].3X3XqXnXnXNXSXSXSXSXHXKXHXSXcXaX9.5.U 9 1 1 ; = * o O   = = W D.|.S.2.5X4XS I u.@ l @.=.{ n S ( | R.=X-XrXBXMXhXs.s.].$X#X8XKXGXkXa.e.f.+ * X X *   O O ",
"y.K R : ; ; t T.$XY.8.Z.4.o...n n } S.S.F.E.E.Q.+X9X+X5.y.L @ < *   W Y.%X=X0XnXSXSXkXgXc.5.U s r y y y x ! =.F.U.Q.XXoX>X7X0XwXnXNXSXLXLXAXCXjXsXaX3X].yX5.Y 0 @ u ( { l 1 9 { }.}.Q R E [ =.` c v n ^ ~ F.&X=X9XvXNXDXZXZXKXNXnXSXFXGXhXa.e.E O * X * * * X X ",
"t.J T : ; * ;.#X XK.lX(.K.L.<.X.X.o.$.&.1.&.1.XX-XOX^.uXk.9 q 9 , Q |.$X-XqXjXhXM.k.U 0 , ; - ; > , , , , , b } :.S.H.H.H.H.H.H.1.H.Q.OX6X7XqXsXyXaX/./.4.U Z 9 + 1 = * X * * * ! Y. X@.0.C...x v v n n b :.#X#X:XPXqXSXJXGXFXJXJXFXHXDXm.r.g.H . * * * * * * * ",
"L K T : * ' &X.XF.iXv.2.K.H.o.....S n } $.b H.:X|.K.pX(.H.o.S ..K.&X-X7XsXN.m.L 0 : - y ; , , > ; ; ; ; ; ; t ~ #.S.S.H.1.,...S V k ~ S..X$XXXU e.L 1 X . O X *   O   = t t r r ; t U.;XI.8.C.Y s v v n m / |.#X X5X5XnXHXJXFXFXFXHXFXhXa.i.R O * X X * * * = = ",
"J R w : #.OX#XT.dXb.D D S c z / ~ a k } $.S.OXT.! 5.yXU.F.K.E.,X9X9XxXgXB.t.0 , u < , u , > > o = ; ; 3 3 ; , u Q =.S.H.H.,.+.S F v v &.|.=XK.8 i.L X = o o   O X   O * ; ; = r l ; ' XX=X|.8.j.u.C m m c c A..X|.OXPXeXnXSXGXJXFXGXkXy.i.u.1 ; 4 = ; > = > > > ",
"Y T y ;.#X#XE.zXv.O.,.C V N z Q ~ a v [ S.&XXXz L p.m A.I.|.9X9X0XcXhXM.9.,.*.*.| m a 1 & + X X > > > 5 5 5 5 6 l #.S.S.H.,.+...F N b G.&XXXn L p.8 o o ; o   o   O o * X O O r @.' ! :.W.*XOX2.l.g.U x l p ) S.|.|.XX5X4X7XqXmXmXcXuXz.R C v p t t t r r : : : ",
"R n U..X}.'.zXq...,.,.V i v l W ~ i k $.OX&X:.K i.J l A..X=X-X2XCXZXaX>X+X<X2XvXvXvXdXzXV.R P @ O = 5 5 5 5 5 5 d W %.;.:.o...F N N ~ U.-XS.8 i.L - c { ) > & @ o O   * X   X - @.I.Y.*.D 8.!.&XT.0.C.f.0 : m ' @.S.XXOX@X5X5X3X].].[./.H.K.L.K.L.^.W.W.L.^.{.{.",
"3.|..XH.).zXO.m C 9 i u t t c ] / a a F.=XU.S y.L W S.OX=X6X].jXcX2X9X*X2XVXVXvX3X3X2X2X3X(.7.E T + ; > ; 5 5 5 3 l ` -.-.[ ..S F N { XXOXQ K i.s b ~ ) i + + o X * * * = * * l D.}.:.D U Z s #.T.#XXX{.zXv.6.<.( y ) | @.=.*.1.E.OXOX+X8XwXBXBXVXVXbXdXdX).).{.",
".XF.0.zX5XQ.o.U U < 3 u l f c { { c [ OXOX*.Y y...U.&X:X!.k.B.x.XX#XXX1XbXwX6X0XnXmXMXcXcXmX].4.R E q : > > 6 6 6 t W #.-.#.( ....[ F.;XH.s z.5.! u @ & & X X X * = ; * t z z Q ;.{ s n ) Q s 1 u $.T.}.OX8XeXvXPX).).).{.{.1X4X4X5X5XvXvX5X].].9.8.<.,.S.F.S.S.",
"8.v.iXoX}.H.D J Z , 3 u t j c { ] ~ T.=XT.4.i.8.XX$X:X^.t.d.U F.#X}.>XIX8X7XmXSXHXHXFXGXFXZXSXcX4.P f.q * 2 ; 3 , g j / -.;.} ..,.:.OX@X) K Z.1.r & 9 + * o X X X X o X - z @.@.z i B ] Q c u < < s x ` @.=.A.Q.oX>X'.[.).).0.6.U G ..| I. X|.!././.`.+XOX+X2X2X",
"v./.F.U.H.X.Z 9 i 6 , u p t c { / -.&X&XF.x.k.!.-X=XL.t.d.K ' .X.X.XPXeX0XNXGXFXGXGXFXFXFXFXDXDXcXY K f.@ = ; ; 6 6 g b -.;.-.,.1.E.9X~.9 i.u.x t > @ + * X X * * * X X = r W %.b , < , ; ; r Q x r n ] S.*.) 1.J.! y s y y : X X : y Q =.T.OXXX`.3X7X-X*X<X2X2X",
"K.E.W.J.O.Z 9 V c r , i p t z ] -.T.-X|./.uX].9X6X2.t.d.J t R.#X XrXUX0XMXHXFXFXFXFXFXFXGXFXFXZXDXjXL I E O 3 ; 6 , g b =.A.S.H.H.+X9X,.K a.U I.;.y w e + o - = * ; - - , u j p u , , , ; ; t z z z Q { ;.] m o.H.} i B a p g > 5 > ; x ' D.T.XXOXoX_././.8.2.1.",
"E.L.J.O.D +.[ ) m V i i p f z { U.;X=XQ.uXxX0X9X2.e.d.J ; %.#X.X#XPXeXmXHXFXJXFXHXFXJXJXJXGXFXDXDXDXc.K f.P * ; 6 , u W A.F.S.J.W.9X~.9 a.r.] A.x 1 w +   = x r = , u r t u g 6 , ; r ; ; ; - - y z x l m p c ~ S.;.p < 9 , t l Q %.S.F.Q.XX+X6X'.9.Y L 9 = * * ",
"G.1.o.,.K.K.o.C G B u u u p c -..X=X&X'.gXmXwXT.5.d.L r v F.$X#X9XUXnXSXFXFXJXZXZXKXSXSXKXJXGXGXDXFXjXL L E : ; 5 , l @.F.U.H.J.<X9X1.K d.U ! ~ m s 1 1   l @.; + < < - - 3 3 6 , r u u ; - - - r l W Q W p u m S.U.@.,.2.F.Q.!.!.'.'.,X6X6X>X9.Y L e @ ; 6 6 > ",
"D.I.T.XX_.4.U U i r t f j t z S.;X=XOXc.jXNX+X4.m.y.C v } OX&X=XeXBXnXHXFXDXhXm.d.9.+X:X6XNXKXHXFXDXZXn.K f.q ; u z %.F.U.K.K.!.9X_.0 d.x.I.Y.XX1X'.5.K J o.{ > @ 9 = = = * 2 ; ; u u u r r - - u t ' F.D.S.H.E.OX*X6X3XaX].(.8.8.W.oX*X6X6X].Y e.K 9 o 2 5 2 ; ",
"OX+X1X(.5.U Z < , g f f g p ` |.;X$X_.gXVXwXT.n.m.U ..^ :.&X&X-XvXBXmXGXGXkXs.s.e.X A.;X$X7XSXFXFXDXDXc.L R T x #.:.F.E.K.L.!.9X9Xo.e.d.C W W W / ( c < [ &.s @ q @ o o * - ; = r f t z t t , > , u z @.A.-.:.E.XX+X>X8.Y U S { F.|.|.XX>X_.8.J e 8 > + # # 4 4 ",
"8.4.D C V i i g g g g g u u @.&X$X.XyXCXBXOX'.N.5.D ..( S.&X&X-XPXnXMXFXGXN.s.s.K O ! .X=X=XNXJXGXDXDXuXY 7.7.:.E.E.H.1.J.L.+X9XH.J d.L * o   o X * - y @.W = & @ O * X * r - = t t W S.l u G < r u l ` %.{ p ^ 1.K.F.&...S o.&.:.:.:.S.H.H.,.V 8 8 @ o $ # 4 # ",
"1 , , u t c a j g g j d u m F.$X$X!.sXNX1XL.sXuXo.X.O.<.U.&XOX*XUXqXmXGXGXhXs.s.L O ! &X=X&XNXJXGXDXDXuXY 5.q.F.Q.K.<.X.<.Q.-XXXS d.p.@ 3 = * o o X = z x ; + & o X * o * t ! l c p { Q.m : T V r p ~ { ;.;.] _ ,.H.U.F.<.O.O.,.$.$.&.1.H.H.1.S 9 8 @ + # #     ",
"g g u t b ~ b p g u p u g / XX$X.X'.cXwXL.x.kX'.&.O.<.<.E.&XOX-XUXwXmXHXGXZXm.s.a.0 D.$X$X8XKXFXGXZXDXuXL R 7.A.F.1.X.C 1.&X=XD.t.d.Z ] @.=.| B 8 @ 1 l -   > o o o * * = t @.` ! 1.XXOXS T u.A t c ] -.S.G.S.,.,.K.Q.E.J.<.<.<.,.&.:.1.H.K.H...C 8 8 % # # X $ ",
"g g 6 u ~ { / c k p p j g %.&X|.U.3XnX,XJ.gXsX!.K.2.2.<.E.*XXX&XUXwXnXHXFXGXZXhXhXjXqX0XqXSXJXFXGXDXDXuXJ R 7.Q ] v V ) XX;XI.9.j.K ) } ' #.( i @ @ > ; X X > * * * * * r y ' F.T.T.!.5Xq.U u.H x ] -.S.S.K.E.K.J.L.!.E.L.L.2.2.1.1.1.H.H.K.H.,.S 8 8 & & $ $ $ ",
"g g 6 j ~ #.{ ~ N v a p t S.#XY.Q.wX7XoX(.kX].!.W.L.J.2.W.*XXXXXBXeX7XSXGXFXFXGXGXJXJXKXFXFXFXHXFXDXDXyXU u.G c m i m T.;XD.4.Z.Y 1 9 & $   O O X o * o o * * X X * * * r @.}..XS.6.V.5XK.y T T ! %.A.F.K.E.Q.Q.W.W.`.!.!.W.L.J.J.J.J.J.L.L.L.J.1...S C 9 & +   ",
"6 6 6 j b ] @._ N F a j c F.|.U.oXwX*X!.sXsX`.`.`.W.L.J.L.,X+XU.eXVX*XnXGXJXJXFXFXFXGXGXFXGXGXFXDXDXjX9.q.7.s V i ~ E.;X=.K Z.5.! i & & # X X X o     o * * * X o o o ; =.|.I.[ w.7...T.|.' U R | S.S.H.H.K.W.!.!.!.`.`.`._._._._._.L.L.L.J.2.2.1.1.1.,.o.+.o...",
"6 6 g j M Q -.#.n F F k N F.U.F.,X9XoX].jX].!.`.`.!.W.^.L.>X9XQ.`.IX8X9XNXHXJXFXFXGXGXGXGXGXGXDXDXCXk.U iX,.~ a o.XX=XA.I j.T @.D.F.n 8 q @ o   X     o * * ; - o = r A.|.=.V E T ! Q F.#XA.D l.<.S.H.H.J.J.K.!.!.!.`.`.`.`.`._._._.^.L.L.2...S S ..} S.F.K.E.K.",
"d g g j b ` ;.;.( F F v :.T.F.W.0X6XW.aXfXW.`.`.`.`.`._.L.W.6X6XQ.].IX7X7XnXHXGXFXGXGXGXGXFXFXDXSXx.K Y 8.A.S.K.*XOX2.u.g.e : ` I.T.;.9 e q +         * * = x y o c ;..X{ @ E G x / ~ :.=XU.o.v.8.S.H.1.1.J.J.W.Q.!.oX>X>X`.`.`._._.^.J.<.X.S S ^ ..( [ } } $.| ",
"f g g j b { -.;.$...F ( Q.|.F.`.wXoX2.pX].Q.!.!.`.!.!.`._.W.!.6X6XW.).IX8X6XqXSXHXHXGXFXFXFXDXSXaXY t.Y | T.&X=XQ.5.i.u.@ X 6 z ' @.` k & & %   X     * X x @.;   o.|.@.: T P y Q Q / :.&XXX*.v.9.:.,.,.,.1.1.H.E.Q.XXoX!.`.`.`._.^.2.X.B 9 i g b | %.:.&.,.,.| ",
"g g g j b ` -.;.&...F &.&X|.K.3XwXK.8.b.^.Q.Q.Q.!.!.!.`.W.L.J.2.!.*XXX'.vXeX9X6X0XmXNXMXMXMXnX].5.i.t.) U.&X&X+XyXi.L 9 + + + t Q ` W v 7 & + o X o * * X @.=.  > P.F.: G 7.x x b ) ! @.&XOXS.v.v.o...S ^ ( ( $.S.U.Q.Q.!.!.!.L.2.X.D B < u d 3 g c | S.U.E.E.K.",
"g g g j N ` %.-.&...o.E.=XT.W.mX2X,.5.b.1.U.Q.Q.!.!.!.`.W.J.O.C S ,.E..X.X4XPXvX5X1X>X7X0X0X].k.u.Y 1..X$XXXaXfXxX!.K...J J 8 o z %.{ b h 5 % 2 o o = = = @.!   o.Q.! :.[.XXXX].x.k.U o.OX&XS.q.z.C i i u p p b %.F.Q.Q.E.W.2.X.S V B u j M j f p p p | S.S.H.H.",
"3 d f f j _ #.%.$.[ H.OX;XT.^.NX/.S l.5.*.F.T.Q.Q.!.!.L.2.X.C B < 5 t { S.Y.|.1XeX5X5XvXdX).(.8.2.Q.=XOX/.z.z./.T.|.!.O.0 J 8 o t { ' W k 7 , 5 5 # * = y @.t y P.S.D.8XeX8XNXSXDXM.m.k.1X&X*.R i.9 , , 3 u u t Q S.U.U.K.H.X.C V B u j N b b b b c a a ( [ [ ( ",
"6 g f g j _ #.#.$.} E.:X=XK.].cXS 0 i.V W ;.U.T.Q.!.J.O.D A h g 3 3 d d f ~ / @.D.T.K.<.4.2..X X#X<XaXz.z.Y ) A.T.U.1...C < , 5 3 z { { z g 6 5 2 2 2 - l ' r ) ~.F.&XrX8XNXDXJXJXZXN.m.cXoX) u.p.1 d 3 3 ; ; u b #.S.U.H.o.D C V i u f b ~ _ _ ^ ( S B V S v v ",
"g g g j p b { $.} $.Q.-X&XL.cXsX1 L u.: M ` S.U.Q.K.O.D C i g j f M c c M u u v [ F.|.|.Q.+X7X8X3Xv.u.K 1 y z ] S.U.G.,.X.S a h 7 u ( #.W k g 6 5 5 % l ` ` ; } Q.Y.=XeX8XuXZXKXqXwXgXN.SX'.s i.Y ; d 3 2 2 ; , p Q -.D.S...D Z B k j N _  .( ( ( o.o.o.1.:.:.1.",
"u p p p p b [ } ( :.OX-XOX'.SXx.@ u.K * u z @.F.F.1.S C C a j p l l b c c ~ %.S.T.OX*X0XxXfXc.x.8.o.c < < u l Q -.F.U.H.1.1.H.,.V 9 S [ Q N j g 6 6 , %.;.W i K.E.Y.9XeX>Xy.N.SX#X%XuXhXSX0.8 g.0 - , ; = 2 > * r z { A.;.[ D C B k N / { >.&.&.1.E.oX+X6XwXBXvX",
"u c p p c n [ [ } E.&X-X!.].SX5.e i.e # ; t Q =.S.&.S C C a a m c b ( %.F.T.OX+X2XaXfXdX(.8.2.) 1 o.} M < i b W #.S.F.E.E.Q.E.2.X.Z V ~ ~ c j g g 6 p F.S.m S !.:.I.rX8X<XjXkXKXnXqXjXZXjXT P u.1 ; ; ; = 5 5 # 4 t ` ;.;.( D C i v _ ] -.S.K.XX&X6X2XdXpXv.9.<.",
"F c p v c ^ $.[ S.XX&X-X'.3XSXU K u.@ # 4 r z { ;.$.n S V V a *.S.D.Q.*X9X0XdXpXz.Y Z | =.I.T.1.Z D ,.#.f 7 v ~ { S.T.OXOXL.8.8.O.v h k _ N g g g g c F.S.) <.>X) -.eX9X*XVXHXJXHXDXZXCXb.K f.J : , , = = 5 > 4 4 t { A.%.^ C V v n / %.U.OX*X6X3XpXb.Y Z s y t ",
"S c p c n [ :.&.E.OXOX*X/.<XsXJ K L   # 4 - t Q %.#._ V B S &.|.#X&X3XCXjXpX5.D 8 1 ; W ' A.:.n C S } -.W u v *.F..X&XoX'.9.8.2.,...S k ^ ~ f j j h v F.F.Q K.`.c a [.=X#XeXVXSXDXCXDXlXT R 7.: , 9 > o 5 5 > 2 # c @.-.[ F V v ~ [ S..X&X*XxXuXc.5.Z 1 u u u u ",
"S V p N b ] S.S.XXXXQ.6X'.6X].Z e.K o o 2 3 r W %.%.#.&.E.XXOX,X[.iXyX9.4.,.F.&.i 9 0 i W A.S.[ S S $.S.F.S.E.+X*X<X].(.9.8.o.&.1.o...V n ^ b c k h a S.;.l E.2.: w 6.I..X.X4XdXiXaXvXO.Z dX| : T H ; 5 5 5 5 6 6 ` -.` v V a b :.XX=X*XqXNXuXt.Y D n ^ ) / ( ) ",
"G U C f p Q ;.F.OXXXK.1X].-X<XD p.K @ 4 2 ; - ` D.Y..X*X2X[.pXb.5.O.S.Y.:.1.'.+.1 9 9 u ) A.A.-.,.1.E..X&X6X0XxXxX(./.2.1.&.[ o.,.,.} ^ n ^ ^ b c a a -.;.` Q.S 1 T q y x ! ! W S.#XI.| dX/.x T T > , , , 5 5 6 z %.#.~ B B $.R.#X&X8XVXcXuXl.5.O.S.T.|.XX,X<X2X",
"w.Y Y 1 u c #.U.#XQ.H.].2X=X*X9.r.L w X ; W =.T.#X*X3XfXb.u.U m x =..X|.1.4.5.B < < s W =.Y.|.XX,X7X0X0XwXxX].5.U D ) %.-.$.( F ( ,.&.} ^ n ^ n b v v $.F.F.U.C 9 T , = X X - =. XY.S.dX[.) 6.R V j u s s p c / #.%.( S S H.&X=X=XBXbXaXaX(._.Q.+X7XwXnXVXLXLXLX",
"q.I e.0 d u ~ U.#XU.o.(.0X&X#XmXyX9.k.8.W.OX&X'.aXpX9.U i : y z { |.|.*.4.5.C i s ] A.|.&X6X0XnXxXyXyX(.L.2...9 9 < c #.;.#.^ v S } &.$.[ ( ^ n n ^ n / F.|.:.9 w w : ; : x D. XY._.PX'.,.q.6...) b n ^ ..[ ,.S.S.} S ..W.OX|.!.aX/._.1X6X6X0XmXCXkXjXfX)./././.",
"~.R L J ; ; p F.%XU.o.].7XQ.J.jX2XOX7XBXnXmXsXuXyX^.1.o.C Z V c $.F.&.) X...*.S.T.XX+X<X1X]././.8...S ..( ~ n k 7 7 M ` -.%.~ v S ) $.&.$.[ ^ n n ^ ^ ~ T.OX) 8 L 8 * x A.}. XoX[.PX/./.).0.o.,.o.......o.:.S.K.,...X.H.E.$...8.,.U.&X-X0XcXkXgXc.5.S s y y y y ",
"E.l.L 0 h ; u %..XU.H.3X7XS.Y m.K.#X$X#X3XcXcX2X6X7X0X].5.Y U ..#.%.*.:.S.H.K.E.!.!.!.L.<.O...} #.W p S F c N c g 6 g W @.%./ c a n | &.&.$.[ ^ ^ ^ ~ #.OXOXm K u.m A.Y.Q.~.5XdX{./.).{.J.1.<.<.,.o.o.,.&.S.E.H.1.<.O...V a ,.F..X=X6XaXgXm.Y Z ; y t t u u , 6 ",
"2.x.u.9 A ; t ` T.U.U.7X,X:.k.sX#X$X+XaXc.aX6X&XoX3X'._.8.4./.W.Q.oX,X7X2X3X3X].1X1X>X_.^.8.D C S c p s v c N N f 6 6 b #.%./ k i p / } *.&.$.} ( ( ~ F.&X.XE.(./.>X!.8.6.q.8.m V 8.F.I.K.J.2.<.<.o.o.:.S.F.E.W.oXK.S J U ;..X=X*X3XlXz.L C r u u u , , 2 5 # % ",
"9.S E w 1 , t W A.U.|.-X+XK.cXnX&X'.pXk.J ..:.S.:.K.E.Q.XXoX<X0XwXnXnXmXxX].'.>X+X6X<X'.9.5.J 0 i l l p p c j j g 6 , p ] %./ h i u c ( $.:.:.&.,.} $.XX&XOX8XBX5XvX(.Y K w 1 > s @.D.D.K.H.1.,.o...( &.F.Q.XX*X>X4.Y 5.E.#X.X^.b.Z.Y < u u i u u , , r l b z x ",
"[.U R E : r r l :.I..X9X-X<XAXuXyX5.U v v n ^ } } &.1.1.,.O.<.E.OXXXJ.^.>XOXOX6X3XyXx.5.J 8 + o - t l p p g g g g 3 6 g / %.( h 7 5 6 c $.:.-.&.,.1.E.OXQ.W.5X5X{.8.U J e + o ; z %.A.S.H.1.1.,.[ ^ ( :.XX&X-X>X5.n.yX+X=XF.5.g.R < y p p u , , , , ; @.|.OXXX[.",
"OX+.w E h ; , / F.Y.&X9XXX(.z.4.<.~ b ..o.,.o.^ v V i , , t z -.D.;.n ..1.:.:.,.X.Z < ; 4 4 % # 2 g t t u g g 6 6 6 3 5 b { ~ g 5 % 5 r Q @.@.$.,.,.1.1.1.1.,.) V 9 1 ; * 4 = ; z @.;.#.,.,.,.$.[ 1.K.Q.*X9X7XyXm.aX6X.X<.u.l.D y t g j g 6 , > > = ` |.$X#XvXbX",
";.l + q h ; t =.U.T.*X+XK.x.l.| &.[ ( o.1.1.,...S V k g g j z %.F.#.V C B u t t d d f g 6 5 5 % 5 6 d r u p g 6 6 g 6 > u l b g > + % 4 t ! ' @.&.,.,.} } [ n i < > , , > ; > r W @.#.( ....[ { F.OX.X*XwX0XaXjXcX,XE.4.g.R m z p u g g 6 % + ; = Q |.$X#XeXbXnX",
"t 6 6 , , 3 Q A.U.U.+X!.H.9.4.( ,.[ [ &.1.S.1...V V k g g j M -.F.{ i A B u f g 6 g g g 6 5 5 % 5 5 - ; u p g g g g 6 1 , d t 6 > + + # 4 t W @.@.$.} } [ ^ v i i , , , , ; , p ` { ~ c S n ( U.&X&X*XwXqX].CXmX,X8.l.l.X.@.{ ..S F h g 5 5 , > l |.$X%XeXIXmXSX",
"f g , 6 5 l =.S.;.H.L.H.1.<...S ( [ $.-.H.H.:.^ A B h g 6 d M %.S.] h V B u u g 6 g j g 6 6 5 2 5 % 2 3 t u g g g g 6 > > 6 ; 5 2 * # # X * y ` ' Q ( ( ^ b p u u , 6 , , 6 6 t #.#.c a V b D.$X#X+XnXqX'.cXNXoX8.z.v.1.A.F.H.,.o...n a 7 , , ; =.$X%X*XIXnXSXHX",
"j f d g c %.D.-.( +.o.[ } [ [ n n ( { -.S.S.>.F A A i g 6 6 t @.A._ h B h u i g 6 d j j g 6 6 5 5 5 5 3 d g 6 6 g g 6 5 > 5 , , 3 = 4 o * o * l W z c c c p p u ; ; u u u u g l @.{ u 7 < ;. X XXXwX0X`.xXNXL.8.b./.F.U.E.W.2.O.o.1.1.} n i < m |.$X$XeXbXmXHXFX",
"j g d M #.D.A.~ V S n ~ ~ ( [ ^ k c / %.S.G.>.v q B h g 6 6 t @.=.b 7 B i t u g g g j j j g 6 6 5 5 5 3 f g g g g g 6 6 > > ; 5 5 o #   o X . y x : : * * ; > ; ; ; - t u u u Q ;./ 5 7 &.|.A.@.1X,X|.6XwX^.5.b.^.I.U.Q.W.L.O.D ,.K.E.K.,.S 9 ,.&X$X&XIXnXMXHXFX",
"u p c ] F.T.*.B C V c c b ^ ( ~ j h b [ :.S.>.V A h 6 6 6 g j { ] g g j g , , 6 , , t z W z j g g 7 7 u l c g g g g g u > 5 ; ; r z ! @.S.H.P.~.{.0.6.T J e @ + + * - - ; r l ` S.` 7 F Q.S.t 8._.}.&X-X'.n.y.4.H.E.U.E.W.J.X.X.1.E.E.E.J.<.D J.-X$X:XIXnXSXHXFX",
"v n ] S.T.F...9 C V p l c n ~ ~ v i a n $.;.[ h q h 6 5 6 g M ~ N 6 g g 3 6 , 5 ; r l Q { { [ ( n c v n ( ^ v k a h g , > m %.D.I.Q.`.[.).).).0.0./.{.0.6.U 8 @ + * * - = - l { A.` < S o.c c 1.OX=X*XqXgXy.Y D :.U.T.E.L.O.D O.H.U.Q.E.E.J.O.W.-X$X9XIXnXSXGXFX",
"( | :.U.Q.,.C C C i p p p c ~ _ n a i a ( $.~ 7 q 7 , 3 6 g p N f g g 6 2 5 5 > ; r W { @.%.$.$.$. .( } } o...v V V v [ S.|.&X`.).l.R J & O O . . . y : : : +   o X * = * - l { A.{ i q q b D.&X=X*XmXAX9.Y Y S %.U.T.E.2.D D ,.F.T.T.Q.W.L.2.!.-X&X*XIXnXSXGXFX",
"S.S.K.E.E.O.Z Z V p p p p c ~ / n v a i ~ [ n h 7 7 , 6 g p p p j j g 5 # # 5 = = t ` @.%.&.&.,.,.,.} $.>.>.>.+...1.Q.&X*X8XdXl.u.J y y : : O . O O O O X * X X X o X * * - y ` =.#.v q S F.=X#XK.fXLX,X:.Y t.s  .S.U.F.o.D D ,.F.T.Q.Q.!.^.J.W.6X-X-XUXnXSXGXFX",
"Q.K.L.^.K.O.Z Z V u p p p b ~ / ^ n v a ^ [ ^ a h 7 7 < u p p u g g 6 % # # o o = l @.%.%.&.,.,.,.,.} $.>.>.>.,.E.OXOXoX].[.].L.!.1X3X5XdXdXiX9.U J 0 8 O . . X X X * * * * r W =.-.b ..!.:X}.8.d.k.T.$XXXO.t.Y m $.S.&.F B S %.U.T.Q.Q.!._.^.W.6X6X-XvXbXmXHXFX",
"E.H.^.^.H.o.C C V a p p l ~ / ] ( b v c n ( ( ^ v v a i a v a a j 6 5 & % # $ # - z @.%.{ $.,.,.,.,.} $.,.1.H.S.F.E.!.oX+X,XeXvXbXbXvX5X5XeXBXBXBXVXbXpXb.u.J @ > X X > o * - x @.-.:.oX-X=X3XlXc.(.L.+X6X!.8.n.5.o.| b a V n -.U.T.Q.Q.W.W.W.W.oX6X-X8XIXmXSXDX",
"2X].aX(.8.O.S C S V u c b Q ] ] ( n N v n ^ [ :.S.1.,.,.,.o...S F 7 & & % # $ # - W @.{ ~ [ $.$.} &.1.G.Q.Q.J.8.'.@X#X,XvXfXpXq.X.| #.@.@.;.D.D.F.!.oX6XwXvXfXb.K 0 q + # * = y Q A.&X@XH.(.bX>X*XwXwXBXVXVXcXCXgXyX9.4.C s m ;.U.T.Q.Q.W.L.W.L.!.6X9X6XBXIXmXHX",
"nXnXmXcXaXaX9.4.D C s v ^ [ { ( ^ ..N N ^ ( $.G.U.E.L.L.L.2.O.X...F h & & % # 4 - W %.[ n ..( } S.Q.|.&X6X'.yXxX1XE.[.zXq.4.) ) m ~ &.U.|.|.oX[.).7.7.0.T.%X-XBXlXd.e.0 + = ; t W A.|.H.V J D Q A.Y..X6X0XqXnXmXmXMXNXsXx.k.U ,.I.Y.Q.!.W.^.^.^.W.>X6X6X6XPXvXnX",
"SXSXSXMXmXnXxXxXaXk.Y U ( #.$.[ ....n N ^ ^ &.F.F.E.W.L.J.2.<.<.1.1.,...B q @ 2 r W ` ( ^ ..o.F.OX&X-X7X3XcXcX/.6.V.7.) ' ' { ..) 1.OX$X&XeXbXcXmXaXY u.w.G..X%X*XsXB.p.0 < ; t z #.S.:.v , g g p | S.F.K.E.+X+XoX`.1X0X7X3XdXfX].'.W.!.W.L.L.W.W.!.oX6X*X>XPX'.",
"GXGXJXJXFXHXMXnXnXsXc.n.4.*.*.( ..F v v N n $.S.S.K.K.J.2.O.O.1.H.K.K.2.O.C q 9 p ~ / / n ..Q.OX&X6XwXqXxXyX5.u.I 9 : W @.' ] [ K.&X=X@XPXVXMXSXSXHXjXk.L E n I.%X%X>Xz.p.K q - x W ` { ( v k k c b { #.( o.XX&XT./.5.8.L.|.&X9XwXBXbXxX].(.(.W.E.W.W.>X9X*X1XIX",
"2XqXnXnXNXSXJXDXSXnX1X(.x.9.<.) v V V k k c [ ;.S.H.2.<.X.D X.:.F.F.H.H.2.O.S C F ~ ( ( } E.Q.U.+X8X6X`.9.7.7.F : 1 > p ] @.@.U.&X=X,XIXcXSXFXGXFXFXFXkXr.L E : A.%X XE.j.p.U < y l c ~ } / N n n n } &.o...H.XX.XXX^.4.U D :.Y. X&X7XnXmXCXjXsX'.L.L.L.!.oXXX`.",
"1.1.E.OX-X9XnXSXZXZXMX2X_.(.9.4.S S V a k k b { &.&.o.S A C o.S.F.F.K.J.J.2.O.S S F ^ ( } F.F.XX-X*X`.v.z.5.) { / m i > b { D.#X#X*XPXBXMXJXGXKXKXKXFXDXm.r.u.w . A.%X X<.h.I 9 r r p b { %./ n F _ } &.$.^ F ..S.|.#XE.D K U :.I.}.OX+X7X0XnXnXcXcX].9.<.2.1.@.",
"..S n ] F..X;X9XwXMXZXZXMX<X^.9.5.D i a a k j k n n c j g b -.F.F.E.K.J.2.J.1.<.X.S S F [ U.&XOXXXBXb.Y Y D W { { | ^ u p ] |..X#XrXPXnXCXN.kXNX8XwXLXJXN.a.p.P . = D.$X}.4.j.K C s p l ] ;.#.^ n ^ } :.1.} V ..1.S.T.Q.[ 0 U 1.I.T.Q.!.W.!.oX6X7XwXNXcXsXyX^.F.",
"c c c / { :.E.XX:X9XwXmXZXDXnX_.4.Y U a j p a a a a i i k [ S.F.F.E.L.2.2.2.2.,...D S 1.XX=XOX{.dXbX<.1 R U x c ~ ( [ ~ v | XX.X#XvXeXnXm.s.d.oX$X%XqXJXhXs.r.R . o x I.%XY.6.h.J V s c Q -.-.$.^ ^ ,.1.H.,.F S 1.U.U.1.X.C S :.U.|.OXoX`.8.8._.oX&X-X7XnXNXVXxX",
"j f M ` #.:.&.1.K.+X:X9XqXSXFXSX3X(.x.5.J Z V p p a a k b &.S.F.K.K.J.J.2.2.1.,.o...S K.XXU.!.5X1X8X4X6.Y u.C y x z ~ ~ b ) XX.X#XeXeXnXN.s.d.!.%X%XqXJXhXs.r.R O * X W .X$XI.R g.J s t W #.;.:.( ..o.H.G.1.S C C $.U.}.U.3.4./.XX&X=X6X3Xk.5.'.Q.|.XX+X6X,X2XxX",
"j j z %.;.&.o.o.,.H.XX@X9X7XnXSXKXSXxXk.t.Y V p p a a v } S.S.H.K.J.2.2.2.1.1.,.o...V [ [ / } :.T.&X-X8XaXc.t.R G y x b b ~ T..X#XeXvXnXZXhXkXMX8X8XSXFXN.s.r.T . = o * @..X#X! f.u.C u c { -.;.$...o.H.G.:...C C i c A..X|.E.'.1X>X!.W.8.8.J.Q.U.E.W.W.W.!.Q.E.",
"p c Q ;.;.$.o.+.1.H.H.K.XX6X9X7XmXKXCX9.U U Z p t u p ^ :.F.S.H.J.J.2.<.<.,.1.,.o...n a c k g g p #.I. X.X+X3X(.7.R G y x ) F..X#X6XPX0XSXJXGXHXKXKXFXDXm.a.p.H . * o * X A.$XA.q h.J y c Q #.:.&...o.1.G.S.^ C Z B 6 t { |.$X#X+X3X]./.O.X.o.| 1.K.F.K.E.K.E.K.",
"a ~ { ;.S.1.O.O.1.H.H.1.K.oX,X9X9XwXMXZXuX5.U U C u N / :.S.G.H.1.2.<.+...o.1.,.o.o.n v b c p a u , ] T.}.;.W.,XXXP.).7.U m @.#X.X.XPX5XqXKXJXFXFXHXGXZXs.r.u.+ o   X * * y Y..X! P g.1 z ` ] &.&.[ ( ,.K.H.[ C 0 A g g g A.#X$X=X7XxXaXx.5.D ..*.S.F.K.K.K.K.L.",
"w.) -.S.H.J.<.<.o.1.H.K.K.W.!.>X,X9X7XqXCXB.L U V c ~ [ :.F.K.H.1.+.S F v ( &.*.o.( ( ( ( ~ b v a p c #.U.A.~ X.J.|..X~.q.V.T S.|.Y.@XPX,XwXSXJXJXGXFXM.r.u.P O o       * o x .XT.y u.R y ` ~ [ &.#.( ,.H.E.,.C Z A g g g b A.}.%X-X9X2XaXyX(.<.O.1.K.F.K.K.E.L.",
"C.6.;.H.H.H.3.,.+.,.H.E.E.W.W.L.2.L.9X:X>Xc.B.t.C b ~ { ;.H.S.1.o.S V B k _ { } ( ( [ | [ ( ^ ^ a s u ~ F.A.c 8 0 m ;.}. XE.7.V.[.T.Y.4X5XOX6XnXmXmXyXY u.R O $ X   o X o = X =.#XA.s g.T x ~ ( $.&.} &.H.Q.H.S 0 Z i g g , l A. X$X&X7X3XaX].'.L.L.^.L.K.K.K.J.",
"5.C.1.H.H.1.,.o.+.o.H.K.E.E.W.J.X.C ,.@X;X*XxXhXM.5.<.S.H.H.H.,...C B B h j b n ^ ( [ } } ( ( ^ a i , p %.F.] < G o.@.' K.OX.XQ.{.dX4X|.@X5X5X8X3X8.6.7.T 1 > # # 2 ; * * X o @.%X X| e.C.S x ( ,.&.&.&.H.Q.K...0 Z B 6 6 u l ;.%X$X&X7XxXaX9.2.oXOX+X`././.J.H.",
"8.v.0.S.H.1.,.o.o.,.H.K.E.E.L.J.X.Z B ^ F.&X;X6XcXkXuX].^.J./.O.C A B B h g g p c b ( [ ] / ( ( a h u u ; %.T.=.n 0.3.m ..o.S.|. XE.[.tX`.!._.).q.6.4...l j h 5 5 5 , ; r ' D.}.T.{.dXq.U w...) ,.,.&.&.K.Q.K...0 Z B 6 6 g z @.U..X&X9X<XaXx.U D 1.|.#XOX8XqX3X",
"9.5.q.:.1.1.,.o.o.,.,.H.K.K.K.2.O.C C h , #.XX;X=XqXCXjXyX/.2.X.V B h h g g 6 g u p b ~ / [ | [ ^ v a h 6 > S..XD.v P K < : : ) F. X X~.[.).4...) | Q [ ( ^ n a s ~ *.F.T.Q./.w.V.R 0.|.@.F q.X.| 1.&.:.H.E.E.O.Z 0 B g , p Q @.S.T.Q.@XoXoX_./.U Z ..U.#X#X6X0X",
"x.4.v.<.1.,.....o.o.o.,.S.S.H.1.+.S A h g 6 z U.;X:X6XcXkXgX9...n B i h g 6 5 3 3 g j b W ] $.$.[ ^ v u u , r ;.}.D.( U 0 8 @ : ' D.D.|.&X@X5XdXiX).8.o.o.*.:.F.E.oX<X3XiXC.f.R 9 : : A.Y.=.^ 4.X.&.:.:.H.E.E.<.Z 0 q g u l ` -.F.U.E.H.1.2.K.Q.E.O.Z X.1.A.S.1.",
"uX4.v.8.*.o.........S ..&.S.:.1.o.S V h h 6 , ` |.=X-X9XmXjXM.n.Z i u h 7 5 5 5 2 5 g t z Q ] / ~ ~ n v p u , W T.Y.:.8.4.S 8 q ^ @.x ! H.U.Y.OX4XeXvXPXPXvXvXvXbXIXzXV.R G x x ' S.S.F.OXE.X.U 4.,.;.S.G.E.W.<.Z 0 q 6 , p ` ;.F.U.E.H.,.S V ^ -.` r c ^ / W b ",
"gX4.v.6.*.o.....S S v a [ S.S.:.,...F k h h p b S.#X=X-XnXnXaXM.n.U 1 1 > 4 6 6 6 5 5 f l b b b b c b c p u u p S.|.I.o.6.2.$.s w q : - r l W ' D.D.F.K.^././.0.U Z ..| ! @.o.@.H.K.K.K.J.2...S S o.;.S.F.E.W.<.Z 0 q 7 , g ] A.D.U.E.J.<.X.C 9 7 6 g t b z b c ",
"M.5.l.6.) ^ ^ n a a i , c :.S.;.$.o...v h h N $.F.&X-X-X2XcXnXxX3XyXy.L e o ; > 5 5 % 6 f g j j j g u u , > > > > / A.S.) ^ 1.F.| A H 7 : ; r z :.[ ; B V s x ! x r ( T.F.| 4.4.v c c z ` #./ ....( :.S.F.E.W.<.Z 0 q q 6 g ] A.I.U.E.L.2.+.D B 9 < , u p t t u ",
"M.Y l.T x b b p i h , , , / ;.-.%.$.[ ^ N N } E.|.&X9X,X(.M.sX<X&X*X].x.p.L 8 o o o % 2 3 2 6 g 6 6 > > > + + + o   ; x Q y ; } U.D.~ H H 7 : ; z l ; 1 < l l ` #./ c ,.Q.{ 1 w q r t Q @.%.[ ......&.S.F.E.W.2.D Z q q 7 g ] A.U.U.E.L.2.O.S q 9 7 , , u r d , ",
"m.L l.U l c j g g g 6 g u p { %.#.%.} [  .} S.XX:X:X!.x.M.k...[ 1.K.XXXXJ.Y J 9 @ + 5 4 4 4 3 ; ; = * = ; > > ; * o     o * * * t A.}.D.+.T J 8 o X * X = z y y l ] x x [ ( s u i p b { -.-.[ ..F F >.S.S.E.W.J.X.Z C 7 7 g { A.U.U.K.J.2.O.S 9 < > > , , u u ; ",
"m.L u.G r g 3 3 6 g g , u u z ` #.#.$.&.>.:.Q.:X:X!.x.B.5.m v i i v ~ { #.*.b < q @ # * X # = =   o * * * = = * * o     * * * =   - @.Y.Y.S.O.U w 8 + O O * * - t z t t t c z t p c ~ { %.-.[ ..F F $.S.G.E.W.J.X.Z C 7 6 M %.F.U.F.K.2.<.+.S B 7 > @ > ; , ; ; ",
"y.L u.9 g , d 6 g d g u u u p b ` %.%.&.:.Q.:X&X^.c.z.D m k p p p M g 5 < u 3 2 > > o * o o o o   X * o o * o X * 2 * o * * * * # o * t W ! ` ) v a < @ + +   * y x l y z z l l c b Q #.-.:.o.( F S } S.K.K.L.2.O.C A q 6 M -.G.U.G.H.2.O.X.S v n ^ ) ) ^ n n m ",
"t.e.R 1 6 , ; 6 r t u u u u g M Q %.:.S.XX9XXX/.M.z.D v a u p p f f 3 6 , > 5 5 > > > % o X     $ X o o   o o o = = = * * * * 4 4 = - = * * X * * : * X o   O * ; x l r c m c l l b  .#.-.:.o.( ..S ..1.H.S.H.1.O.S C A k _ ;.G.F.H.J.2.X.D S v ~ } K.XXOX1X5X5X",
"L g.P o = = 4 - r u u u u u g j ~ -.U.OX:XoX(.N.c.D l c b ( ~ ~ b c u , > > 2 2 2 2 3 2 # #   $ $       o * * * = = = * * * * o * - ; - = o       o o X * * X X * t t r c b l l b ~ ( #.-.:.o.( F S v [ :.S.S.1.<...S S n } F.F.H.H.J.<.S D S h , < i b { @.$.3.",
"e.f.+ = o o = = ; , , ; , u 6 g z F.=X:XXXyXN.n.<.F.G.S.1.1.H.H.K.1.S V B > > 5 5 6 6 6 3 2 2 # # # o o $   o o * = * * * * o * ; , ; ; r t l z l p c r 1 O O O X - r y t c c c b ~ ~ { &.&.} ( n v v n :.S.;.1.<.O...S ..:.F.S.1.1.L.1.V D B > + + + $ > ; = * ",
"g.J o = * o o * = = ; ; , , ; W U.;X;X>Xc.N.k.X.G.Q.1.X.4.S v m | ) s i < > > > , u g 6 6 6 5 % + & % # $       * * = 4 4 = * * ; ; l W @.F.U.U.!.`.`.'.'./.4.K K e = ; r t l l z ~ W / [ [  ._ N v k v } ;.;.:.,.o.+.+.,.S.H.H.1.2.W.E.} o.o.[ ^ V 1 @ O O . . ",
"H O o * * o X * * * * - , , ' |.;X&X].M.B.Y m b ^ n u , u r , , ; > , > > > > , t p g g 6 5 % % + & % # $     o * o = - * - r x ' A.Y.}.XX,X>X_.'._.J.<./.^.<.0 J 0 > ; u c c l z ~ W ~ ( ( ~ N k a a a ^ #.;.;.,.o.,.1.H.K.K.K.!.oX+X6X,X<XnXxXxXxXsXyXx.5.4.O.",
".     X * * * * o X * ; t S.OX;X+XuXB.y.U l [ A.U.S.o.G Z V u , u , > = o 2 6 t l c g g 5 5 % > > % $ + +     X - - - x @.A.U.Q.+X7X0XwXnXNXmXsXuXx.U e 8 @ O X .   = ; p l c v v n b ^ ( ~ b v v a a i a ( -.;.&.,.,.1.K.Q.OX*X*XwXnXnXNXLXAXAXAXbXbXVXVXVXLXUX",
"o O   X X * * * o   - @.T.;X*X(.B.m.Y m W c m F.|.F.O.U Z V g , 6 > > * * - u t l j 6 5 5 5 5 6 5 o * x ! =.D.K.L./.8.8.L.Q.XX,X1X2XxXnXnXnXNXmXcXsXc.t.K 0 1 : - - : y x y x z c v n b ~ b c a k a a a h v %.;.;.1.,.H.Q.OX=X9XwXxXcXgXgXx.5.4.X.| :.A.@.| o.o.",
"X X X X X * X X * ! I.$X=X'.b.d.t.0 y =.|.U.| U U 1 : ; u ; = ; 2 o = - - t p p p g 5 5 5 5 5 t Q ;.I.XX,XwXxXpXpX5.U G i s c m m ~ / | @.=.A.;.A.S.H.H.K.K.W.'.'.].xXxXyXt.t.U v c N b b N k k k k k k h g ] ;.:.S.K.XX&X=X9X2XyXb.z.L 1 X x =.U.|.XX'.).iX).0.",
"X     X : : y @.D..X-X3Xb.d.p.J - - r W F.}..XK.5.Y J 1 ; = = * o 4 = - r t c p p h 7 h c ] S.|.&X7XnXNXSXcXx.L K q * - y t t l Q @.-.S.K.E.`.'.3X3XeXBXNXNXLXLXLXLXCXjXc.Y Y D m v N N N k k a a k k k j g ~ -.S.T.&X=X7XnXyXb.i.I 1 * - ` T.$X#X4XvXbXxXnXqX3X",
"* X ; y x @.T.&X*X1Xb.B.i.K O * - - - r r l =. X}.,.Y L e o > = * * = - t p p p p h v $.U.&X-X0XNXSXMXxX(.5.u.U S ] #.&.H.K.E.!.>X8XnXBXVXVXbXVXBXBXBX].x.x.4.L.*XH.C t.J y x l m c N N k k k p a j k j j u c %.T.#X=X9XxXuXz.u.Z y u ; ! }.$X%X5XIXmXmXMXMXMXnX"
};
