/* XPM */
static const char *energia_WE[] = {
/* columns rows colors chars-per-pixel */
"128 128 256 2 ",
"   c #0B0C0C",
".  c #0D0C14",
"X  c #130C14",
"o  c #140D1B",
"O  c #1A0C1C",
"+  c #180918",
"@  c #14121D",
"#  c #18121A",
"$  c #0F1011",
"%  c #230F1C",
"&  c #1B0D23",
"*  c #1C0D2B",
"=  c #160C25",
"-  c #151223",
";  c #1B1224",
":  c #1C122B",
">  c #16132A",
",  c #1C0D33",
"<  c #1D0D39",
"1  c #1D1333",
"2  c #1D143A",
"3  c #220D24",
"4  c #230D2C",
"5  c #2B0C2C",
"6  c #270A26",
"7  c #23122C",
"8  c #271128",
"9  c #240D33",
"0  c #2B0D34",
"q  c #240D3B",
"w  c #2B0D3B",
"e  c #260735",
"r  c #330D3C",
"t  c #360C39",
"y  c #231234",
"u  c #2B1134",
"i  c #24133B",
"p  c #2B123C",
"a  c #21183C",
"s  c #33123C",
"d  c #351237",
"f  c #320B29",
"g  c #45113C",
"h  c #1E1247",
"j  c #250D43",
"k  c #2C0D43",
"l  c #2C0E4B",
"z  c #260C48",
"x  c #330D44",
"c  c #3A0D44",
"v  c #340D4B",
"b  c #3B0D4C",
"n  c #39064B",
"m  c #251343",
"M  c #2C1243",
"N  c #2C134B",
"B  c #26144A",
"V  c #331244",
"C  c #3A1244",
"Z  c #34124B",
"A  c #3B124C",
"S  c #351849",
"D  c #2D0E54",
"F  c #350D53",
"G  c #3C0D53",
"H  c #350D5A",
"J  c #3C0D5B",
"K  c #3A0553",
"L  c #2D1353",
"P  c #2B1359",
"I  c #341253",
"U  c #3B1254",
"Y  c #34125B",
"T  c #3C125B",
"R  c #361853",
"E  c #3C0D63",
"W  c #3B0D6A",
"Q  c #341363",
"!  c #3C1263",
"~  c #3C126B",
"^  c #35136B",
"/  c #3B0D75",
"(  c #3C1273",
")  c #391378",
"_  c #2D1267",
"`  c #430D4C",
"'  c #460C48",
"]  c #42114C",
"[  c #461248",
"{  c #430D54",
"}  c #4A0D54",
"|  c #430D5C",
" . c #4B0D5C",
".. c #490759",
"X. c #530D5C",
"o. c #580C58",
"O. c #431254",
"+. c #4A1254",
"@. c #43125B",
"#. c #4A125C",
"$. c #48185A",
"%. c #53135C",
"&. c #561459",
"*. c #56104C",
"=. c #650D5B",
"-. c #440D63",
";. c #4B0D64",
":. c #440D6B",
">. c #4C0D6B",
",. c #490666",
"<. c #530D64",
"1. c #5B0D64",
"2. c #530D6C",
"3. c #5C0D6B",
"4. c #530666",
"5. c #431263",
"6. c #4B1264",
"7. c #44126B",
"8. c #4C126B",
"9. c #471863",
"0. c #531364",
"q. c #5B1264",
"w. c #53126B",
"e. c #5B126B",
"r. c #57196A",
"t. c #440D73",
"y. c #4C0D73",
"u. c #4C0D7C",
"i. c #440E7B",
"p. c #530C73",
"a. c #5B0D73",
"s. c #530D7B",
"d. c #5B0D7C",
"f. c #5B0677",
"g. c #451173",
"h. c #4C1273",
"j. c #43127C",
"k. c #4B127B",
"l. c #461875",
"z. c #531273",
"x. c #5B1273",
"c. c #54127B",
"v. c #5B127B",
"b. c #551872",
"n. c #650D69",
"m. c #66136A",
"M. c #630D74",
"N. c #640C7B",
"B. c #6B0D7C",
"V. c #690C75",
"C. c #750D7A",
"Z. c #631274",
"A. c #6C1274",
"S. c #63127C",
"D. c #6B137C",
"F. c #661975",
"G. c #76137A",
"H. c #75106B",
"J. c #84127B",
"K. c #870D7B",
"L. c #A4126F",
"P. c #3C1187",
"I. c #4A0D87",
"U. c #530C83",
"Y. c #5C0C83",
"T. c #540D8B",
"R. c #5C0D8B",
"E. c #560788",
"W. c #491286",
"Q. c #531283",
"!. c #5B1284",
"~. c #58128B",
"^. c #4C0C96",
"/. c #5B0D93",
"(. c #570D98",
"). c #4A1293",
"_. c #581297",
"`. c #630C84",
"'. c #6B0D84",
"]. c #630C8B",
"[. c #6B0C8C",
"{. c #690787",
"}. c #730C84",
"|. c #730C8C",
" X c #7C0D8B",
".X c #7B0B86",
"XX c #641283",
"oX c #6B1283",
"OX c #64128B",
"+X c #6C128B",
"@X c #6F188B",
"#X c #741283",
"$X c #7B1384",
"%X c #7C128B",
"&X c #74128A",
"*X c #640C93",
"=X c #6C0D92",
"-X c #680B9B",
";X c #730B93",
":X c #7B0C94",
">X c #740C9B",
",X c #7B0C9C",
"<X c #750698",
"1X c #681296",
"2X c #741293",
"3X c #791298",
"4X c #5A0DA6",
"5X c #5610AC",
"6X c #670BA7",
"7X c #780CA6",
"8X c #6911A6",
"9X c #7911A7",
"0X c #690BB7",
"qX c #760BB7",
"wX c #7012B6",
"eX c #770AC6",
"rX c #710BC9",
"tX c #870C89",
"yX c #950C8B",
"uX c #861388",
"iX c #94128A",
"pX c #870C97",
"aX c #970C98",
"sX c #871297",
"dX c #961298",
"fX c #A50C99",
"gX c #AA1199",
"hX c #870CA7",
"jX c #9C0DA4",
"kX c #960BA9",
"lX c #8912A6",
"zX c #9713A6",
"xX c #880BB7",
"cX c #970AB8",
"vX c #8812B8",
"bX c #9812B6",
"nX c #A70BA8",
"mX c #B60BA9",
"MX c #A512A7",
"NX c #A80BB7",
"BX c #B70BB7",
"VX c #A712B6",
"CX c #B612B1",
"ZX c #C709B8",
"AX c #CE0AB2",
"SX c #E408BD",
"DX c #990CC6",
"FX c #880BCE",
"GX c #A80AC6",
"HX c #B60BC7",
"JX c #B30CD0",
"KX c #8C08E7",
"LX c #AB09E3",
"PX c #C70AC7",
"IX c #CF0AD1",
"UX c #E406CF",
/* pixels */
"/ / ~ ( / 7.W k./.N.I U # 1 M U 0 6.lXlXY.R.9X3X1Xh.c.!.z.s.~.OX7.F -.S.OXQ J kXbX@.A S.! @.0.7.~ g.h.5.Y 7.E _.R.*X9XY.Q.8.k./.1XT.I.T.T././.-X-X(.u.Y.hX=X].hXGXDXxXDX6X~.J h._.T Q ( ) j.) ^ g._.P k.T.N i.(.W./.).T.I.(.5XW.5X^ 0XP.. @ Y.KXKXKX5X_ Q ( j.W.",
"( ( ( W g.Q ( Q.OX} Q s - m N O.V p } %XsX2XS.w. .| :.z.d.Y.Y.!.XXY.h.b q.lX!.2.NX'.i @.z.! U T T U G T ~ ! i.vXwX>X;XY./.:.! W.I.-X8X-X8X7X-X-X-X(./.t.].7XU.;XcXGXxXDXqX~.J 1XQ.T k.g.j.~ Q ( _ (.W.t.l.N T.(./.0X(.:.).^.0XP.4X5XeX).$ Z ].FXKXeXeX4X) ) j.j.",
"( / / ~ Y Q j.!.Z.k ! O : N I 6.0.A m Y 8.w.O.Z Z T 5.! 5.>.d.v.x.z.!.!.l { kX7X;XbXU.T { 2X!.T T T 7.I.c.W wXFXDX>X`.>.R.Q.m Y j.W.T.T.T.y.:.Y.2X-X-XQ.>.>XY.].xXGXDXxXqX/.W OXt.7.c.h.I 1 m L ( i.T.5.W._ W.I.s.=Xs.T 5X^._.) I.).6X/ > (.^.R.7X-X2.7.~ ~ ( ^ ",
"~ ~ W H _ j.h.OX3.I s @ 1 N U O.0.#.5.b.0.O.U @.U x k M k V U -.h.v.v.XX2XT a.bXhXcXGXXX>.>XhXs.A A y.9X/.U.xXxXcX`.h.! 5.Q.Q m M T 7.7.! ^ ^ Q J ].>X!.7.Y.].d.>XcXDXxXxX6Xu.s.i.Q.W.~ i B _ P ~ ( g.( I.).^.P.Q 5.Y ).0X5XW.Y Q.~.6X^ t.KX0X).y.F @.T ( W.W W.",
"H D _ ( k.c.!.oXG T 3 @ i M A C x V w G 6.9.T p j ( c.7.T N m N T >.d.v.v.+Xc.d.hXHXHXM.2XvX;X9XT L -X>X>X[.7XhX7Xz.-.Y L 5.g.~ L B L Y ~ j.j.j.^ :.8XR.g.s.=Xs.].hXcX7X7X6XT.:.W.k.W.^ B c.wX5X).( Q j.^.4X5X^.).P.5X0X6X0XW.H @.t.0X5XwX8X2.:.P I M Y ~.W./.eX",
"P 7.c.c.s.d.v.c Y Z.O - 7 C y i i i m 5.0.] u m ~ 2X'.;X;X].c.Y j I 5.z.w.z.3X>X=X].f.H +XzX|.:X9X>X7X+X;Xd.>X7X=X8.5.Y N Q ! g.W.j.j.W.~.4X4Xi.7.s.8XR.z.h.].s.p.{.hX[.-XqX6XW ].t.j.( P t.qXeX^.( L j.5X).I.I.(.0X0X^._.).).W.H R.qX8Xu.W _ T Y 2 N k.y.).0X/.",
"h.h.y.c.z.y.+Xv.sXH.> y # u N Y Y Z T 8.G N N T x.} 2. XpXpXhX,XY.H F @.8.-.3.2X,X7X~.~.>X=Xd.2XN.N.2X`.`.>.=X=X`.@.! Q N B Q Q :.c.(.4X(.*X9Xc.-.R.=Xp.6.8.d.8.T ;.;Xd.d.7X-Xi.:.W.( ).^ j.0XFXrX( P g.I.^.P.Q ! ).).).).^._.j.k./.(.I.P.5X5X_ _ W.).Y g.8X(.i.",
":.h.v.XXOXlXiXdXuX;.lX{ . y 9.5.y.c.Q.y.OXXX6.#.d 6 +.n.C.o.1.B.aXhXy.v @.7.H | d.;X,X1X].d.v.v.z.h.z.p.w.@.oX].h.T I Y I i m P Q T :.-XeX*X=X8.7.*X`.5.T 5.2.$.Z I a.c.-.`.-X(.^ 5.j.W.( ( j.qXqX/ )._ W.4X4X) _ ( W.).).I.t.j.I.W.I.)._._.W.) j.T.4XP.T.eXW.Q ",
"*X2XsX3XjXiX` ] +.m.ZXNXr.w N x.lXGXcX'.o.o.f 4 - @ d [ [ 5 A c o.aXbXY.b @.5.7.T -.x.v.x.8.h.z.w.0.p.8.@.U 2.OXt.5.N N Y L m 2 I ~ T G 9X=Xc.Z ~ !.8.Z U 7.#.U S I J 8.Y :.s./.^.) W ( ( _ Y ~ u.0XW.^ j.i.T.(.I.W.W.W.j.j.W.W.W.j.~ Q D m i M U 7.T./.=XOXU N ",
"VXpXpXdXtXq.U T @.d o.gXt 8.3X%XN.IXHX.Xt > ~ OXvX@X8 8 d 5 s d 8 ] pXGX=XF 6.:.5.P L I k T b.z.z.6.oXv.T Z J d.Q.W T N N I L m < I l.T !.s.Z B g.8.I p Z 5.A C p T W.Q ~ ^ I -.s._.I.W.).W._ ^ ).R.6.Z N Q ^ ) W j.j.) j./ ( ( ( ^ _ ^ ) ^ ) B : i i 7 7 i L Z ",
" X|.dXH.r p A #.0.%.v Z.-.zXnXsX}.jXnXo.8 O.bXVXmXH.% % 8 d V d % % [ pXHX|.| 8.T 5.7.~ Q T 5.U w.5.2.1X! Z V U c.~.j.Y m N I L m i 7.5.z.5.i T 5.T p M S S p p y p ~.)./ ( ) ~ ! :.U.T.4X5X).) W.Y U < P ) I.).P.W.W.I.^.I.P.) W.).).(._.P.W._ h B B h P Q L p ",
"}.&X#X6.U : 7 s +.;.8.zXBXaXV.M.o.*.' 5 8 4 6 6 %   # % 8 s 6.6.C 7 d Z.kXHX`.6.6.x Z U 5.7.7.T 9 #.-.1X~.I p M U z.1Xk.Y B N I L 2 @.@.5.M m ! I S y V p i 7 7 : ; c *X/._.T.Q.j.T U W E.4X).(.4XQ P ^ ).5X0X5X5X4X4X4X5X0XrX0X4XT./.4X5X5X5X).( P N M N i > 1 ",
"'.oXa.r.O.8.s y w 8.zXtXjXn.lXaXt 5 O M U 8.S 7 i y - # u C 0.|.:X8.J S.=XHXNXw.w.5.U Z p p A D.6.A >.w.9Xk.N p p N >.1Xj.Y M N L i U U U y L T S M 7 V y 7 ; ; @ - - u E I.R././.W.~ I ! U.W.i./.) g.).8XqXqXwX6X6X6X4X(.(.-X6X_./.*XqXwX0X0X8XW.) ^ B > > 1 i ",
"'.#Xx.q.' C.*.U 6.z.aXjXaXn.' o.5 Z C y z.lXlXsXe.[ d # d d } N.cXDXhX>X7XIXjXe.Z.q.0.@.0.$.p b x.c !.F S.8Xj.B y u M >.*Xj.Z m L i S Z p : U M p i : S : - - ; 1 1 a 2 B L I v :./.(.j.L I k.W.t.W./ ~.T.wX6X(.4X5X5XW.y.t.g.i.u.Q.u.s.U.I.T.y.h.g.~ L 2 2 a 1 ",
":XsX$X1.&.' x F.1.0.N.HXBXA.5 u Z sXA.+X7XpXpXC.&.[ 8 u $.s Z R.|.pXnXGXIXPXV.:.$Xt u V b q.] A v.{ q.c.Y c.~.Q.L 1 y M >._.7.M S y V V 1 y Z y p y : M > - 1 ; y m i i M M i 1 - 0 p.-XW.Q Q T.^.W.t.T.4XrX5XrXKXrX6XT.h.h.W.W.W.j.g.( k.Q.Q.8.k.W.W.^ P B 1 - ",
"`.pXtXG.2.6.e.=.t [ t G.tXH.f ; &.H.}.HXIXPXnXx.k 8 3 6.N.2.2XoX` Z F >.'.'.>.z.<.s $.+.u u x x.#XS.k #.h.k.:.c.k.Q L p p c.c.N M y p p - y p : i > i M - - B i 1 : : > > 1 2 : - @ - b ~.I.I.:.8X^.( t.qXrX0XKXFX/.5.J j N U T Y Y H Q.W.T.I.k.W.W.W l.Y N m > ",
"a.}.%XsXsXM.#.5 $ , Z r 0 s s 5 s G.jXK.n.yXyX#XD.u u '.cX;X3.k I T T T ! 8.w.c s [ o.3 - i N S.oXN.6.q x !.! I :.~.l.N u U !.A p 7 p y > i y : y - y N 2 1 1 y y y i m a 1 2 1 ; - > ; A T./.W.U._.j.u.qXKXrXKXeXy.k.Y L m B B L Y j.W.U.(.4X(.(.).^ Y P P N L ",
"S.a.|.pXzXVXN.w q OXsXq.V M $.%.] q.nXC.[ %.m.m.` s u |.JXpXY U U Y I V Z 7.@.y p y : m S M 5.@.;.&Xr 9.A @X!.L 7.W.Q.T i x v.T V M Z ; 2 m : ; y ; ; T B N L N N N N M i 1 1 y 1 2 1 : ; @.T.T.I./.^.i.8XKXrXFX0X5.h.h.H ^ ^ ( ~ j.T.W.W.1X6X6X6X_.k.k.I.) ^ ~ ",
">.S.a.B.V.C.MX<.@.uXf % 9 O.b F.m.%.A.dXH.s O d 6.A A `.GX:XT I Y g.k.h.c.Q.8.R N M V U Z U @.M 5.+X:.8.A ' #Xc.5.~.s.7.M v z.U V 5.U 1 L i - > i @ 1 U ! Y Y I M i : - ; : 1 i i i i y 7 7 p.-X_.T.0XI.I.eXFXeXrXQ k Y ~ k.t.W.g.g.t.7.7.7.Q._.8X0X).i.k.T._.~.",
";.;.oXM.<.' X.n.t [   > U r.0.{ G.m.&.n.uXt X : ] ] w.2XlX>.T h.c.h.z.c.z.@XXXT @.9.U R T 5.I I !.lXkX'.$.8 & x.>.c.v.z.V v w.U V 8.A N 5.1 # m < m M 1 y R N : : : : 1 2 m N L P B i a y : C *X_.I.*X6XI.4XFX0X0X) m Y k.j.T.~ N m i y y i m ~ W.-X0X4XP.j.W.J ",
"Z 7.p.sXa.` s d u M < r.0.#XuX .} m.+.' H.%.V s #.6.[.3Xx.:.Q.!.R.1X+Xv.z.{ O.8.G ] 9.@.T ! 7.@.@.x ;.| x M ! d.z.-.Y.z.Z x 8.U V @.M U 8.; - I N 5.- @ M i - 1 : : i m i 1 i i I Y M i m i ; @.-X(.u.6X4XI.6XrX(.g.N Q k.k.Y N y 1 2 2 > m L N ( k.8XqXrXrX4XT.",
"z T 8.N.;Xc A 0 u U 9.e.m.n.G.uXF.<.0.[ 5 r +.C O.y.,X&X;.c.].=X,X7X;Xd.+XS.F | @.I U ! h.v.w.G V L 7.! ! 7.2X=X-.7.d.w.V p 8.@.V @.p U T - 7 U I _.( i 8., m ; ; y N y ; i L L m ! Y i m i : 7 Y.R.t.s.6X^.I.0X5Xi.L Q W.7.M i N Y Q ^ P h L N Q g.qX6XLXKX8XeX",
"I k 8.:.=Xx.x ] A O.;.%X*.V @.1.G.m.` [ u M C w T R.lXM.| s.>X,X>X9XhX9X].a.S.@.U 5.5.x.S.2.5.@.w.OXOX!.:.7.>.Y T !.y.6.M w 8.@.C @.i A A - y V u.DXxXg.q Y M # : M M - p S Z ~ i ! ~ m i i : @ H k.5.T s.4XI.0XrXI.L Q W.Y i I l.Y L Q ) B m L Y U.qXqXLXFX6XeX",
"Y N T :.s.2XG 0.X.#.w.$X` ! 6.6.0.%.d & u A x.OX>XlX.X@.T Y.>X7XxXGXGXJXNX3Xx.w.U O.#. .@.5.@.T ;.d.>X1X!.k.~.W.j.h.h.H i M 6.Z Z O.y U M - i V OXc } OXq h.9 @ 1 m m @ M L T 5.y ~ j.I y i > - I j.T 5.u.T.).T.FX0Xi.( ) N i 9.I Q ^ P ) ^ m I Q _.FX9X*X7XwXqX",
"Y z I z.:.*Xy.0.q.x.sXtX} T J J t.z.6.p y s +.M.C.X.>.6.E *X>X9XlXpXhXNXHXGXpX;.@.@.@.@.@.{ ;.OX>X>X*X].s.5.;.c.k.Q.:.M i F @.p Z A 9 9.Z 7 u V z.u u !.Y U m @ 7 i L < > i M i 1 k.~ Z y p 1 - Z Q.~ E R.W.u.I.qXeX5XT.P.m M ! Y _.)._ ~ ^ m N Q 8XwXU.W.) U.8X",
"Y N l XX:.-X[.q.q.D.tXtX1.-.H l.c.v.S.5.T U A q j T h.>.c.R.7X>Xs.7.p.'.GXJXGXpX>.G U G T d.xXDXDXcX9X*Xh.Y M u Z U j p i ! I m N Z y @.A 7 u T @.M M @.W.j M ; ; : i Y L m m N ( c.I I i 7 y 1 i s.T.H Y./.t.k./.FXrX^.W.2 S ^ Y T.I.Y ! Q B P :.wX/.qXFX0XI.W.",
"Y N h v.s./.=X} 6.M.%X$XA.8.W w.b b G 0.Y.`.S.v.!.| T h.y.].3Xy.W h.v.XX:XHXHXGXbX,X>X1XhXDXDXcXxX9X9X>X1XQ.I M i i N u N 5.N m I M i 7.M : N @.C : 1 p l.L : i : : 7 M R Y Y ! ! v S S i : y p I :._.W >.].W.~ t.6XFXrX5XP M 7._ Y T I 7.L Y ^ R.6X7XFXqXqX0X^.",
"D N h k.s.T.[.{ 6.Z.uX#Xm.>.g.} M 9 : u p.:X}.&XoX>.h.>.| +XY.H h.v.y.S.d.pXHXJXGXcXDXDXGXcXcXcX9Xd.s.d.s.`.v.F p p u q 5.U N N I * T 8.: 1 R V q Q ! N N m > 1 1 i i i M R I M N Z V M 7 y L N T 7.U.1XI.p.R.~ ! u.qXFXrXP.m I ( _ Q 7.T Y ( t.*X-XeXwX6XwXqX0X",
"P I h c.y./.{.{ 8.Z.X.S.q.>.u.O.y ; 8 7 v '.N.D.D.S.XX0.H +Xd.-.| b.Y.d.v.p.%XVXGXGXGXGXDXcXhX[.:.~ ! H 6.-.OXOXF , z 7.@.N N V N i 9.Z > M Z F l.h.b.l.N I m @ > m M i m N N N N N m y @ M ! Y p 5.T.6X/.t.s.Q.E W E.qXrX5X^ D I Q Q T T 7.W T.-XqXqX7X6X8X6XwX",
"Q N B !.u.-Xd.#.0.3. .D.1.y.c.b * ; 8 7 B v.;.H ] @.2.Z.v w.`.>.H I ;.r @.XX;.S.3XlXkXhX,X'.>.! 5.U @.@.x T p.1XXXc.u.h.Z M N V N 9.U > 2 N ! c.I M R I i m L i > > : : : y y 1 1 : > : m ~ J k.Q 7./._.s.Q.u./.j.T W (.eX0X^.( P P L Q ( W u.-X6XqXqXqXqX0X(./.",
"L m ! Y.T.>Xa.0.} 0.v.D.>.t.8.G O.& 1 m ! w.A p 9 u U 2.6.x w.c.:.! I N p.lXy.! W 7.7.5.J L Y 7.5.w j @.9 v T oXY.y.x.C M M M M Z 5.* > N 7.9.w Z Z @.h.Y < y i B 1 > ; > 1 1 1 2 1 < N N L W wXrX4X8X(.g.;.k.u.R.~ T t.6XrX0X^.) ^ _ Q Q u.*X6XqX0XqXqXqXwX6XT.",
"L m ! :./.[.3.q.O.-.oXn.:.h.] 0 0.q L 7.>.A 5 4 y 9 k | x.-.v | p.y.-.8.d.kXxXR.h.! T Y I N V R T O.V Z y M I  .VXsXb i i N S m T p > m 7.0.q ! 7.N M Z U N 1 > 7 m M N L Y I N N i 1 1 m N z.qXFX6X6X/.u.:.y.I.y.T.^ ! u.0XrX0X4XI.j./ T.R.-XeXwXqXqXqXqXqX6X6X",
"Y m ! / R.-.%.} T c.G.1.W c.s - h 7.c.w.c 0 M O.O.Z 5. .4.N.z.F F w.y.-.@.>. Xt q I I I N i y y y V V A u M 5.s ' 0.U i y U V N A y i I 8.x 7.8.L N N i > ; i 2 @ ; i N L N 7 ; @ @ > - : m m 7.8X6X(.U.T.j.y.U.~ Y.I.~ g.T.qXeXrX0X6X6X6X6XqXqXqXqXqXqXeXFXqX6X",
"Y N ! s.d.G q.O.8.#Xe.| Q S.q L h.s.2.O.U V U +.+.e.:XsXtX#X}.d.J b 8.8.-.5. .w Z U N q m m m , ; 7 M U q V A v I b.Z : p U j U p i j 8.8.5.z.7.k.Q.h.k.Y 1 * y > @ @ # - @ $ $ : 2 N P Y 7.M u c.qX8XT.*XT.U.s.I.y.].W.7.u.E.qXeXrX0X0X0X0X0X0XqXqXqXFXFX6X/.*X",
"T N ! s.w.b %.O.a.D.;.Y W pXv.z.| >.D.e.<.;.X.X. .B.nXCXmXaXtXtXD.>.b 6.h.G @.6.A u i N R R Z N i u y @.Z M Z OX+Xb : 1 N k Z u y < @.3Xv.>.d.9X3X=X=XJ 7.Q i > @ ; ; - @ # @ i Q N i h.g.I B L ~ :.7X*X*X6XT.R.-XI.y.Y.u.y.k.E.0XeXrX0X0X0X0X0XqXqXFXFX/./.*XQ.",
"Y j L u.<.w C v v.e.-.Y J |.V.G J x.C.G.pXfXC.;.y.y.N. XmXZXnXtXC.B.6.v >.x.G U p : N U p y y u $.h.I q U M V 5.V : 4 S I Z i 9 R N 3X2XS.2.2X3XoX,X,Xc.H R M i - # - : : > m 9.C - > T 7.~ W.(.~.y.`.].FXqXE.6X6X6Xi.p./.u.h.i.E.6XqXeXqX0X0X0X0XeXFX4X/.-XI.T.",
"Q M l u.2.4 w Z S.q.O.v #.b z F %XtXC.tXmXmXN.y.p.p.c.Y.;XpXCXBXtXH.m.@.v x.;.V p : S p 1 1 1 : * } b.I M M i y ; * Z O.Z M N 9.T v.sXN.Z.e.3XD.sXJXcXvX!.@.I N i > @ @ - 1 N u o ; M , i 7.u.s.XXh.p.9XxXY.U.qX6XqX^.y.]./.t.k.t.U.(.6XqXeXrX0XeXFX6XT.-Xu.~.~.",
"Y F l :.x.x S b S.m.#.b G V j x.mXaXMXmXAXtXs.y.;.-.J :.2X:X}.nXPXaXC.3.{ x w.G y 1 M 1 1 : @ 1 a > 0 U I m M i i U T Y A m !.+Xp.bX;XZ.} D.sXZ.%XHXJXlXa.0.5.I M M i > > - @ . - Z * i Y E D N l -.>X7XT.T.6XvX6XxX(.W d.*XI.W i./ u.(.(.6X6XqXFX0X^._.I./.Q.H ",
"B ! Z W !.<.+.&.3.G.1.q.x v w.sXmXfXAXAXmX}.U.>.J Q 5.! >.N.&X[.aXPXBXjXB.U Z #.p i Z : ; @ 1 N I Q j 1 i N N N N Z Z A q h.9X[.bXpXS.&.` sXsXpXS.pXaX.X3Xb S.b N m I m - ; : i U v m U Q.U.8X-XOX+X*X*XqXxXqX7X7XxX6X( 2.`.U.E :.W.E T.^.^.(.I.T.T.8XI.T.Q.H c.",
"i N Z H y.N.X.o.V.C.iXuXm.A.C.tXyXyXgXmXfXN.3X>.J h.8.h.8.:.p.2X[.kXPXBXjX#Xk U A M #.: - i U Z Z O.T I ! T I N M p p j h.hXhXbXhX'.0.r #.zXa.zXhX`.;XcXIX+Xm.#.V Q.Q i p > > : q 8.8.U !.bX|.p.y.Y.].-X7X=X].=X7XxX-Xt.>.`.Y.( T U.j.H T.^.(.(.(.-XE.I.~.F h.-X",
"i i N N :.].`.V.yXC.yXZXgXC.dXaXnXAXgXmXmXN.2Xp.:.8.c.s.R.Y.y.y.[.:XjXZXBXnX3.j U x 8.w M U p ; @ o & 4 s s s V p q 5.1XhXkXVXpX}..Xe.8 ' aXsX+X3X:XlXkXpX4.` #.x Z.9X1 i N i L s.2X{ V 2X[.p.vXcXxXxXhX7X-X=X7X7Xd.p.p.p.=X/.j.T :.T._ H _.^.I.I.u.T._.H 7./.R.",
", 1 m D E U.Y.}.mXgXgXfXfXfXmXmXSXSXmXAXSXN.:Xd.! h.Q.oXx.v.XXs.p.'.|.NXPXBXtXx U v @.x N V * o * i m i q 1 1 u i Z x. XcXNX}.d.2XlXA.# u } C.D.0.x.S.2X3X2X3Xw.T ` #Xk.* U x 3XJX].u s 2X;.cXcXcXcXhX<X7X7X6X-Xh.-.;.;.].`.*Xk.F :.U.I.P E /.4X(./.U.J g././.Y.",
"Z q i N l y.U.U.fXAXmXfXAXAXAXAXSXSXAXSXAXf.;Xp.! p.S.r & * A S.v.p.`.:XPXBXCX<.l U Z x I C o 1 Z 5.T U U T I w q U d.zXzXf.,.:XVXjX[ $ 8 A @.| G +.+.w.S.2X3XN.lX#.r &Xk O.` e.M.vXl b 2Xd.cXhXkX=X].*XOXOXXXs.Q.!.u.Y.`.>X*XJ Z -.I.(.P.B F W ! J H u././.R.y.",
"I k : m m H s.i.pXmXmXSXSXCXmXZXSXSXSXSXmX>.[.-.~ c.} X @ @ o s S.d.p.Y.nXBXCX.Xk A Z k T S o N 9.{ 0.9.#.3.e.Z.sXlXNXpX;.>.sXsX}.A.u , @.U J >.8.v w x O.9.8.3XlX;XvXN.O.-.OXJ ;.hXU.s.>X[.,XlX`.oX,X'.XX`.d.*X6X-X7X=X=X].| C Z 6.c.i.(.).^ _ Q j././.R.~.y.p.",
"< N > 1 i z :.t.:XAXAXSXAXBXZXZXSXAXZXSXyXy.`.J g.x.4 - 7 1 ; o 5.XXy.s.pXBXNXtXM Z Z p U u - T | 0. .c r 5 x m.%XtX:XN.`.lXuX2.}.D.| VXzXS.XX+X+XXXc.z.| | #.3.zXJXzXr c 3X2Xz.z.;.2X>X>X`.a.'.v.2Xd.N.;X<X7XxXvX7X|.a.O.u p Z 8.U s.W.:._.4X4X(.(.R.R.Y.>.p.>.",
"> i > 1 y j W u.|.ZXBXZXZXZXmXBXZXkXNXZXn.s.y.Q c.} # 1 M M u @ M !.y.u.,XIXPXtXk V V q V 7 i @.%.0.x } 0.G G Z.X.V.lXkXsX1.4.VXjXZ.zXyXuX%X2.| x b 2.oXoX>.8.x t t 3 s D.B.N.`.d.2X=X=Xd.8.V 1.1X`.hX,X[.7XxXhX'.` 0 : ; y M I U | 7X6XE W t.I./.Y.Y.R.-.2.6.s ",
", 1 - 1 1 N t.t.;XNXNXnXjXnXkXNXjX,XNXaX:.s.| g.z.0 > M p V p o I c.:.s.hXIXIXaXw Z M q V - V O.e.` c Z.3.uXG.tX3.#XBXtXc 0  XyX .sXC.X.A.| -.6.} 2.-.| Z.D.&Xx.k M G x.Z.N.;X-XY.;.:.w.v C ; c =X;XxX7X7XxXd.r # # : y p M p N T >.`.xX6X-X-X-XY.d.`.:.y.c.w w.",
"1 * > 1 < Y W i.,XpXkXpX:X:XpXpX}.*XkX3.t.>.J c.O.- i u = M u * w.t.p.`.NXIXPX.Xx A i l A & N O.0.r ] q.uXyX.XPXtXG.C.0 o O 5 4 e.zX$XD.e.S.bXHXHXHXGX:X`.`.M.oX`.[.%X2X[.hXcXcX7Xp.U V y 7 # 6 lX9XhXxXxX>.& # ; y y y i M M N Y ~ H f.xX=X>.y.R.].T | =XI.c.>.",
"1 & : : h ^ W Y.].<X;Xd.f.N.[.'.2.=X;X>.s.H W z.0 > N 4 1 M * F z.-.Q.pXHXPXBX3.v C i T C * N } 0.5 C %.A.C.CXmXn.MXM.8 5 u 8 r q.A.V.}.pXVXnXC.=.o.J.jXNXbX=X`.|.'.'.:XcXNXkXpX[.v.M - - : M G hXxXcXcXR.& # ; 7 7 y i m M i i B E g.;.Y.v -.>X].H b '.,X=X:.>.",
"1 - 1 1 P :.u.=X].`.| G | { >.`.| Y.Y.s.{.J t.8.3 1 Z Z M , N y.y.t.].nXnXmXdXb V V M U 4 : V  .#Xd 3 +.uXo.} CXlX<.` 5 8 7 4 u 0 A { f.GXMX' 4 M M q G pXHXbX,X].[.hXcXkX:X;X[.`.s.OXk N z.+X7X7X7XhXhXF # ; : : y p L Y Y I m m l T -.5.b ].U.Z M 0.|.|.-.-.OX",
"> - : h ~ s.R.].d.E T 0.e.%.F d.| :.s.u.d.W y.6.& y Z M , D d.s.t.U.jXZXnXaX1.x V M M A * y A O.V.G.[ O.n.%X3.m.V.r u w b q.1.C o u A B.NXD.M Z.x.XX3Xd.`.lXhXhX X:X,X:X}.:X:X=X2Xd.'.Y.3XhXhXhX*X].;X=X9 ; - : i V p.1XU.Y Y N i N N U N ;.p.M i @.`.'.| G Y.Y.",
"- > : B k.Y.d.s.-.U v c @.e.{ J | H :.:.d.>.y.0.& # 4 , Y ].Y.u.U.pXCXBXmX1.k Z V k V u y y A C X.CXuXG.D.G.G.#.5 $ ] dXCXMXCX$Xc 4 6 1.:X#X3XsX;XhXlXzXlXXXB.$XlXzX$Xa.:X|.|.X.{ | >.2..XhXpXkX=Xy.`.s.* : @ : i x.hX:XvXg.N N : M V V b c.N 7 O.{.[.@.v c.U.U.",
"> > , P u.U.y.:.T x k w * b 6.x U v J -.d.p.s.x.+.w D g.OX].U.p.tXmXyXdXn.q Z k V k U u C 7 r s +.CXnXpXsX<.{ A u & A.mX=.*.J.uXuXA x.D.M.lXjXdX$Xo.V.kXNXkXoXX.n.n.c e.sXoX .5 C <.x.<.}.hX:X:XR.u.d.h.; : - : p ,Xt.,.xX! N i : N M p @.I p O.2.{.Y.M @.p.y.Q.",
"- > , Q y.:.:.5.b V A r u 9 J F v x Z J y.d.>.d.XXc.s.Y.Y.Y.s.n.tXK.J.X.w Z x V w U C 9 S 4 0.] 3 =.mXPXNX|.} u O r.uXtXn.=.iXn.m.a.dXa.#XjXzX3.q w r %XjXkX%X6.<.3XS.| XX-.b A A w. .|.hXcXDX>XY.s.a.;.> ; - 1 u |.7X9Xd.i i ; y i : u p p A @.Z { T b h.:.h.! ",
"> * , Y -.J H @.v p U #.x u v T x Z k T -.d.a.>.>.:.t.y.s.a. .V.uXV.} k Z v V j S A ; y O.9 m.D.k 4 &.dXVXpX<.4 o H.G.H.gXyXaXuXn.%.<.D.sX}.:XsXpXkXVX XpX XV.B.VXHXGX].;.z.oX6.#.} 3.kXkXGXLX7XY.u.d.-.- ; - 1 y r <.{ i y > : 7 ; 7 7 u p p p I T x -.:.5.! i ",
"m q i L T F M b M 9 T ` G w u U A Z U F >.p.[.p.t.s.y.u.'.G.A.G.n.b v C x Z k Z C & 4 w D.q.` uX#X0.b | sXpXG.<.m.X.H.G.aXdXaXD.O.} 3.<.<.V.jXaXVX XCX XpXpXN.VXuX3.2.Z.w.| ;.| ;.'.cXGXJXGXLX7XU.y.d.5.- ; ; - y i 1 : : ; ; ; @ ; ; : y M N B M Z Z 5.-.5.j I ",
"Y R k N Y v M l M 9 M 4 V G k q U b G | -.Y.].s.s.].:XjXmXyX.X1.x V V M V V V u & A u | sXzXiXG.$XuXsXuX%XG.3.A.zXD.#.e.Z.#Xe.r c $XA.x | $XC.kXHXtXsXN. X.XzX Xw.D.%XD.V.D.&X,XkXGXGXJXGXJXGX].Q.>.`.J @ > ; > ; > ; - - ; # @ ; ; - y i p N B M V ! J :.N p g.",
"Y J v j Z V q Z V w w C 0.O.U u w @.| >.y.y.].,XkXHXZXZXfXK.1.v V M p w V s u s A C r zX.XjXdXdXdXsXdXzXsXsXpXa.3.1.| b x q w ` Z.A.` r F.3.sXHXkXC.$X3.}.}.C.Z.zXjXsX$XtXzXkXGXJXJXGXGXNXJXhXY.c.2.=Xg.@ > @ : : ; ; ; @ @ @ @ & w 2.2X9XE m B p U ! 7.Q 9 U g.",
"Y F N k N k q k l x r p J <.c A u l 0.| 2.d.].7XNXIXAXmXnXV.k v V i w V p s A O.@.a.NXUXIXnX$Xm.q.<.m.$XsXMXVXsXsXe.B.#Xe.#.#.+.A A #.0.Z.%XPXUXzXn.m.X.D.V.C.aXaXMXnXaXkXHXHXNXNXNXjXkXGXcX].Y.s.p.;X>X= ; - @ - # # # - # @ q s.8XqX6XDX_.i M V I J g.m u ! u.",
"Y m B N Z j M N I l p p U a.Z.n b b c #.-.-.s.<XkXNXPXmXC.w N V V j M k Z U 9.S.tXHXUXmXV.' c +.+.[ ' } m.m. XsXM.c ` q.} x w w Z #.c G '.BXPXIXdXD.} } n.A.uXaXnXnXNXBXnXnXkXpXtXpX XdXsX].Y.!.s.`.{.bXt.= ; ; ; ; ; ; @ w ].7XvXvXqXqXxX7.y M Z Z Y m 9 Y y.8X",
"5.j Y H I M j N N Z q M w S.aX Xa.%.` b G | -.>.Y.hXaXM.b M V M k p p Z T x.sXsX4.jXtX4 9 A &.m.*.t [ &.+.A G %X$X;.Z O. .2.w.B.%Xb v |.VXHXBXBX Xq.c  .4.H.K.aXNXBXBXaXaXjXzXzXzX$X3.M.f.d.`.d.U.[.;X[.vX~ < > - @ @ q d.vXxX`.,.N.xXFX-Xm u M M Z N * I t.!./.",
"G.U :.J H k j N z U j q N >.pX=.q.Z.1.{ G | 5.p.v.x.2.#.x M 4 M k 0 u A 0.sXcXkXlX1.& U r.c 6 5 0 u 0 0 6 r #XzXzX:Xp.x Z.dXsXsXoXe.Z.#X1.` dXVX;.b e.A.q.C.tXfXBXnXsXG.uX$XC.B.M.M.XX[.OXOXXXp.!.].hX-X[.vX-Xh.! ;.=XvXDX-X`.xX8X:.vXwXL 7 u M M M , k T h.!.E.",
"q.j Y l I k q N k Z Z w Z :.D.0 p.B.N.N.d.d.x.x.0.G ;.x R 0 M Z b 9 0 A b sXlXsX} 9 $.[ 4 9 C [ g [ A #.$.O.+.` e.sX#Xw. .{ | G x b b G 6.U c %X .{ 3.3.C.aXmXNXfXaXuXq.;.2.a.d.XX`.XXv.p.p.a.2.+X].;XcX7X*X9XxXvXcXDX7Xp.[.GXLX*X=XeXt.: u p i M j L T :.k.y.!.",
"w < Y z I l i M q j I U k E oX| bXcX,X X}.#X%XG.J S.e.k I w @.b #.A w #.G v G n Z A v Z O.w 4 u u x 0.q.| 6.#.5.G { @.{ b x x v G O.@.b 9 $.c 1.sXX.` 1.jXmXPXnXaXaXV.a.OXp.-.| | J | 7.T J 6.XXcX7XOX,XcXxX].d.`.[.v.{ d.hXxX*X].vXu.1 3 p i p l Q E U.wXu.>.1X",
", L Y Z I l q j q N F 5.F -.#X#X|.NXf.x 3. XpXpXzXA.k M x U ` v 0.#.$.G XXoX!.S.>.H T @.b T M o { G.+.b x.3. .S.&XoXXXv.z.8.8.6.8.8.e.:Xx.4 C <.&Xx w }.BXPXnXtXMX XN.3X2.v J 5.8.8.@.@.U U J a.cXcX,X=X;XhXhX*Xh.b 5 5 X.2.p.>XDXk.* ; 7 M m M I :.=XwX(.W.~.-X",
"L F R l I l M j M N -.H 5.2.V.uX1.|.zX .4 { '.uXV.b k M Z 5.G x 6.0.z.x.2.a.p.>.| T J { #.| b.4 kXtX* x.m.} 0.D.sX|.3. .b v k x { 0.| b G.w c 3.x.s x jXBXnXyXaXaX3.2X<.n x.0.c k p w w M A ! J +X`.S.[.=X`.;X=X*Xz.8 5 G p.hXFXy.& ; - y i N I p.>X-XT././.-X8X",
"l I k D b z V m F q h.p.-.c.S.V.3.c <.zXsX} w w G G k k k b @.9 U -.>.>.;.5.| | 6.5.| 6.x.} U  .dXtXO.e.3.Z.3.%X4.x 5 5 4 O.e.G & 0 0.b M.O.O.<.e.@. .nXfXtXaXMXV.'.oXG F.` p V Z A { >.>.v T -.z.>.p.s.c.s.>.s.:.T w >.=X7X7X:.. ; ; ; 7 < Y Y.-X*X/.-XwXwX/.W ",
"N V j @.q L V N I F J =X[.f.d.}.G.A.} n V.dX.XX.{ O.k V w k G { * A J I V q w w k x #.;.w.6.@.e.} ` +.O.e.%XsX<.9 u u 0 w q O.oXw.O c x.oX+.O.` %.x 1.aXyXdXnX.X4.&X4.Z.` p V v F x w 0 0.5.V U @.p.`.XXy.-.T @.T M G {.=X8.k - @ : > - ; j d.*X/.1XR.R.R.U.7.j ",
"k k T x q T A k I -.>.Y.hXkX,X].'.#X}.m.} ..C.dXdXV.w M k p k w.` o 8 & * I H J 6.{ w U 8.@.U >.lXkX'.m.| D. Xx u u 0 +.0.#.o w D.0 O.e.@.A c C u 0 1.H.K.HXaX..N.d.M. .C k { Z.0.Z 5.R x 5.w @.-.2.<.;.8.E 5.I M p -.!.v o y > ; > > > ; b ]./.T.J r | 7.T U F ",
"8.7.G w I @.Z k J -.Y.;X<XkXNXcX,X[.N.B.G.m. ...C.CXG.q k Z b x %Xb . q XX0.G O.;.S.b v @.x q | :XMXlXlX%X<.D.c 5 u 6 O X &.+.` ` r #.+.x b w V u t n.G.dXnXV.;.[.a.;.b w #.e.A u p r 5.b A x z.-.2.`.XXy.H >.g.9 p 8.I . w 7.Y @ @ > > ; A U.T.Q @ & I I H T 5.",
"| x s M U O.b l v -.y.{.>X,XhXkXNXcX,X`.N.'.#XD. ...dX1.V @.w.q S.zX= 3XlX0 r.* U x.{ k O.w V ;.&X'.3.M.C.;.0.} w ] d     b D.0.r ] A C ] w u s s t tXaXtXC.{ a.a.1.G x #.#.0 # X 7 x A Z x | -.| S.d.p.v.! v v.I p 5.: * +X8.~ > @ @ > > Z u./.j.o V 5.5.T M 9 ",
"9 u w G $.Z -.v J E >.2.d.[.:XpXhXkXcXkX<Xd.f.'.D.1.4.#Xb 6.8.F d.dX+ N.zXc b 0.#.0.x A v w 2.bXpXpXM.` b } b { ] ] C 9 C Z.S.G U A r r O.u 7 5 t &.tXC.C.3.| a.2.{ x { 6.9 & u @ # x A V v 8.J p.`.[.].p.s.l <.h., T 1 c 2XJ ~ 2 > @ : > u 7.U.T.m ! W w 9 x J ",
"p N G #.A H `.4.;.>.2.a.d.d.{.[.;X:X>XpXhXhX;Xf.d.S.;.M.3.>.p.2X|.<.% 0 x.:X .x 5.{ l 6.x J lXkXM.a.D.} { #X{ A G O.x 0.S.Z.{ A C V r s 0 u u 3 [ m.=.V.C.G ;.;. .Z x 0.p O C F.0 O C U V A | -.{.'.4.d.+X*Xs. .8.* I < 0.7X7.k.j 1 @ > > ; U y.T.Q Q i E c.u.u.",
"p Y 5.k l :.n x +.+.v G | >.p.d.{.[.].[.,X;X,X:Xp.y.Z.oX'.;.XXpXZ.0 & 5 * O.sXcX#X* U -.j d.GXN.`.zXN.n.3.M.a. .Z...v G { G b C x C 0 d O C 4 C m.n.n.tXm.O.6.;.G x O.A o s 0 d 7 7 C Z s O.G `.`.{ 4 c a.Y.h.G 5.9 5.m } ,XJ 5.N 1 @ - : - p :.U.W D T Q.:.>.U.",
"M 5.A * k w w +.] Z v H H J | -.:.y.d.d.d.[.`.].].,.>.v.%X4.d.;X0.5 | lXm.O n JXn.o | a.-.:XhX2.3XbXsX1.A.x 0.2.} <.@.c b A C w A 4 u 5 ; d O $XaXdXnX.X{ 6.| { v #.#.1 3 O.o O & u A V C ;.;.+X;.O   s w.p.J G v G 7.q q.2Xx { ~ - @ @ > - y :.U.Q l g.W 7.h.y.",
"k H A w p ] $.x j N v v v b G J -.E J -.2.p.s.y.p.f.| -.d.M.-.XX{ v |.VX#X+ G bX#X, @.a.oXlX'.&X1.` B.1.1.` r q.} G c b b x C A u & d O u ] } MXaXVXnXC.{ | { x A e.G - % r.o X 7 O.@.i { 2.x.d.8.& 3  .;.5.G U x 6.z x V.XXG x.g.. @ @ > - u >.h.L :.u.! z j x ",
"V l #.0.$.v q I F w 9 0 0 0 * 9 w v F H J -.| -.-.>.2.| J a.G 8.{ w { 2.Z v x.B.%X0.x >.`.hX'.,XzXm.3.0.{ } r O.#.c c c b w d d O 8 8 & ` D.tXnXnXBXaXV.{ G b w O.<.M : X 8 @ & r w.b p  .2.x.y.>.O.| >.-.b Z v x.3X;X:XlX2X+X2XL . @ - > - p h.~ J y.H D N b :.",
"w w x b x V A x w k @.;.| 6.6.b 9 * w v I F | | | F 6. .G | { v -.0 9 9 w -.XXsXlXpX<.| x.}.N.N.pX%X .} ] 0 C U r.w.A w c #.r 3 8 8 % 4 G.zXNXnXnXBXjX1.b G b q w.6.u 1 $ $ X 7 A w.x V | 5.@.>.;.>.8.| J Z | [.hX,X`.2.<.G k x 9 ; @ - ; & U g.H ! Q N I z H g.",
"5.{ b G U U v T T v k q 9 q v 5.z.G 9 u j F U | G G x G | b 8.b Z U x v J 6.2.4.3.|.%X;.2.&XV.{ %.1.0.#XpXc 8 6 r q.6.C 4 s +.C 5 f % s sXjXBXnXtXnXsX .U b x k D.;.* S p u u s c x.G N w 6.k U  .| G G | z.hXGXcX,X+Xw.{ T U Z M 1 @ ; - w 8.J E Q B < l ! 5.T ",
"G G H H F J 5.-.| #.}  .} w & > j z.w.w 9 k v F F U v v G b b O.x O.O.@.b x c ` } | 4.S.4.N.`.b c D.2.B.GXM.} ` 0 6 x C C u 3 d +.f O &.zXVXmXaXyXnXaX2.| b x G 3.XXq * s A C 5 r oXU x k v @.{ { { | -.`.lXcXhXhX:Xa.{ U T v w 9 : : @ 4 @.E J ! N 9 v h.y.:.5.",
"Z l N v F H J y.D.A.m.m.m.G.%.w 4 4 J 6.4 w Z b b v x w M Z w C O.b b b b O.#.0.e.Z. .G >.G <. .6.a.Z.| m.` 3XkXzXX.+ 3 d +.0 X X $ 6 &.aXNXmXyXmXnXnXa.;.b b #.b e.oX{ 9 9 r 4 B.hX<.J $.U @. .| | p.[.7X;XY.XX`.d.;.H U 5.9.@.U T i 7 T ! H ! M w Z 8.T.8X8XI.",
"k l z j H >.a.w.6.G @.@.G { G.A.%.u N v.| V v { v v p 0 w U x 0 C c c b A b r 0 w b #.#.b U r ] ;.oX..0.` F.zX X:XsXX.O # u C # $ $ f %.pXnXmXyXfXnXmXM.;.G G 0.O.w F.#X#X%X XjXHXhX2XlXz.6.-.5.>.d.].=Xy.-.>.>.-.| 0.w.7.J G 0.6.Y F ! T l T N 9 A h.~.~.*X8XrX",
"M Z I H ! U b w 4 9 * < ! G G #X#X#.q 7.y.A z 6.b I w p x v U x r r r r r s r C C w 9 b { v C 0 c 4.w.b C ;.dXn.pX'.sXc X % s 3 $   3 &.uXjXnXK.yXmXfXC.J | r | 6.b G.sX#XG.dXjXkX:XzXhX3X+XXXd.d.Y.s.J J T | -.@.b v J h.8.H G U J :.! k I N 9 G Q.~.u.t.Q.T.eX",
"j N z l N 9 q G { n V & = r.c H +XZ.9 j :.G k 5.G V x w x b F U c w 0 w w x $.#.@.O.r w H A C w s v 6.b w x &X.XPXaXN.m.X 8 C & + % + t m.aXnXiXyXBXBXsXb 0.x v b I c CXHXNXzX3XlX[.'.oXM.<.6.;.;.8.J @.T b #.b v b k q k >.v.v.v.c.~ j H Y w @.R.Q.Q.qXqXI.t.7X",
"Z j Z p * Z x.tXuXA.#.S = q w.q ! v.v , F H v F | x b q v #.G x Z %.&.&.&.A U { G O.C u w Z r s A b  .q.C 0 b lXkXpX'.r.X d S 3 d u 3 X t dXnXfXfXmXZXBX} @.b.x Z U , tXIXDX>XU.|.[.w.$.b @.U U H b J T G 9.b { S.S.| U q j J 8.8.H j v 5.N I U.Q.U.~.y.*X8X/ qX",
"l T A w x.#XuXJ.G.uXm.U i o @.G h h.F M l l D F ;.k U q l ;.;.w b %.&.&.%.{ q T b G +.x s 9 A w w b 0.#.+.#.r 1.%XD.#X0 4 C d s u u d 3 5 iXBXfXfXfXmXBXV.v 8.x #.U 9 %X`.J H H S.d.U x $.Z k M v @.@.b @.H | v.@.#.5.5.T q N j k q w 5.H N :.~.u.~.U.W F -Xt.wX",
"T v b 8.v.S.H.` G.uXG.#.j O k @., ! F Z V q z F 6.q Z 5 l S.$Xb Z.G.3 + ] m.{ O.+.#.m.c &.6 V 0 w U { { c O.0.5 r } 0 5 V 0 [ 0 5 d 0 d t G.MXaXfXaXnXIXdXb @.x 0.l Z G | x.x.S.x.| M x V w Z w Z | Z A 5.l c.H : 9 @.-.8.H y S M q T ! m H !.Q.R.i.9X_.E /.u.0X",
"j v 6.;.q.c A  .J.J.}.D.x > < | * L F k w 1 q j b 9 k & v d.nXo.C.uX4 s C A +.} #.0.` A A.[ 5 t w #.1.b r r c A 0 4 u C 0 r s t ] C r 5 5 c iXmXmXyXgXIXjXG G b @.H F O.0.<.#.| b s 9 V p V 9 k H U x 6.v { OXl u p c p.F z.9 7 : x h.H q -./.W.R.-XD H *Xi.-X5X",
"w A F 0.6.k H e. .G.N.dXo.- < x.& B z j w * i q V 0 5 & F '.zX3. XuXC x b b b c { ` %.G.m.[ 4 O.c b <.%.c r s 0 0 t r 0 r r c %.} c 0 5 0 d X.aXfXnXaXZXnX} G x | @.v C w w 0 0 0 9 M M M p q I J U v 8.w | S.8.9 u b c.l c.N   O 5.u.Y q J T./.:.qX7X8XI.t.qXI.",
"p k H x.e. .| e 1.G.:. X=.& , A.* l z q 9 & y , Z 0 3 & J #XN.>.pXiX&.%.m.m.%.} 1.J.iXH.+.t C x b +.` ` ] 0 u s r t C r w x %.q.+.x 0 s c s O.yXnXmXyXmXBX2.G x ;.O.9 9 u s x V V V p p w 9 M J 5.{ U 5.k @.| x.2.| XX7.l Q.Y   4 5.:.L q H R.8X! y.7XU.u.9X4XW ",
"w r w a.#X#X4.M.mXn.W '.o., , x.4 O.F C * & * i k w 3 * | N.;.;.'.1.M.fXiXuXuXdXiXJ.=.&.r &.' A w C e.c 0 w 4 r C r s d c } Z.%.r } &.&.&.t c uXBXaXiXnXBX2.b v ;.w * p p u u 0 9 9 5 u y 4 5.! U ;.H U p b ;.G 2X3Xc.F H ~.L   4 T ! F T ! s.-Xj.F G c.1XwX/ Y ",
"0.} x G { ;.N..Xo.K y.d.X.i , x.e O.H A * O & i w 9 * u 6.B.;.G #X&.N.lXG.1.1.&.' o.&.w O.&.0 C O 4 #.X.A.' 7 4 d 5 5 c q.n.%.0 m.MXaXZ.uX$X0 n.mXyXiXfXHXa.b G #.9 7 y : ; ; 3 ; ; : ; & U h.b w z.| k M 0 x.J ;.>.U k 7.~.2   5 U E H 7.t.s.R.Q.@.U Q.=X/.W D ",
"G } { } <.2.<...<.a.E `.} i , x.e U G b 9 7 ; 9 9 * & 9 z.[.e.l $Xm.>.M.0 0 0 ' H.m.t 0 q.4 s 3 - 8 0 } V.uXr 6 o ; 4 r.1.B.4 } sXn CXB.A.jXn.} nXaXfXfXPXM.b b @.7 7 & 4 0 4 O O & & 4 V :.T w r z.>.v j 9 } OXc  .U & ;.1Xl + O.D :.E 7.t.R.R.k.l v c.*XT.W E ",
"c } X.X. . .;.a.V.;.2.S.b i , a.4 U H c 9 u i 4 * & O * -.[.B.w x.D.M.4.r 8 o uXAX0 7 C %.3 u X u 3 5 [ } .X$X[ X   t F.<.A.+ } sXdXIXC.q.aXzX} jXaXnXfXPXN.Z v U : y * ] F.O.* 4 3 5 p H H U * G a.p.T k v r oX;.v i 3 N.=X[.w.Y F :.H W s.1XW.W :.J :.~._.) j.",
"c b ` +.%.m.x.3.3.'.G.X.x q , Z.4 A F A 9 u q 9 * & O & v ].hX} b sXB.V.3.} t 0 H.&.0 [ m.6 4 & u + C &.A..X$X[ 8 $ 5 m. .G.t O c C.tXX.m.pXzXX.dXtXaXnXPX}.v v G * : 0 x.6.9 * 3 4 9 p k A 4 9 0.a.Y.5.v b w x.`.k 4 & d.>X`.-.v 7.E H -.].T.u.!.Y.!.g.y.~.j.z ",
"T F w 9 4 0 ` 1.G..X` 0 x y * D.* O.F A 9 u q q 9 & & O 9 U.7XC.0 Z.sX3.<.a.[.B.` &.[ w G.0 & 7 * t X.n.C.$X` t d & O [ e.X.G.} t 5 c F.D.jXzX .aXtXnXmXPX|.b x | 9 ; w 8.U u o ; 8 y 0 #.w.0 | S.2.Y.| b U x XXy.n [.k 0 ;.;.b h.E J :.p.~.u.R.~.].!.g.W P z N ",
"j G T U A A r 0 r c r 9 M O O.n.* 9.F O.9 d q j , & & o * z.=XpXo.0 A.%X3.4.p.[. X<.+.4 w.` & & * [ n.V.G.} t &.c s d 0 ] #.<.V.e.O.t t D.sXn. .aXaXBXmXHX:Xb x { p 7 9 @.U 7 - & & t D.v.F { %X;.N.s.-.G U b x.E  XDX-Xv 3 w d.k.j U :.].U.u.Q.W E H J k.( l j ",
"q < l T O.b A O.A V u 4 . 9 $Xr , U @.c 9 d 9 w 9 & & o o U `.,XsX` z a.sXdXtXV.3.d.e.q.G F.5 O 0 &.H.$XX.&.&.C 5 0 0 0 0 x O...<.} c 0 r 0 c m.nXyXBXnXHXpXb k G x u 9 @.b & & & t kX;Xx 2.hX>Xw 3XU.8.| | G x.;.VXJXcX,Xp.;.Q.l j M ;.*XW.Q.W l F H l T y.P 2 ",
"q j Z x v 8.%.6 + & X   , 6.x , F M z w 9 & 9 w * : & o @ 9 s.].,X}.x q | '.sXdXuX;.4.D.` Z.c 6 t n.uXn.m.n.X.t X 3 u A c 0 r r O.] s 0 4 V  .aXaXaXNXjXHX,Xb k H v x q -.@.& ; 6 zXxXK M.,XhXkX4.S.].p.| 6.| S.p.HXJXGXJX-X:.-.i N N H ! E y.L F d.+Xt.j l P m ",
"9 9 q N < < -.D.n.' w v O.l j U v k V 4 & o 4 4 * : & & o & :.Y.=X7X}.0 , l ;.`.dX#X;.3.} <.%.0 [ $XG.X.uXtXtX&.X X & 0 r w V r 0 9 5 5 0 0 3.VXtXaXNXaXGX;Xv k U x M q 6.U & - ' DXY.`.|.+Xa.f.+X>.;.N.;.6.<.a.z.f.GXJXJXxXF G V q 9 p < J ~ l y./ 5.OXQ < Y P ",
"9 , y q j i = q >.Z.#.G w H -.b c r 9 4 4 * & O u 7 * & o o x Y.`.;XpXC.x * m H M.sXN.3.c 0.&.4 X.uX1.m.aXaXBXuXt 9 u s 0 9 0 C u 7 8 3 O 6 uXnXyXnXjXkXGXd.v w U x u * A p & O 1.hX;.N.! z w x G ;.;.4.N.|  .4.e.;.3.[.`.=Xd.J I i ; 9 p 5.7.l c.~ = ;.1Xh k ! ",
"G w < u i z D q = , 9 l :.-.G b q , 9 9 * & 9 0 w 4 4 & o o , z.s.[.;X:XsXX.4 w v oXpXf.x 6.+.5 &..Xm.uXtXaXPXG.r 0.s * r r w 9 4 3 8 5 3 C sXjXjXjXpXNXcX .x w G p 7 ; i * : & :XhXx k 9 b 8.>.| Z U | d.d.n 1.N.a.x.x.x.2.!.t.U I * 9 V T g.D | OXc.S.8XP q W ",
"H G q , q M k D H J -.-.J v l z l v k w C x V k 0 u * : o & & J y.Y.,X[.2.lXn.4 w ;.VXB.b 6.c 4 +.B.n.sXC.aXaXn.*.' + 7 C x k j u * 7 4 & 0 C.NXjXsXjXJX2XG k v A 0 ; 9 M * 3 * pXbX7.J 8.!.H v O.| Z 4 w >.a.{  .a.2.2.;.;.x.v.E J w 7 V l T ! v G v.1Xi.h j Y ",
", I J j q q S v F G H F x w G  .G x w 9 w k w w u 0 4 4 O & & U :.Y.[.sX1.-.sX' * | bXa.;.w.c r } V.1. XA.jXaXtXCXdX6 ; * 3 5 5 5 5 6 t 0 } dXnXyXjXGXcX>.G w U x u 4 U V & 3 4 0 b H :.Y.OX| U @.6.9.u o 9  .v.| G 6. .} { b | z.-.I * u k q I T j 9 q < 9 l Y ",
"q , E | k q q M V V k z l ;.<.b w y 4 4 : * p q 9 9 0 7 o 4 & b >.s.d.d.lX` XXq.& J kX2.x.2.b  .Z.G..XpX.XjXaXtXfXaXm.t t ' [ g *.o.=.n.n.V.A.dXMXjXkX4.G x v G w i q 9.9 # O 5 9 Z @.T ;.;Xv.F b w w C u & * b z.2.2.6.;.@.O.G { >.J i & u 0 0 x T I F F G ~ L ",
"F 9 < 5.;.v j j j j l J 6.G x w 4 * & & O o * i p w d 3 o 9 & v 3.p.XX>.].B.8.q.*  .lX..2.a.p.D.3.1.B.pXpXNXHXjXyXaXdXdXMXH.o.H.dXtXuXjXjXtXo.tXNXkXoXG G x | x q 9 v E w O ; : u w k v |.hX>.2.#.{ v w w u 7 O w 8.a.p.2.#.@.G k | ;.T 9 8 s p 9 p k Z T ! Y < ",
">.w 1 q T 0.8.;.-.;.6.{ x w 9 * x b b v 0 & X o * 9 0 + o p & j D.;.XX].u.S.d.<.* ;.%XG | a.[.B.D.c  .}.:XkXPXNXBXaXdXnXmXiXH.C.jXsXtXtXtXC.o.V. X'.J w.F T G w q w 5.J @.p & * & 9 T Y.7XxX[.v.;.6.#.#.b r u C r w G ;.2.p.2.O.S k #.6.v 5 5 p M 4 : 9 q , * : ",
"2.0 * q < j v F v x w 9 u 4 4 A X.1.;.v v l 9 X . . . $ o M * * >.#X>.1XR.x.S.` 4 v.'.b { a.|. .1.1.X.Z.}..XnXBXBXnXMXnXaXuXJ.o.n.C.yXtX.XC.uX XN.v ;.G H -.x 4 q b J #.z.H U * : i F y.1X3X7.q 9 q x U r.O.r r +.0.{ { | ;.S.| M p w | G k 0 8 u u 9 9 p 9 y y ",
"* 9 { b b V r w w q 9 * * 9 b { 3.aXdXX.F z w + X X X X   u w * q S.D.Y.R.d.S.0 w +X`.x 0.M.N.}  .$XV.m...X.C.nXnXBXPXPXdXK.CXJ.=.1.G.n.tXuX#X;.x { ;.9 | E w : p b @Xp.w.5.N : : 9 v J ! J v x { @.G x x O.w.} x 6.#.{ | ;.S.v.x w j w @.@.V 4 7 u u 9 0 9 7 & ",
", < 5.+.x w 9 4 & & 3 0 A b G n.`.nXmXn.k j p % o 5 0 4 o o s 5 * l D.d.].[.D.4 a.,Xa.x e. .d.$X<.<.3.G.<.r }  XjXjXNXBXH.K.tXCXuXm.H.fXyXA.` w w | v 0 G b 7 4 A x -.b.-.w w A 9 r I l v U b v x v G { b r r 0.N.0.b #.O.{ >.v.| k M i x w.U M 5 7 8 5 u u u 8 ",
"9 > M 0 o X o & 5 V A U b } uXtX.XiXo.c q V d O 7 s 0 u 9 & o u 5 9 x.d.].hXM.x 3X].| c #X} a.sX3.X.` D.C.r c V.aXaXaXPXH.K.yXyXG.m.J.MXuXV.5 x x  .x 0 G v u 3 x 0 5 b @.6.w.8.{ @.T U k w x v v G G b b b x w <.B.2.<.<.{ >.| 8.G V v w J z.F s * O 3 y 9 0 s ",
"V 9 9 & . & s A b G b { A.dXn.M.uXo.x q p d 3 0 u 4 4 4 * y & = u 4 w.Y.=XlX..N.=X>.G { #Xm.<.B.$XtXo.$XC.' r X.tXjXyXBXyXH.CXtXtXgXaXtXtXG.' c 0  .c 0 | J x 0 O.0.x.x.>.;.-.2.z.F q x 6.8.h.-.-.-.5.5.| b c c v <.sXpXzX+XOX>.-.T @.T q w h.>.k V u O & u s 9 ",
"q 9 i O o q M F Z n m.uXuXhXB.A.1.&.w u 5 3 5 9 9 9 9 y * * y & : , >.Y.7XlX<.2Xs.;.0.b uXm.c 3.dXdXn.sX$Xn.t o.yXnXnXBXgX=.mXfXfXPXnXtXH.H.uXm.t ` w.5 O.#.| b ;.z.;.} G  .XX1X:.G x @.5.H l l j w 0 0 b 6.{ b b ;.`.cXcX2Xy.c.G G H 8.l 4 | 8.| w A C 3 X 5 M ",
"* * , - 1 q l } n D.#X<.K d.Z.<.] * * * & 4 5 9 9 q 9 9 u * , & & 9 8.Y.7XhX4.=X2. .0.} sXJ.c } aXdX1.tXtXuX' X.aXnXBXPXZX=.yXZXiXMXCXBXyXn.m.sXG.w 3.{ q 6.| ;.>.;.S.v.v.OX+X`.S.S.;.T i 9 ` m..XaXdX}.X.x | 2.G G H d.>X-X-.H -.F k | 5.9 Z G v.G r x A u 3 & ",
"& : & - - > 5.q.6.+XX.n S.a.0.r o @ o O 3 4 4 7 4 * 9 9 * 4 9 & & 0 >.R.7X2X;.=XZ.Z.tXZXBXdX] { aXfX1.C.A.G.X.M.aXBXBXBXIXiX=.CXyXiXCXnXCXBXC.G.aX1.G `.0.k x v -.p.OX=X+X[.2X=XR.y.-.O.} %X:XpXNXcXcXGXVX&XG | x.w p x >.s.p.H F J b b 5.U k k @.3Xv.b x v U V ",
"= : - X . . j 5.-.+XsX}.M.q.c . X X o & & 4 p & X X o u 4 4 4 & & x y.=X>X+X,.=X$X$XaXBXPXdXc ..jXdXX.1.n.1.1.B.aXBXZXmXZXCX=.H.CXaXfXaXZXmXaXn.yXMXb J v.O.w q #.w.d.;X=X[.{.Y.`.XX3XhXGXbXpXNXJXcXhXkXNXpXD.k | z.v A F G H Z j x 0.G U b.F M q 2.1X+Xv.>.| U ",
"- - * o X X . I @.-.2.q.&.0 X   X X o & O C 4 4 m.5 O 9 4 & & O * G Y.>X=Xd.J R.:X'.|.aXBX.Xr 3.fXuX} n.n.H.A. XpXCXPXZXZXZXiXH.gXmXyXmXyXBXCXfXaXMXA.w k H @.G ;.d.].`.+X3X2X1X+XOXR.].{.kXJXGXcXcXNXGXGXkX3X| w >.5.x T F v i u * A >.k @.w.J T k v T E 8.z.h.",
"* * i * X $   = V #.0.[ O       o O & & u [ X , A 3 9 4 4 * & O w >.[.=X[.6.F y.1X:X`.}.sXsXn.C.gXn.X.J.n.C.C.tXtXaXZXnXZXZXmXfXnXfXiXBXCXmXmXPXBXnX}.Z.o.<...3.'.`.XXv.8.:.F x q e r M.hXNXGXGXGXNXcXcXJXcXcX|.9 G 5.q A J G * : - & @.F k 0.>.| @.j y w w x G ",
", * M x O X X   . & 6 f 8     + X o * & p [ 5 & & d 5 & & O o 9 w.'.;X[.&XG j d.p.+X'.`.#XdXtXiXiX` n.iXn.n.V.tXdXtXZXmXZXZXZXZXPXmXMXZXPXMXmXBXPXNXaXdXjXNXHXNXkXpX`.4.<.<.<.1.M.M.sXcXDXxXcXDXDXJXGXGXJXcXcXbXw U 6.j 4 b J w : * 3 5 @.x 6.x.x.-.8.7.5.J 5.@.",
", * q U r 7 3 o   o d d O X 5 3   o & - * C ] C s 4 & & O X * <.'.|.=X%XD.x 4 ;.f.!.].N.'.sXK.mXyX} m.iXo.iXn.G.sXC.ZXAXCXmXPXIXPXIXBXHXjXnXBXPXIXIXBXNXNXNXHXJXGXNXbXhX7X>X;X,XhX7XhXhXcXGXDXY.>.cXDXxXGX[.|.DX`.6.| -.k b >.5.x 0 s C q O.w #.z.g.7.5.Y H T -.",
"* , , l | x p 4 o o O O 3 3 O X   ; & & & & * & o o o o X 4 2.[.;X;X:X#X} 9 9 v a.d.].Y.`.C.uXZXZXK.n.G.H.gXo.n..XtXmXZXBXmXBXIXBXBXNXNXzXNXpXkXNXHXBXNXHXPXHXHXGXcXhX;Xd.4.'.;X;X=X>X7X<X,XhXN.V.JXvXhXJXs.a.xX=X-.-.[.8.b Y.-.{ 6.9 U r x O.r x k q j l l l x ",
"* , * < F } q V 6 O 4 & + % O     > y * * * o o X X . X w p.;X;X;X2XZ.G 0 p 4 b f.a.`.`.].B.J.mXZXK.o.gXiXn.o.q.3.$XaXBXnXfXjXPXNXjXpXjXBXPXnXnXkXkXNXHXHXJXJXGXcXcXhX:X|.'.'.:X:XN.M.f.N.<. X:XxXFX=XGXxXl G 7XY.t.U.[.c.G `.Y.G S.| w U x x #.{ b b G G ;.Y.d.",
"* , 9 * j U w 9 [ g + 6 g *.=.%   . o o O O o $   X 0  .d.=X:X`.p. .G w 4 6 9 >.N.a.`.`.=XN.G.nXCXiXH.fXgXJ.' ' x 1.H.aXnXaXtXaXnXnX`.&XMXVXGXGXzX,XcXNXcXGXDXhX;X[.N.`.d.:X|.{.xX`.<...[.oX4.;X7X].,XvXH & | 1XR.u.,.hX*X>.2X2Xv.;.OX9 w @.` w x | 6.>.s.!.~.~.",
"* y y * y , Z , V &.gXL.t H.t * O   X O o .   + 0 ..f.].].d.,.,.4.p.d.d.;.} ;.3X3.D.[.Y.[.'.V.aXaXAXAXfXtXG.c 0 + c X.n.tXaXtXJ.dXzXN.a.|.pXpX=XY.`.cXhXkX,X|.pXC.3.1.B.{.N.2X`.>Xy.a.B.N.N.|.9X*X=XxXu.w b ,X>X7XE.:XqXW f.7XY.>Xx S.>.4 w T $.r & = & & = o & ",
"& * , * 9 9 S * s &.gXL.t H.f & & X o X   X 0 X.N.d.s.,.,.4.N..XuX$XN.p.s.s.`.N.;.%X`.s.:XsX3.yXtXgXmXaXfXn.w +.=.o.[ } m.A.n.A.|.:X'.;.a.M.a.2.-.;XhX:X3XV.sXV.X.' c 3.=XN.=X=X`.;X,X>X>X7X>X=X`.3X*Xd.2X>XqX7X-XxXDX-X{.xXE.d.1XG c 2X@.t q Z 6.6.c r u 5 & O ",
"& * , y 5 x r 0 *.g + 4 [ [ [ o . X .   & } Z.`.p.| K ;.B. XsXtXA.B.%X$XV.1. .<.%X,Xd.p.:XaXA.tXyXtXgXyXnXiXt c dXiXc c m.q.` X.D.`.'.M.%X X%X&Xp.|.[.|.w.C.4.} t t 4 3.[.[.;X=X,X>X[.].].{.`.Y.].].].xX6XT.I./.qXqX-XxXFXqX*X1Xh.U i  .2X#.] 4 V | S.z.G w.I 9 ",
"* : 4 0 t c r g 6 + & O o & o . X X   & <.B.a.-.G X.B.tXaXaXaXaXyXC.M.'.sXsXuXsXpX'.d.2. XBXB.tXaXtXiXAXAXgXK.t } iXo.0 m.X.t c e.'.a.%XN.p.p.a.a.+X`.'. .n.' ' f t c N.[.=X<X<X;X>X7XhXhXxX7X*XY.R.9X(./ W U.6X6X-X/.^.u.u.s.~.k ` Z * D.d.@.x 0 0 b 2X!.!.Q k ",
"9 9 x ` ` r s 4 3 5 0 u 9 & O 3 O   . c B.f...G V.tXaXfXfXaXdXaXmXgXtXC.:X|.+X[.Y.p.f.>..XZXtXN.jX}..XyXAXAXmXJ.t q.J.' %.%.c t b $XB.{.lX}.a.;.N.*X{.'.1.<.c ' t t M.`.[.<X>X<X7X7X6X-X-X-X7X9X7X7XE.E H :.T.I.E.U.t.-.p.y.7.F 5 U 1 o ' 3XG x.x.x C p.Y.l.k v "
};
