/* XPM */
static const char *energia_NO[] = {
/* columns rows colors chars-per-pixel */
"128 128 224 2 ",
"   c #0D0D0F",
".  c #100C0F",
"X  c #0F100F",
"o  c #10100F",
"O  c #0E0D11",
"+  c #110D14",
"@  c #120E19",
"#  c #140C19",
"$  c #150E1B",
"%  c #190E1E",
"&  c #180D17",
"*  c #0F1012",
"=  c #0F1011",
"-  c #0F1014",
";  c #0F1011",
":  c #101011",
">  c #101012",
",  c #101013",
"<  c #111015",
"1  c #111013",
"2  c #15101C",
"3  c #19101F",
"4  c #170E21",
"5  c #1A0E23",
"6  c #1D0E29",
"7  c #171020",
"8  c #1C1124",
"9  c #1E112A",
"0  c #1E0A31",
"q  c #1F1230",
"w  c #210E2D",
"e  c #23072C",
"r  c #201226",
"t  c #21122C",
"y  c #24192D",
"u  c #240D33",
"i  c #250D39",
"p  c #2A0D3C",
"a  c #280938",
"s  c #241232",
"d  c #291235",
"f  c #2B1B35",
"g  c #271238",
"h  c #2B133B",
"j  c #2C1B3A",
"k  c #271A35",
"l  c #301D3D",
"z  c #32233E",
"x  c #2E213C",
"c  c #2C0E42",
"v  c #310E44",
"b  c #340D4B",
"n  c #390D4C",
"m  c #2D1242",
"M  c #2F134C",
"N  c #321244",
"B  c #341C43",
"V  c #34134B",
"C  c #3A144E",
"Z  c #361A4A",
"A  c #3A1B4D",
"S  c #381F47",
"D  c #370D52",
"F  c #351352",
"G  c #3B1353",
"H  c #3C1B53",
"J  c #3C1559",
"K  c #3F1B5B",
"L  c #352343",
"P  c #3B254C",
"I  c #3C294D",
"U  c #382446",
"Y  c #3E2153",
"T  c #3E2A50",
"R  c #421B57",
"E  c #42155B",
"W  c #441A5C",
"Q  c #431757",
"!  c #441F4E",
"~  c #412B4E",
"^  c #412654",
"/  c #422C54",
"(  c #45235B",
")  c #462C59",
"_  c #4A2D5C",
"`  c #4B225C",
"'  c #4A315C",
"]  c #483457",
"[  c #421560",
"{  c #4A1463",
"}  c #4A1B63",
"|  c #4B1B6A",
" . c #531C6B",
".. c #4E1971",
"X. c #561B75",
"o. c #4B2464",
"O. c #4D2965",
"+. c #4D216A",
"@. c #55256B",
"#. c #532B6C",
"$. c #592C6E",
"%. c #4E3663",
"&. c #523567",
"*. c #543866",
"=. c #59336A",
"-. c #563B6D",
";. c #56356B",
":. c #4E2070",
">. c #5B2373",
",. c #562C71",
"<. c #5A2B74",
"1. c #582778",
"2. c #5A3474",
"3. c #5C3D73",
"4. c #5F3179",
"5. c #5C3C77",
"6. c #62347B",
"7. c #633A7B",
"8. c #633876",
"9. c #612B7F",
"0. c #5F4274",
"q. c #62447A",
"w. c #69487E",
"e. c #5F2D82",
"r. c #663384",
"t. c #663E80",
"y. c #6C3C89",
"u. c #6B3686",
"i. c #733D8C",
"p. c #6B318C",
"a. c #6C4486",
"s. c #6D4A85",
"d. c #6C4389",
"f. c #6E4A8A",
"g. c #664481",
"h. c #75458C",
"j. c #734B8C",
"k. c #704484",
"l. c #74528E",
"z. c #754492",
"x. c #7A4493",
"c. c #744B92",
"v. c #7A4B93",
"b. c #7D489B",
"n. c #7C5294",
"m. c #7D559A",
"M. c #7C5897",
"N. c #7F49A0",
"B. c #83539C",
"V. c #885A9D",
"C. c #82469B",
"Z. c #874BA4",
"A. c #8555A3",
"S. c #8A52A4",
"D. c #8B5BA4",
"F. c #8E5CAB",
"G. c #845AA2",
"H. c #915AAC",
"J. c #9255AC",
"K. c #955AB1",
"L. c #975BB5",
"P. c #8F5DB4",
"I. c #9464AC",
"U. c #9561AA",
"Y. c #9563B2",
"T. c #9A63B5",
"R. c #9A6AB3",
"E. c #9B64B9",
"W. c #996BB7",
"Q. c #8D61AA",
"!. c #A26CBC",
"~. c #A96CBE",
"^. c #A367BB",
"/. c #A372BC",
"(. c #A871BE",
"). c #A15FC0",
"_. c #A46CC2",
"`. c #AB6DC4",
"'. c #AB6CCA",
"]. c #A464C4",
"[. c #B16FCC",
"{. c #A674C3",
"}. c #AA74C5",
"|. c #AC79C5",
" X c #AD75CA",
".X c #AE7ACA",
"XX c #B274CC",
"oX c #B27ACD",
"OX c #B474D3",
"+X c #B976D2",
"@X c #B57AD3",
"#X c #BA7DD5",
"$X c #BC7CDB",
"%X c #B877D9",
"&X c #B36FD2",
"*X c #C07DDE",
"=X c #C17EE2",
"-X c #B381CD",
";X c #BB82D5",
":X c #BD85DA",
">X c #BD8ADB",
",X c #B986D4",
"<X c #BF83E1",
"1X c #C284DB",
"2X c #C18ADD",
"3X c #C989DF",
"4X c #C590DC",
"5X c #C483E3",
"6X c #CA83E6",
"7X c #C68AE3",
"8X c #CA8CE5",
"9X c #CD8CEA",
"0X c #CF87EA",
"qX c #D28CEE",
"wX c #D08FE5",
"eX c #CC92E5",
"rX c #CE93EA",
"tX c #D293EB",
"yX c #D599ED",
"uX c #D499EA",
"iX c #DC9DF4",
"pX c #D798F3",
"aX c #DDA1F4",
"sX c #E2A2FC",
/* pixels */
"O O     O O O O O O O O   O O O O O O O O   O O O O O O           O O O     O O               O O O O         O O O O O O O O O O O O O O       O O   O                       O O     O O O O O O O O O O O         O                       O O O O O O O O O O ",
"O O     O O O O O O O O O             O O O O O O   O O O O     O O O O     O O O       O O   O O   O         O O O O O O O   O O O O O O O O O O O       O O                 O O O O O O O O O O O O O O           O                       O O O O O O O O O O ",
"O O O   O O   O O O O O O     O O O O O O O O O O O O O O O O O     O O       O O     O O                     O O O O O O O O O O O   O O O O O O O       O O   O                   O O   O O O O O O O O O       O O     O       O O           O O O   O   O O ",
"O O O O = O   O O O O O O O O   O O     O O O O O O   O O O O O       O       O O       O O       O O O O O O O O O O O O O O O O O   O O O O O O O O     O       O       O           O   O O O O O O O O O       O O   O O O O         O         O O O     O O ",
"O O O = = O O O O O O O O O O O O O   O O O O O O O O O O O O O       O     O O O O O O O O O O O O O       O O O O O O O O O O O O O O O O O O O O O O         O O O O O O O O O         O O O O O O O   O O         O O   O O O O O O O           O O O   O O ",
"O O O O O O O O O O O O O O O O O O O O O       O O O O O O O         O O O O O     O O O O O O O O O O O O   O O O O O O   O O O O O O O O O O O O O       O O O O O O O O O O O O       O O O O                   O O       O O O O O O     O       O O     O ",
"O O O O O O = = O O O O O O   O O   O   O       O O O O O O O O   O O   O O O O   O O O O O O O O O O     O   O O O O O O O O O O O O O O O O O O O         O O O O O O O O O O O O         O   O                   O O       O O O O O O     O O       O   O O ",
"O O O O O O O O O O O   O O O O O O O O O O O O O O O O O O O O O O   O O O   O       O O O O O O O O O O     O O O O O O O O O   O O O O   O   O O   O O O O O O O O O O O   O O O         O O O     O O O         O O       O O O O O O                   O O ",
"O O O O O       O = = O O O O O O O O O O O O O O O O ; O   O O O     O         O       O O O O       O O     O   O O O O O O O   O O O O O = O O O O O O             O         O         O O O O     O O O O       O         O O O O O O     O O O             ",
"O O O O O       O O O O O       O O O O O O O O O O O O O O O O O O O O O O O O O O O O O O O O O     O O O   O   O O O O O O O   O O O O O = O O O O O               O       O O O O O   O O O O     O O O O O     O       O O O O O O O O O O O O   = O O O O ",
"    O O O O O O O O O O O     O O O O O O O O O O O O   O O O O O   O O O O O O O O O O O O         O   O O   O O O         O O   O O O O O O O O O O O       O               O O O O O O O O   O         O O O O O O         O O O O     O   O O O O : : : = O ",
"  O O O O O O O = O O O O O O O O O O O O O O O O O O O O O O O O O O O O O O O O O O O O O     O O O O O O O     O       O O O O O O O O O O O O O O O     O O O   O O   O   O O O   O O O O   O O O         O     O O O O   O O O O     O   O O O O O = O O O ",
"  O O O O O O O O O O O O O O O O O O O O   O   O O O O O O O O O O O O O O O O O O O O O O   O O O     O O       O O O O   O O         O O O O O O O O O O O O O O O O O       O O O O O O O   O O           O   O O   O O O O   O O O O O   O O O O O O O O O ",
"    O O O O   O O O O O O   O     O   O         O O O O O O O O O O O O O O O O O O O O O O   O       O O O O   O O O       O           O O O   O O O O O O O O O   O O O O     O O : O O O             O     O O O O       O O   O O O O O O O O O O O O O O O ",
"O O O O O O   O O O O O O       O O O O O O O   O O O O O O O O O O O O O O O O O     O O O   O O O O O O O     O O O     O O O O O   O O O O     O O O O O O O O       O O O O O O         O O O O O O O     O O O O O O O O O   O O O O O O O O O     O O O O ",
"O O O O O O O O O O O O O O O   O O O O O     O O O O     O O O O O O O O       O O O O O O   O O O O O   O O     O O O O O O O O O O O O O     O O O O O O O         O O O O O O         O O O O O O O O     O O   O O O O O O O O O   O O = = O O O     O O O ",
"O O O O O O O O O O O O O O O   O O O = = O O O O O O     O O O O O O O O O   O O O = O O O O O O O O     O O O O O O O O O O O O O O     O   O O O O O O O O O O O   O O O O       O O O O = O O O O O O O   O O O : O O O O : O O O   O - - - O O O O O O O O ",
"  O O O O O   O O O O O   O O O O O O O = O O O O O O     O O O O O O O O O O O O O O O O O   O O   O     O O O       O O O O O O O O O O O     O O O O O O O O O O   O O O O O O O   O O O O O O O = O O O     O : : O O O O O O O O O O - < = O O O O = O O O ",
"O O   O = O       O O O     O O O O     O O O     O O O O O O O O O O O O O O O O O O O O O O O     O O O                 O O O   O O O O O O O       O     O             O O   O O O O O O O O O O O   O O O O O O O O O O O O     O   O O - O O O O O O   O O ",
"O O O O = O O O O O O O   O     O O     O O O             O O O O O O O O O O O O O O O O O O O O O O O O O O O       O   O O O   O O O O     O       O     O             O O O O O O O O O O O O O   O = = O O O O O O O O O O     O O O O O O O O O     O O O ",
"O O O O O O O             O O O O O O O O O O O O       O O O O O O O O O O O       O     O O O O O O O O             O O O O O   O O O O           O O     O O O O O   O O O O O O   O O O O O O O O O O O O O O O O O O O O O O O O O O O O O O O O O O O O O ",
"O = O O O O O     O     O O O O O O O O O O O O     O O O O O O O O O O O O O O     O       O O O O O O O O   O       O           O O O O O O       O O       O O O O O O O O O O O O O O O O   O O O O O O O O O O : O : O O O O O O O + O O O O O O O O O O O ",
"O = O O   O O O O O O O O O + O O O O O O   O O O   O O O O   O O     O O O O = O O O O         O O O O O O O O O O   O O     O   O O O + O O       O O O     O O O O O O O O O O O O   O O O O O O O O O O O O O : : O : O O O O O O < < O O < < < + O O O + + ",
"O O O O O   O O O O O + + + + + + + O O O O O O O O O O O O     O O O O O O O O O O O O         O O O   O O   O O O     O O O O O O O O + O O O O O O O O O O O O O O O O O O O O O O O O O O O O O O O O O O O O O + O O O O O O O + + < + + < + + + O O O O O ",
"O O O O O   O O O O O + + + + + + + + + + + + + + + O O O         O O O O O O O O O O O O +         O   O O O O O + + O O O O O O O O + + O O O O O O O O O O O O O O O O O O O O O O O O O O O O O O O O O O O O O O O O O O O O O + + < + + O + < < O O O O O ",
"O O O O O O O O + + O + + + + + + + + + + + + + + + + + + O O O O O + + + + .           O + + O + + + + + + O O O + + O O O O + O O + + + O O O O O O O O O + + O O O O O O + O O O O O O O O O O O O O O O O O     O O   O O O O O O + + + + + : : = O O O O O ",
"    O O O O O O + + + + + + + + + + + + + + + + + + + + + + + + + + + + + + + O O O O O O O + + + + + + + + O O O O O O O O O + + + + + + O O O O O O O O O + O O O O O O O O O O O O O O O O O O O O O O O O O     O   O O O O O O + : : + + O : : : = O O O O ",
"    O O O O O O O O O O + + + + + + + + + + + + + + + + + + + + + + + + + + + + O O O + + + + + + + + + + + O O O O O O O O + + + + + + + O O O O O O O O O O O O O O O O O O O O O O O O O O O O O O O O O O O   O O O = : O O O O O : : + O O : : : = : O O + ",
"      O O O = O O O O + + O O O O O + + + + + + + + + + + + + + + + + + + + O O + O + + + + + + + + + + + + O O O O O O O O + + + + + + + + + O O O O O O O O O O O O O O O O O O O O O O O O O O O O O O O O     O O   O O O O O O O = : + O O O O O   : O O O ",
"    O O O O O + + + + + + + + + + O O + + + + + + + + + + + + + + O O + + + O O + O + + + + + + + + + + + + O O O O O O O O + + + + + + + + + + O O O O O O O O O O O O O O O O O O O O O O O O O O O O O O O O   O O O     O O O O O O : O O O O O O   O O O O ",
"= O O O O O O O O + O O O O O O + + + + + + + + + + + + O O O O O O O O O O O O + O O O O + O O O + + O O O O O O O O O O O O + O O + + + + + + + + O O O O O O O O O O O O O O O O O O O O O O O O O O O O O O O O O       O O O O O : : O O O O : = O O O O + ",
"  O O O + O O O O + O O O O O O O + + O O O O O O O O O O O O O O O O O O O O O O O O O O O   O O O O O O O O O O O O O O O O O O O + + @ @ # @ + + O O O O O O O O O O O O O O O O O O O O O O O O O O O O O O O O O   O O O O O O O O O O O O O O O O O O O + ",
"O     O + + O O O + O + O O O O + + + O O O O O O O O + + O O O O O O O O O O O O O O O O O O O O O O O + O O O O O O O O O O O O + + # @ # 8 y + + O O O O O O O O O O O O O O O O O O O O O O O O O O O O O O O O O   O O O O = = : : O O   O = O O = = O + < ",
"O O O O O O O O O + O O O O O O + + O O O + + O O O O O O O O O O O O O O O O O O O O O O O O O O O O O O O O O O O O O O O O O + + # # % r j 8 @ + O O O O O O O O O O O O O O O O O O O O O O O O O O O O O O O O O       O : O = : O = O   O O O O = = : < + ",
"O : : O O : + = + + + + O O O O + + O O O O + O O O O O O O O O O O O O O O O O O O O O O O O O O O O O O O O O O O O O O O O O + @ # 4 k z z 4 % + O O O O O O O O O O O O O O O O O O O O O O O O O O O O O O     O O O O O O O = + O = : O + + O O : O O < + ",
"= O : O O O O O O + + O O O + + O O O O O O O O O O O O O O O O O O O O O O O O O O O O O O O O O O O O O O O O O O O O O O O O @ @ 8 j L L j $ @ + O O O O O O O O O O O O O O O O O O O O O O O O O O O O O O     O O O O O O O O + O + O + + + + + + + O O + ",
"O O O = O O O O O + + O + + + + O O O O O O O O O O O O O O O O O O O O O O O O O O O O O O O O     O O O O O O O O O O O O + @ $ 9 x L P I y @ < O O O O O O O O O O O O O O O O O   O O O O O O O : O O O = = O O O O O O   O O O + + + + + + : : < < + O O + ",
"O O O + + O   O O O + + + + + O O O O O O O O O O O O O O O O O O   O   O O   O O O O O O O O O O   O O O O O O O O O O O + # 4 y L U I / I 5 @ + O O     O   O O O         O O       O O O O   O O O O     O O         O O O + O O + + < + + + O : = O O O O + ",
"O = : + + O O O O O O O O O O O O O O O O O O O   O O O O O O O O O O O O O O O   O O     O O O O O O     O O O O O O O @ # 5 j U I I / ] L 4 @ O O O O O O O O O O       O O O     O O O O O       O O   O O O O O O O O O O + O O + O + + O O O O = O O O O + ",
"= : = O . O O O O O O O O O O O O O O O O O O O O O O O O O O O O O O O O O O O         O O O O O         O O O O O O @ # 8 L I / T ) %.*.j % < O O O O O O O O O O O O O O O O O     O     O O   O O O O O   O O O     = : O O O O O O O O O O : : : = : O O + ",
"O O O O .   O O + + + O O O + O O O O O O O O O + O   O O O   O O O O O O O O O O       O O       O O   O O O O O O O $ y L I / S ^ -.-.%.w % < O O   O   O O O O O O         O O         O O O O O O O O O             : : O O O O O O O O O O X : O   : = O + ",
"O O + + + O     O +   + + O O O O O O O O O O O O O O O O O   O O O O O   O O O           O O       O O + O   O + + @ k I / ] U h &.5.q./ 4 2 + O O O     O O O O O O         O O O O O O O O O O O O O O O O O O O = : : O O O = = = O O O O : O O O   O O + + ",
"O + + + + O     O O   O + O O O O O O + O O O O     O O O O O O     O O O O O O O       O O O O O O O O + O O + @ % k I / ] I u / q.7.w.U 4 < + O O O     O O O O O O   O O O O O O O O O O O O O O O O O   O O O : : O O = : O = = = O + O O O : : : = O O + + ",
"O O O O +       O O   O O O O O O O O O O O O O       O O O     O O O O   O O O O O O O + + O O O O O O O O + @ 4 j T / ' / g j 3.g.f.0.k 4 < O O O O O   O O O O O O O O O O O O O O O O O O O O O O O O O O O O O O   O = O = = O O + + + O < : : : O O O + + ",
"O +     + O O O O O   O O O O O O O O O O O O   O O O + O O O O O O O O O O O O O O O O + + O O O O O O + + @ 4 k I ) %.~ s s ) s.s.l./ 5 % @ O : = O O O O O O O O   : : O O O O O = = O O O O O O O O = O O O O O O O O = = : - O : : + + + + O : : O O O + O ",
"+ O O O O + + O O O   O O O O O + O O O O O O   O O O O O O O O O   O O O O O O O O O O + + O O O O O + + 2 % j / ) &.] t 6 6 _ m.G.n.h 5 % + + : : = = : O O O O O O : + O O O O O O O O O O O O O = O O O O O O O O O O : = : - O + + + + + + : < + + + O + + ",
"O + O O     O     + O O O O O O O O O + O O O   O + O O O O O O O     O O   O O O O + O O O O + O O O + @ % j / ' &.' s 4 5 6 B l.F.n.h 8 % + + : : : : :   O O O O O O O O O O O O O : : : : : : : o   O : : O O : : = = = < < < < < < < < < < + < + + < O O + ",
"          O O   O + + O + O O O O O O + O O O O O   O O O O O O O O O O O O O + + + + O O O + + + + + + % y I _ *.%.g 5 8 % 9 u 3.W.n.g 8 @ @ + O : : : : O O O O O O O O O O O O O O O = = = : =   : = O : = O O O O O O O + + + + + < < < @ < < < < + < + + + ",
"  O + O O + + + O + O   O O O O O O O O O O O O O .     O O O O +   O O O + + + + + + + O O + + @ + @ % 4 l ] -.-.j 6 4 @ @ 8 6 ) |.v.u 8 @ + O O : + + + O O O O O O O O O O O O O : : O : = O O   o : : : O O O O O O O O O + + + + + @ 2 & + < + + O O O + + ",
"O + + O +     O O O O   O O O O O         O O O O O O O O O + + + O O + + + + + + + + + + + + @ @ # % % s / &.q.^ u 9 4 $ @ 4 s V Y.V.u 8 < + O O + O + O O O O O O O + O O O O O O : : : : : O O = : : : : O O :   O O O O O + < < < + & @ + + + + + O + O + + ",
"O O +   O   O O O O O   O O O O O O       O O O + O O O O O O O O O + + + + + + + + & & & @ @ % % @ % % B -.3.-.h s 5 % @ + % 6 H R.Q.u 8 < + O O = O O O O + O O O O + + + O O + O = = O O O O = O = = : : O O : : O O O O O + + + + + 2 < < < + < + + + + < < ",
"        O O O           O O O O O O     O O O O + O O O O O O O O O + + + + + + + + + & & & @ 2 @ @ % 4 U q.s.2.m s 5 @ + + % 6 Z U.R.p 5 @ + + + + + + + O O O O O O + + & + : = + + O O O O O O O : = : :   O O O O O O + O O O < < 2 2 % @ 2 + + < + + + + O ",
"  O O O O   O       O O O O O O O O O O O O O O   O O O O O O O O O + + + + + + + + + & & & & @ + + % 4 h g.j.B.5.m w 9 2 @ % q N D.|.N 8 @ + + + + + + + O O O O O + + @ % @ < < + + O O O O O O O : : o : O O O O O O + : + O + + 2 2 2 2 < < + + + + + + + O ",
"    O O O   O         O O   O O O O O O O O O O O O O O + + O O O O + + + + + + + + & & & & & < + + # % 6 _ M.D.Q.B.R 0 9 4 5 q h D.-XZ 5 % @ + + + + + + O O O + + @ 8 8 4 8 $ @ O @ @ O O O O O O O :   O   O O O O O + : + + + & @ 2 2 2 < < < + + + + + + + ",
"      O O       O   O O     O O     O O       O O O O O O O + O O + + + + & + # @ % % @ % @ & @ & @ # % 5 6 Y a.R./.R.#.u q 9 s p V.,XH 5 % % @ @ @ + + + O @ O @ 4 9 6 u B j h t y 8 # + O O O O O O O O O   O O O O O O O O + + @ 2 2 2 + + + + O O + + + O O ",
"    + O O         . O O O   O O O O O O   O O O O O O O O O + + + + + + + + 3 8 8 y y 5 8 4 @ @ @ % % % 8 r 6 c 6.W..X.X2.u d d p v.,XY 6 4 % % @ @ @ + + + @ @ 8 6 0 ^ s.l.j.l.0./ 8 $ + O O O O O O O O O O O + + O O + + + 2 @ @ 2 2 @ + + + + + + O O O O O ",
"O + +       O     + O O O O O O O   O         + + O O O O O + + + + + + + + + 4 s j l l 6 5 4 % % % @ % 2 % 4 u p O.{.2X,X#.c h c h.>X( 6 8 8 < @ 8 @ @ & 2 7 8 6 N a././.R.j.) h 4 @ 2 + O O O O O O O O O O O O O O O + + < 2 2 2 @ @ + + + + + + O O O O O O ",
"O O O       O O O   O O O O O O     O       + O O O O O O + + + + + + + + + + 8 5 s U ~ B 6 4 8 4 4 % % % % % 5 g p #.oX8X!.G V M d.>X( 5 8 8 < @ 8 % % % 5 s u ( I.,XoXV.O.i 6 4 2 2 @ + + + O O O O O O O O O O O + O + + 2 % 2 % @ + + + + + + O O O O O O O ",
"O O         O O O   O O O O O     O O     O O O O O O O + + + + + + + + + + + @ 4 4 t L ' ) j 6 6 4 % @ @ @ @ 4 6 p p ,.:XuXz.F F 6.Y.Z 5 4 % + @ 8 4 4 5 u i 2.|.#X|.d.c u u 5 @ & @ @ & + + + + + + O O + + + + + + + + + 2 @ 2 2 @ + < + + + + + O O O O O + ",
"O O         O   O + O O O O O     + + O O O O O O O O + + + + + + + + + + + + + # 4 5 6 S -.-.Z u 6 5 % % % & 8 6 u m b x.9X`.+.D E J m 6 5 % + # 5 5 9 s a 7.2X:X@XD.m u r 8 % & + + + + & + + + + + O O + + + + < < < + + < < < < < < + + + + + + O O O O O O ",
"O   O O O O O   O + O O O           O O O O O O O O O + + + + + + + + + + + + + + @ 5 5 w ( a.t._ g w 4 4 % @ 8 t d m V r.#X8X XD.h.4.N d 5 % & @ 8 w g a 8.8X8XXX|.W d r 3 % @ O + & & + + + + + + O O O O O + + + < + + + < < + + + + + + O O + O O O O O O O ",
"+ + O O O O O O O + O O + O O O O O O O O O O   O O O O + + + O + + + + + & < & @ @ % 4 r P 8.z.b.8.p 6 4 % % t g m C D.uXtXtXtXyXyX2Xa.c s 4 + % t p v 8.eX8XoX|.=.p t % % @ & + + & & + + + + + O O O + + + + + + + + + + < + + O O O + + O O O O O O O O O + ",
"O O O       O O O O O O O O O O O + O O O O O   O O O O + + + + + + + + + + + + + @ % % 5 B =.v.Z.B.8.g d t w g N b B.yX3XtXeXyXqXtXiX2X,.a t % 5 h N Q oXrX X,X8.a g 6 % % % @ & + & & + + + O + + O O + + + + + + + + + < < < + O O O + + + O O O O O O O O + ",
"O O O O O O O O O O O O O O O O O O O O O O +   + O O + + + + + + + + + + + + + + + % % 5 e ! v.S.S.H.4.v v h C k.i.8XeXtX`.1XsXXXZ.wXuX/.V g 6 w N n S.3X}.,Xh.p p 6 5 % % % @ & + @ % @ + + O + + O O + + + + + + + + + + + < + + + O + + + O O O O + + + O O ",
"O O + O O O O .   O O O O O O O O O   + . O O O O O O + + O + + < + + + + + + + + + @ @ % 5 e =.F.H.Y.^.,.D b h.~.XXtXpXK.>.1XiX#X .~.aX4X8.a g m b x.tX#X2XD.p d 6 4 4 4 4 % @ @ + # % @ # + + + O O + + + + + + + + + + + + + + + + O O + O O O O O O O O O O ",
"O O O O   O O O O O O O O O O O O O   +   O O O O O O + + + + O + O O + + + + + + + & & % % w u 7.K.E.`.Y.{  .XX`.0X0XS.{ >.;XsX%X .x.yXuX|.W N C u.9X8XuX{.V g w 5 5 5 4 4 4 % @ # % 3 @ @ & & @ + + + + & + + + + + + O + + + + O + O O O O O O O O O O O O O ",
"O O O O . O O O O O O + O O O O O O       O O O O O O + O O + O + O O O + + + & & & % @ % % % w p v.^.~.XXS.L.5X6XqXXX .{  .#XsX@X| @.;XiXrXH.} >.1X7X8X>X( a t 5 4 5 5 5 4 4 % @ @ % 8 % % @ @ @ & + + + + + + + + + + + + + O O O O O O O O O O O O O O O O O ",
"  O O O +       O O O + O   +         O   O O   +     + O O O O + O O O + + + & & & % @ % $ $ 5 w C D.`.[.XX#X6X6XtX}.Q E } #XiXXX{ E K.iX8XK.>.`.yX1XeXy.c h r 5 4 5 5 5 4 4 % % @ % 8 % % % @ @ + + + + + + + + + O + + + O O O + + O O O O O O O O O O O O O ",
"O O O O O O O O O O     O   + O       O   O O         O O + O O O + + + + + + + & & @ + @ @ $ 4 w p $.^.XXXX$X5XqX1X@.v C E @XiX_.E n y.uXuX#XJ.rXeXyXH.J V p 6 5 5 5 5 5 4 4 % % % % 8 % % % @ @ + + + + + + + + O O + + + O O O + O O O O O O O O O O O O O O ",
"O O O O O O O O O O O O     O O O O O O   O O         O O O + + O O + + O O + + + & + + + & % 4 w p J J.+X+X$X6XOX<.V N v G oXaX!.C v R ,XpXuXuX7X8X1XC. .v h 9 5 5 5 w 5 5 5 % % % 3 8 4 % 2 @ @ + + + O + O + + O + O O O O O O O O O O O O O O O O O O O O + ",
"O O O O O O O O O O O O O O O O O O O O O O O       O     O + + O O O O O + + + @ + & @ @ @ @ 4 w V A._.'.+X$X0Xx.G N h N G |.iXI.v N v 6.:X8X7X2XrX8X9X#X,.c s r 5 5 r 8 5 8 % % 3 % 8 8 4 % @ @ + & + O + O + + O O + + O O O + + + O O O O O O O O O O O + + ",
"O O O O O O + O     O O O O O O O O O O O O O         O O O + + O O O O O + @ @ @ @ @ @ @ & @ 5 h c._.'._.'.$X0XoXW N h m V !.rXB.c h N b i.8X8X8XE._.7X#X.X#.g s r 5 9 8 8 5 % % % 4 8 8 4 % @ @ + + + O + + + + + + O + O O O O O O O O O O O O O O O O O + + ",
"O O O O O O O O     O O O O O O O O O O O     O O O O + O + + O O O O O + @ % % % % @ + & % 4 6 =.F.K.!.y.z.5X=X0Xz.V m N H W.2X#.m h m G J.7X7XoX+.K Y.;X#XY.C g t 9 8 8 8 4 4 4 4 8 8 8 5 4 2 @ @ @ + O O O O + O O O + + + + O O O O O O O O O O O   O : : O ",
"O O O O O O O O     O O O O O O O O O O O O O O O O O + O + + + O O O + + @ % 8 % @ % @ @ % 4 h s.A.Y.6.D [ J.1X9XXXW V V F F.7XW m m c <.;X1X2Xt.M M J F.|.|.8.p g t t 6 5 5 4 4 4 8 8 4 4 8 2 @ @ < + + O O O + O O O O O O + O O O O O O O O   O O   O : : O ",
"O O O O O O O O     O O O       O O   O O O O   O O O O O O + O O       + @ % 8 % # @ @ @ 5 6 ( v.A.6.v V H E ~.wXtXv.b H F v.2X( m m c A.7X1XD.V m h m ( R. XD.V m g g t 6 5 5 4 4 4 8 8 4 8 2 @ @ @ @ + + + O O O + O O O O O O O O O O O O O   O     O O = = ",
"O O     O O O O   O O O O           O O O O O   O O O + O O + O O     O + @ % 8 % % % @ % 5 g 4.B.h.b h g h c y.1XtX XW J J v.,X( m N o.}.$X.XO.u s q g p a._.T.,.c h g t r 9 9 5 4 4 8 8 5 8 @ @ @ @ @ + + + O O O + O O O O O O O O O O O O O O O O O : O O O ",
"O       O O O O   O O O O O O         O O O O   O O O O O O O O O   O O + @ 3 8 8 % 4 % 5 6 Z t.j.( p g t s i K T.rXrXy.E E y.>XO.V V z.#X;Xn.m s 5 5 9 g K G.I.m.O.m m g k 9 9 5 4 5 9 8 5 8 @ @ @ @ @ + + + O O O + O O O O O O O O O O O O O       O O O     ",
"                      O O O O         O O O O + O O   O   O O O O   O O + @ % % % 4 4 5 6 d _ 7.3.h g u s t w c y.7XrX!.| [ 4.>X,.F } Y.@X(.R g 9 4 4 5 s m ;.m.B.m.#.C m p i j 9 9 5 9 9 9 8 @ @ @ @ @ O + O O O O O O O + O O O O O O O O O O       O O       ",
"                        O O O         O O O O O O O O O   O O O O   O O + @ % 4 % 4 6 5 h _ =.2.Z u s 6 t r 6 p D _.8X8Xz.[ 4.@X<.J y._.oXx.p k 4 % # % 6 g m 2.d.c.m.a.2.O.#.%.u s 9 9 9 9 8 @ @ @ @ @ @ @ + O O O O O O O O O O O O O O O O O O O = = O   O O ",
"O                 O     O O O         O O O O O O O O O   O O O O   O O + @ % t y 6 s j P _ *.Y i t t 9 9 8 9 u a z.9XrX!.| r.:X:.1._.@X}.#.m 9 % % @ # 5 s g V O.5.f.c.l.s.l.3.i s 9 t 9 6 8 @ @ @ % @ @ < O O O O + O O O O + O O O O O O O O O O = = = X O O ",
"O O                   O O O O O       O O O O O O O O O O + + + O   O O + @ % y k j L P P T U g w 9 9 5 8 8 8 s u o.:X9X#X9.r.P.| b.`.XXF.J m 9 3 % & @ 8 9 k u h m A &.3.3.&.B t 9 9 y t r 8 @ 2 @ 2 2 + O O O O O + + O + + + O O O O O O   O O O O   O     O ",
"O O O O O O O     O     O O + O O     O O O O O O     O O + + + O O O O + % 4 5 r s k j j s 6 9 8 8 8 8 8 8 9 9 s v F.pX8Xi.1.e.:.{.}._.r.H m 9 8 % & @ 4 9 s s s w 6 d B B h w 5 8 9 t t t 8 % % 2 2 2 @ @ O O O O + O O O O O O O O O O O   O         O       ",
"    O O O   O         O   O O O     O O   O O O O     O O + + + O O O O + % % 4 5 8 5 5 5 5 5 5 5 8 r 8 5 5 9 6 y h 4.7X9X'.1...p.@X@XY.+.A g 6 8 % @ % 4 r t t 9 9 4 % 4 9 g g 6 9 9 t r 9 8 2 % % 2 2 + @ O O O O O O O + O O O O O O O O O O O O O O O O O O ",
"O O O O                   O O O         O O O O O     O O + + O + O O O + @ % 4 5 5 4 4 5 4 8 8 4 4 8 8 9 9 9 5 t N E _.5X5Xp...N.%X XS.,.A h 5 8 % @ $ 4 t t t 9 8 4 7 8 9 s s 5 9 9 t 9 9 8 2 % % % 2 @ + + + O O O O + O O O O O O O O O   O O O   O O O O O ",
"                          O O         O O O O O O O   O O O + O O O O O + @ % % 8 3 @ % % % 8 3 % 4 8 8 9 9 8 8 9 g C F.%X5XJ.X.E.%X_.z.o.A g 9 8 2 @ $ 4 r t t t 8 % % % 8 s s 8 9 r 9 9 9 8 @ % % 7 2 @ @ + + O O O O + O O O O O O O O O O O O O O   O O O O ",
"O O O O O     O O O     O O O         O O O O O O O O O O O + O O O O O + @ @ @ 3 2 & @ 2 2 2 2 3 4 8 8 9 8 8 8 8 g v A.5X9X].p.OXOXL.z.H A u 6 8 2 2 2 4 9 t t 9 8 % $ % 8 s 9 8 8 t 6 9 t 8 % % % % 2 < < + + O O O O + O O O O O O O O O O O O O O   O O : = ",
"      O O O O O O O O O O             O O O O O O O O O O + + O O O + + + 2 @ @ 3 % @ @ @ @ 2 2 3 4 8 8 9 9 8 4 4 t c u.%X9X$XZ.OX[.K.y.V Z g 6 8 3 2 7 8 9 t r 8 4 % 2 % 8 s 9 8 8 r 5 9 t 9 % % 2 7 2 @ @ + + O O O O + O + O O O O O   O O O   O O     O O O ",
"          O O O   O O O O           O O O O O O O O O O + + + + + O O + + 3 2 2 2 % % % @ @ 2 2 8 % 8 8 6 t 9 4 % r h +.'.qX=X).%X'.K.6.C B t 6 r 8 4 % 8 9 t t 9 8 8 8 4 9 y 9 9 9 r 8 9 r 8 4 7 7 2 % @ @ + + O O O O + O O O O O O O     O O   O O O   O O   ",
"                  O O O         O O O O O O O O O + O O + + + @ @ O O + @ 8 % % % % % % @ @ 7 3 % 4 8 8 9 y t 8 % r h W }.qX5X&X%X].J.@.N j s 6 t 9 8 4 8 9 r r 8 5 4 8 4 9 s t 9 9 9 4 % 4 4 8 8 2 2 2 < < @ + O O O + + + O O O O O O O O O O O O O O O O O O ",
"                O O O O         O O O O O O + O + < + O + + + + + O O @ @ % % % % % 2 2 @ % 2 % % 8 8 8 9 y y 8 % 5 g V D.tX6X*X XK.S.} p 6 6 6 t t 8 4 5 5 6 r 9 5 4 4 4 9 s s y 9 8 + O @ $ 8 4 3 % % @ @ + O O O O + + O O O O O O   O       O O O   O O O O ",
"O O O O O O O O O O O     O     O O O O O O + + + + + O + + @ + + O + 2 2 % % % % 2 8 2 2 2 2 2 3 4 8 8 9 r t 8 4 5 u m 4.8X6X*X_.K.i.R h 5 9 6 t t 9 5 5 6 r r 9 8 4 4 5 t s s s 9 8 + + + @ 7 4 8 % % @ + + O O O + + + O O O O O O O O     O O       O O O   ",
"O O O O O O O O O O O O O O O O O O O O O O 2 + + + O O + + + + + + @ 8 8 8 8 % % 8 % % 2 2 2 2 2 4 8 5 5 9 t 8 8 5 w h H z.[.5XS.Z.6.` h 5 8 5 s k 9 8 5 6 6 6 9 r 4 5 5 9 s s t 9 8 + + + @ 7 4 % 8 % @ < + O O O + O O O O O O O O       X : O O   O O O O O ",
"    O O O O O     O O O O O O O O O O O O O 2 O @ 2 O O + + O O + O @ 9 4 @ 2 2 2 2 7 % 2 2 % % % 5 9 8 5 8 y 5 4 5 r d N b y.E.@.$.H ( Z 5 8 % 8 s 9 9 8 8 6 9 9 9 9 9 9 t t s s 9 7 + O + % 4 4 % 8 2 @ @ + O O O + O O O O O O O O     O O O         O       ",
"    O O O O O O O O O O O O O O O O O O O + 2 + @ 3 + O + + + + < O % 9 % O + % % % 4 % % 2 3 % 8 4 8 4 8 9 9 9 4 4 8 y d N R #.C V m A g 4 2 % 4 t s t 8 9 9 9 9 9 9 r 9 t t s s 9 2 O O + % 4 8 4 3 2 < < @ + + + + + + O O O O O O O O O         O O O   O   ",
"    O O + O O O O O O + + + + + + + O O + # % @ @ 3 # + & @ + + + + % 9 4 # + @ # % 8 % % 7 3 % 4 4 8 8 8 9 9 t 5 5 8 8 9 s h m m i g j t $ % % 4 t s t 4 8 9 6 9 9 9 t 9 t t s s 9 8 O O + @ 4 8 % 4 % @ < @ + + + + + + + O O O O     O       O O     O O O O ",
"    O + +   + O O + + + + + + + + + O + + # 4 # # 5 # + @ @ # # @ + % t 5 $ @ @ % % 8 % % 7 4 4 4 5 8 8 8 9 t t 5 5 8 8 5 5 t s s s t 5 4 $ % % 4 9 t t 4 5 6 6 9 9 r t 9 t t s s 9 8 O O + @ 4 8 8 4 % 2 % & + + + + + + + + O O O     O               O O O O ",
". + + + + + + +   + + + + + + + + + + + + # % $ % 5 % # # # # % % # 4 t 5 $ $ % % % 8 4 4 4 4 4 5 5 9 8 5 9 t t 5 4 5 5 5 5 5 r 9 9 r 4 % % % % % 9 t y 5 8 9 9 9 9 t t 9 9 t s s 9 8 O O + @ 8 8 8 4 % 2 2 2 + + + < + + + + + O O O O O               O O O O ",
"+ + + + + + + + . . + + + + + + & & + & # $ 8 % 4 r % + + % 5 4 5 % 5 t 5 % $ % % % 4 % 4 4 8 % 4 5 9 9 5 8 r 9 4 4 4 5 8 8 8 8 4 5 8 4 2 7 4 % 4 9 y 9 8 9 t 9 9 t t t t 6 9 t t r 4 # + + @ 8 8 8 % % 2 @ @ @ + + + + + + O O O O O O O O               O O   ",
"+ + + + + + + + + + + + + + + & & @ @ % % % 8 4 5 r @ + # 4 5 6 6 5 6 t 5 # $ % % % 4 4 % % 8 8 5 5 r 8 8 5 r 8 % % % 8 8 5 5 4 8 8 8 8 2 8 4 % % 8 8 9 5 9 r 9 9 9 t t t 9 9 t t 9 5 % @ & @ 7 8 8 % % 2 @ @ < < @ + + + + O O O O O O O O                 O O ",
"+ + + + + + + + + O O O + + + + @ @ 2 3 % % 8 4 5 r % + @ 5 r r t 9 r t 5 # $ % % % 8 % % 8 8 8 5 6 9 8 8 5 8 8 % % 4 4 4 4 4 4 % 4 8 3 % 2 8 % % 2 8 8 5 5 5 9 9 9 t t t t 9 9 9 8 8 8 % + @ 7 4 8 4 % @ @ @ < < @ @ + + + O O O O O O O   O O     O O       O ",
"+ + + + + + + + O O O O + + @ @ @ @ 2 3 % % 8 4 8 r % @ @ 8 r r t r t t 5 % $ % @ 8 8 3 % 8 8 8 5 6 6 9 9 5 5 8 4 4 4 4 8 5 5 4 % 4 8 % @ @ 2 @ @ 2 8 4 4 5 5 5 5 9 9 t 9 9 5 5 5 4 4 4 2 @ @ % % % 4 % @ @ @ @ @ @ @ @ + O O O O O O O       O     O O         ",
"+ + + + + + + + O + O O + @ @ @ @ @ 2 % 4 4 8 4 8 r 4 % 2 8 r 9 9 9 r t 5 % % % % % 8 8 8 % % % 5 5 6 8 r t 5 8 8 8 8 4 8 r 8 4 % % 5 3 @ + + + @ @ 2 8 4 4 8 5 5 9 r t t t 5 5 5 4 4 % % 2 2 % % % % % @ @ @ @ < < < @ + O O O O O O O O O O O O O O O O     O ",
"O O O O O O O O O @ O O O + @ @ % % % 4 4 4 8 4 8 9 4 % 5 9 r r 6 9 r r 8 % % % 4 4 8 8 8 8 % 4 4 5 5 6 6 t 5 5 8 8 8 5 8 r 8 5 % 4 4 8 @ + + + + @ 2 8 8 8 5 5 9 t t y r 9 5 5 8 4 4 9 9 8 8 4 % 4 4 @ + @ @ @ % @ @ @ + O + O O O O O O     O O O O         O ",
"O O O O O O O O @ @ O O + + + @ % % 4 4 5 5 8 4 9 9 4 4 5 r r r w t r 9 8 5 % % 4 4 5 8 8 8 4 4 8 5 5 6 6 t 5 5 5 5 5 4 8 8 8 4 % % 3 8 @ + + O < < 2 % 8 8 5 5 9 9 t y r 9 5 5 4 4 8 r t 9 4 4 % 4 % @ O + + @ 2 @ @ @ + O O O O O O O O O       O O           ",
"O O O O O O O O @ @ + + + + @ @ % % 4 4 5 5 8 5 9 9 5 5 6 r t r t t r r 5 8 4 4 4 4 4 4 8 8 4 4 4 5 5 6 9 t 6 5 4 4 5 4 4 5 5 4 % % % 8 @ + + + < < @ % 8 8 5 9 9 6 9 9 9 5 4 4 4 4 5 r 9 9 4 4 4 % % @ O + + @ 2 2 @ @ + + O O O O O O O O O O O O O           ",
"O O O O O O O + O + + + + + @ @ % % 4 4 4 8 8 5 9 9 9 6 6 r r r t w r r 5 5 4 4 4 8 4 4 5 8 4 4 4 5 9 6 9 r 5 5 4 5 5 4 4 5 4 4 4 4 % 2 @ + + @ < @ < % 8 8 8 r 9 9 9 9 8 8 8 5 4 4 4 9 9 9 5 4 4 % % @ O + + @ 2 2 % @ + + O O + + + O O O   O O O O   O O O O ",
"O O O O O O + + + + + @ + @ @ % % % 4 4 8 8 5 5 9 9 9 6 6 r 9 9 t w r r 5 8 4 4 5 5 5 5 4 4 5 5 4 5 9 6 9 9 5 4 4 4 4 4 8 5 4 4 4 4 % 2 % @ + @ @ @ @ @ 3 8 8 9 9 9 9 9 5 5 8 8 8 4 8 9 9 9 5 4 % % % % + + + @ 2 2 % @ @ < + + + O O O O O O O O O O O O       ",
"O O O O + + + & + # + @ @ @ % 4 4 4 5 5 5 5 5 6 9 6 6 6 9 r r 9 6 6 r r 5 5 4 4 8 5 4 5 4 5 4 5 4 5 9 5 5 5 5 4 4 4 4 4 8 4 8 4 4 4 % % % @ @ @ @ @ @ @ 2 8 8 8 9 9 8 5 8 8 4 7 8 4 8 9 9 9 8 4 % % % % @ @ + @ 2 @ @ < @ + + + + O O O O O O O O     O O       ",
"O O O O + + + & + # @ @ % % 4 % 4 4 5 5 6 6 6 6 9 6 6 9 9 9 r r 6 6 6 9 5 4 5 8 r 5 5 4 4 4 4 4 4 5 5 5 5 5 8 4 % % % 4 8 4 4 4 4 4 % % 4 % % @ @ & + @ 2 8 8 8 5 8 8 5 8 8 4 % 2 % 8 8 8 9 8 4 % % % % @ @ @ @ @ @ @ @ + @ + + + + O O O O   O O     O O O   O ",
"O O + + + + + & & @ @ % % % % % 4 5 5 5 5 5 5 5 6 6 5 6 5 9 5 8 6 6 5 6 9 5 5 5 5 5 5 % 4 4 4 4 4 5 5 5 5 5 5 4 4 8 4 4 4 5 5 5 4 4 4 4 7 4 4 % 2 @ @ @ % 3 8 8 5 8 8 8 8 8 4 % $ % 7 4 8 8 4 4 % % % % @ @ 2 @ @ + + + @ @ + @ + + O O O O   O O O O O O O O O ",
"O + + + + + + @ & @ @ % % % % % 4 4 5 5 5 5 5 5 5 5 5 5 8 8 5 5 5 5 5 5 5 4 4 5 5 5 5 4 5 5 4 4 4 4 4 4 4 5 9 5 5 5 5 5 5 5 5 5 4 4 4 4 4 5 6 4 % $ @ @ $ % 8 4 8 9 8 8 8 5 4 % 2 7 7 4 8 8 4 % % % % % @ @ @ @ @ @ < < + @ + + + + O O O O   O     O O O O O O ",
"O + + + + + + & + @ @ % % % % 4 4 4 4 4 5 5 5 8 5 5 5 5 8 5 4 5 5 5 6 6 5 4 4 9 5 5 5 5 5 5 4 5 4 5 5 4 4 5 9 6 5 5 5 9 6 6 6 6 5 4 4 4 5 6 6 4 4 $ @ $ $ % 4 4 4 8 7 4 4 5 4 % 2 $ 2 7 % 4 4 % 4 % % % @ % @ @ 2 @ @ + < @ + < + + O O O O O O     O O O O O O ",
"+ + + + + + & # & @ @ % % % % % % 4 % 4 4 4 4 4 4 4 4 4 4 4 4 4 4 5 5 4 4 4 4 4 4 4 4 % % 4 4 4 4 4 5 4 4 4 5 8 4 5 5 5 5 5 5 5 5 5 4 4 5 4 5 4 4 % @ @ @ $ % % % % % % 4 8 4 % % 7 7 2 % % 4 % 2 % % % @ @ @ @ 2 @ 2 @ < @ @ @ + + + O O O O O   O O O   O O   ",
"+ + + + + + # # @ @ @ % % % % % 4 % % % % 4 5 4 4 4 4 4 4 4 4 4 4 8 8 % % % % % % % % % % % % % 4 4 4 % % % 4 4 % 4 4 % % % 4 4 4 4 4 4 4 % % % % % @ @ @ @ % % % % % % % 2 8 4 4 4 8 4 % % % % % % 2 2 @ @ @ @ 2 2 2 2 @ @ @ @ + + + O + O O O   O O O O O     ",
"& + + + + & @ @ @ @ % % % % % % % % % % % 8 5 4 4 % % % % 3 % % % 8 8 % 3 % 4 8 % % % % % % % % % 4 4 % % % % 4 % % % % % % % % % % % % % @ @ @ @ @ @ @ @ @ @ % % % % % % 2 7 7 4 8 8 % % 2 % % % % % % @ 2 @ @ 2 2 2 % @ @ @ @ + + + O O O O O O O   O O O     ",
"+ + + & & & @ # @ @ % % % % % % % % % % % 4 4 % 4 % % % % % % % % % % % % % % % % % % % % % % % % % % @ @ @ % % % % % @ @ % % @ @ % @ % % @ & + & + + < < + @ @ % % 2 2 @ 2 7 % % 8 3 % % 2 % % % % % % @ 2 @ @ 2 % % % 2 % @ @ + + + O O O   O O O             ",
"+ + + + # & + + @ @ % % % % % % % % % % % % % % % % % % % % & @ @ % % % % % % % % @ @ @ % % @ % % % % @ @ @ @ @ @ @ @ @ @ & @ + + @ @ @ @ + < + + + + + + + @ @ @ $ % @ @ @ 2 % % % % @ @ @ @ @ 2 2 % % @ @ % % @ % 2 % % % @ @ + + + O O O   O O O   O     O   ",
"+ + + + + & & & @ # @ % % % # # @ % % % % % % % % % % % & & & @ @ @ % % % % % @ @ @ @ @ # @ # % @ @ @ @ @ @ @ @ & & @ + + + + + + & & & + + + + + + O + + + @ @ @ @ @ @ @ @ 2 2 % % 2 @ @ @ @ @ % 2 % % @ @ @ @ @ @ % % % % @ @ @ + + O O O O O O     O O O O O ",
"+ & + + + + & # # # & # $ % % % % % @ @ % % % @ @ @ @ @ & & + & @ @ % % 2 2 @ @ & & & # # # # # & & @ @ @ & & @ + + + + + + + + + + & + + + + + + + O + + & @ & @ @ + + @ @ 2 & & 2 < < @ @ @ @ @ @ % @ @ @ + @ @ @ @ @ % % % @ @ + O O O O   O   O O   O O O O ",
"+ & + + + # & & & & & & $ $ @ $ % % @ @ % % % @ @ @ @ @ & & + + + @ @ % % % @ + + + + + # # # # @ & @ @ @ + & & + + + + + + + + + + + + + + + + + + O + + + @ & + + + + + @ & & & < @ @ @ @ @ + + & @ @ & + + @ @ @ @ % % % @ @ @ + + O O O O O O O O O O O O O ",
"+ + + & & & & & + + & & & & & # $ @ & & & & & @ @ + # @ & & & & & + # @ # & + + + + + + & & & & & & & + & + + + + & + + + + + + + + + O + + + + + + + O + + @ + + + + + + @ @ @ @ @ @ @ @ @ @ + + + + + @ + + + @ @ @ @ @ @ @ @ + + O O O O O = O O O O O O O O ",
"+ & & & & & & & + + & & & & & # $ % & & & & & & & + & & & & & + & + & & & + + & & + + + & & & & & & + + & + + + + O O + + + O O + + + O + O + + + O O + + + @ + + + + + + + + + @ + + @ + @ + + + + + + + + + @ @ + + # @ @ & @ + + O O O O O = O O O O O O O O ",
"+ & & & & & & & + & & & & & & & & & & & & & & & & & & + & & & + & + & & & & + + + + + + + + + + + + + + + + + + O O + + + + + + + + + + O O O O O O O O + + + + + + O + + + + + + + + + + + + + + + + + + + + + @ + & & @ @ & & + + + O O O       O O O O O O O ",
"+ + + + + + + & & & + + + + + + & + + & & + + + + + + + & & & + + + + & + & + + + + + + + + + + + + + + + + + + + + + + + + & + + + O + O O O + + + + O O O O O O O O + O O O O O + + O + + + + + + O O O + + + + + @ @ @ @ & & @ @ @ < < O                   O ",
"& + + + + + + + + + & & & + & & & & + + + + + + + + + + & & + + + + + + + + + + + + + + + + + + + + + + + + + + + + + + + + + + O O O + + O O O + + + O O + + O O O + + O O O O O O O O O O O O O O O O + + + + + & @ @ @ @ @ @ @ @ @ < + O                 O O ",
"+ & + + + + + + + + + + & & + & & + + + + + + + + + + + + + + + + + + + + + + + + + + + + + + + + + + + + + + + + + + + + + + + O O O O O O + + + O O O O O O + + O O O O O + O O O O O O O O O O O O O O O O O + + @ @ @ @ @ @ @ @ @ < + O       O         O O ",
"+ + + + & & & + + & + + + + + + + + + + + + + + + + + + + + + + + + + + + + + + + + + + + + + & + + + + + + + + + + + + + + + + + + + + + + + O O O O O O O O O O O O O O + + O + O O O O O O O O O + + + + O + @ @ @ & & & @ @ @ @ < < O O       O O       O O ",
"+ + + & & & & & + + + + + + + + + + + + + + + + + + + + + + + + + + + + + + + + + + & + + + + + + + + + + + + + + + + + + + + + + + + + + + + O O O O O + + + O O O O O + + + + + O O O O O + O O O + + + + + + @ @ @ & + & @ @ @ @ @ + O O       O           O "
};
