/* XPM */
static const char *morte_SO[] = {
/* columns rows colors chars-per-pixel */
"128 128 243 2 ",
"   c #000000",
".  c #010101",
"X  c #020202",
"o  c #030303",
"O  c #040404",
"+  c #050505",
"@  c #060606",
"#  c #070707",
"$  c #080808",
"%  c #090909",
"&  c #0A0A0A",
"*  c #0B0B0B",
"=  c #0C0C0C",
"-  c #0D0D0D",
";  c #0E0E0E",
":  c #0F0F0F",
">  c #101010",
",  c #111111",
"<  c #121212",
"1  c #131313",
"2  c #141414",
"3  c #151515",
"4  c #161616",
"5  c #171717",
"6  c #181818",
"7  c #191919",
"8  c #1A1A1A",
"9  c #1B1B1B",
"0  c #1C1C1C",
"q  c #1D1D1D",
"w  c #1E1E1E",
"e  c gray12",
"r  c #202020",
"t  c #212121",
"y  c #222222",
"u  c #232323",
"i  c #242424",
"p  c #252525",
"a  c gray15",
"s  c #272727",
"d  c #282828",
"f  c #292929",
"g  c #2A2A2A",
"h  c #2B2B2B",
"j  c #2C2C2C",
"k  c #2D2D2D",
"l  c #2E2E2E",
"z  c #2F2F2F",
"x  c #303030",
"c  c #313131",
"v  c #323232",
"b  c #333333",
"n  c #343434",
"m  c #353535",
"M  c #363636",
"N  c #373737",
"B  c #383838",
"V  c #393939",
"C  c #3A3A3A",
"Z  c gray23",
"A  c #3C3C3C",
"S  c #3D3D3D",
"D  c #3E3E3E",
"F  c #3F3F3F",
"G  c #404040",
"H  c #414141",
"J  c gray26",
"K  c #434343",
"L  c #444444",
"P  c #454545",
"I  c #464646",
"U  c #474747",
"Y  c #484848",
"T  c #494949",
"R  c #4A4A4A",
"E  c #4B4B4B",
"W  c #4C4C4C",
"Q  c #4D4D4D",
"!  c #4E4E4E",
"~  c #4F4F4F",
"^  c #505050",
"/  c #515151",
"(  c #525252",
")  c #535353",
"_  c #545454",
"`  c #555555",
"'  c #565656",
"]  c #575757",
"[  c #585858",
"{  c #595959",
"}  c #5A5A5A",
"|  c #5B5B5B",
" . c #5C5C5C",
".. c #5D5D5D",
"X. c #5E5E5E",
"o. c #5F5F5F",
"O. c #606060",
"+. c #616161",
"@. c #626262",
"#. c #636363",
"$. c #646464",
"%. c #656565",
"&. c #666666",
"*. c #676767",
"=. c #686868",
"-. c #696969",
";. c #6A6A6A",
":. c #6B6B6B",
">. c #6C6C6C",
",. c #6D6D6D",
"<. c #6E6E6E",
"1. c #6F6F6F",
"2. c #707070",
"3. c #717171",
"4. c #727272",
"5. c #737373",
"6. c #747474",
"7. c #757575",
"8. c #767676",
"9. c #777777",
"0. c gray47",
"q. c #797979",
"w. c #7A7A7A",
"e. c #7B7B7B",
"r. c #7C7C7C",
"t. c #7D7D7D",
"y. c #7E7E7E",
"u. c #7F7F7F",
"i. c #808080",
"p. c #818181",
"a. c #828282",
"s. c #838383",
"d. c #848484",
"f. c #858585",
"g. c #868686",
"h. c gray53",
"j. c #888888",
"k. c #898989",
"l. c #8A8A8A",
"z. c #8B8B8B",
"x. c #8C8C8C",
"c. c #8D8D8D",
"v. c #8E8E8E",
"b. c #8F8F8F",
"n. c #909090",
"m. c #919191",
"M. c #929292",
"N. c #939393",
"B. c #949494",
"V. c #959595",
"C. c #969696",
"Z. c #979797",
"A. c #989898",
"S. c #999999",
"D. c #9A9A9A",
"F. c #9B9B9B",
"G. c #9C9C9C",
"H. c #9D9D9D",
"J. c #9E9E9E",
"K. c #9F9F9F",
"L. c #A0A0A0",
"P. c #A1A1A1",
"I. c #A2A2A2",
"U. c #A3A3A3",
"Y. c #A4A4A4",
"T. c #A5A5A5",
"R. c #A6A6A6",
"E. c #A7A7A7",
"W. c #A8A8A8",
"Q. c #A9A9A9",
"!. c #AAAAAA",
"~. c #ABABAB",
"^. c #ACACAC",
"/. c #ADADAD",
"(. c #AEAEAE",
"). c #AFAFAF",
"_. c #B0B0B0",
"`. c #B1B1B1",
"'. c #B2B2B2",
"]. c #B3B3B3",
"[. c #B4B4B4",
"{. c #B5B5B5",
"}. c #B6B6B6",
"|. c #B7B7B7",
" X c #B8B8B8",
".X c #B9B9B9",
"XX c #BABABA",
"oX c #BBBBBB",
"OX c #BCBCBC",
"+X c #BDBDBD",
"@X c #BEBEBE",
"#X c gray75",
"$X c #C1C1C1",
"%X c #C2C2C2",
"&X c #C3C3C3",
"*X c #C4C4C4",
"=X c #C5C5C5",
"-X c #C6C6C6",
";X c #C7C7C7",
":X c #C8C8C8",
">X c #C9C9C9",
",X c #CACACA",
"<X c #CBCBCB",
"1X c #CCCCCC",
"2X c #CDCDCD",
"3X c #CECECE",
"4X c #CFCFCF",
"5X c #D1D1D1",
"6X c #D4D4D4",
"7X c #D5D5D5",
"8X c #D6D6D6",
"9X c #D7D7D7",
"0X c #D8D8D8",
"qX c #D9D9D9",
"wX c #DBDBDB",
"eX c #DCDCDC",
"rX c #DDDDDD",
"tX c gray87",
"yX c #DFDFDF",
"uX c #E0E0E0",
"iX c #E2E2E2",
"pX c #E4E4E4",
"aX c #E6E6E6",
"sX c #E7E7E7",
"dX c #E8E8E8",
"fX c #E9E9E9",
"gX c #EAEAEA",
"hX c #EBEBEB",
"jX c #ECECEC",
"kX c #EDEDED",
"lX c #EFEFEF",
"zX c #F1F1F1",
"xX c #F4F4F4",
"cX c #F5F5F5",
"vX c #F6F6F6",
"bX c #F7F7F7",
"nX c #F8F8F8",
"mX c #FAFAFA",
"MX c #FBFBFB",
"NX c #FCFCFC",
"BX c #FDFDFD",
"VX c #FEFEFE",
"CX c white",
/* pixels */
". % . 7 [ c %XG . ].CXCX8.. g : . O O . . . O . h.... A c . O . . . . . O . s.W 4 L j : % % : 4 % % % % : : > 4 4 > : % % O O . . . . . . . O . . . . . . . O . . . . . . . : : > g O . . . . . O . . . . . . . 4 Z.Z . O . O . : q.% . . . O O . . O O O % % O ",
". O 4 g <.s 3.h.e O.zXqXG r e O . . . . . . . . 7 N.O % r . O O . . . . O . L _ . : G ..j 4 4 g 7 7 4 > . . . . . . . . O : % : : % % % O . . . . . . . . . . . . . . . . . . : O > 7 . . . . . . . . . . . . . . Z H.r . O . O . _ j . . . . O . . . O O O % O ",
". : g % r c _ jXE.O.h.8.H.N.4 O O . . . . . . O . 3.W . 4 O . . . . . . : . : s.% . O A u.-.A 4 O . . . O . . O 4 % . . . . O O % % 4 e r g s e 4 : O . . . . . . . . . . . . O > O r > . . . . . . O O % O . . . . G D.4 . O . . 7 [ . . . . . . O . . . O O O ",
". O : % : [ _ 4 b.MXxXfX(.%.: > % . . . . O . . . s q.. % O . O . . . . 4 % . <.j > Y c r c ) W j g 4 O . . . O > e O O O . . . . . . . . % 4 7 e r 7 : . . . . . . . . . . . . % : % 7 O . . O O . . O : : : O . O . Y j.% . . O . Z j . O . . . . . . . . . O ",
". . O > O g Y L G _ r r Y D.[ % O . . . . O . . O . 3.s . O . . . . . . : % . g [ e : . . . . % 4 Z L %.G g : . . . . O : O . O O . . O O . . . . O : : % O . . . . . . . . . . . : % : : . O . . . . . . . . . . . . . <.q.. O . . O ) g . O . . . . . . . O . ",
"% . . % : O > A ..-.7 . %.s.4 O . . . . . . . . O . L W . : O . . . . . : : % : O.e . O O O O . . . . % r G W -.G r : . . . . O O O % O . . O . . . . . . O O . . . . . . . . . . . : O : % % O . O . . . . . . . . . . . s.) . O . . : _ Z . O . . . O O O . . ",
"[ G O . % % > : 4 W r > 4 : . O . . . . . . . . O . > 8.. : % . . . . . O : : > g r . . O O . O O O . . . . . m A Y _ Y Z s > O . . O % . . . . . . . . . . . . O . . . . . . . . . . : % % O > O . . . . . . . . . . . . : b.m . . . . O _ _ . . O . . . . . . ",
"% ) ..e . . 4 : : : : O O : % O . . . . . . . O . O . ..4 : e . . . . . . > 4 s > j . O . O . O . . . O . O . . . . . > j L Y W A s > . . . O O . . . . . . . . O O . . . . . . . . . % O % % % > e % . . . . . . . . . O . r N.r . . . . . <.q.: . . O . O O . ",
". . > A Z g > O . O e 4 % : O O . . . . . . . . . O . j Z O Z O . . . . . : 7 Z % ) : . . O O . . . . . . . . . O O . . . . . O > e s m A s . . . . O . . . . . . . . . . . . . . . . . % % : . >  XY . O . . . . . O O . O . j b.7 . O . . . ) Z.L . . . . . . ",
"O O . . % r Z A A s O . . . O % . . . . . . e A r 7 . > ..O G > . . . . . . % L : Z c . . O O . . . . . O . . . . . . O O O . . . . . O r L _ c . . . % > O . . . . . . . . . . . . . . O % O . % Z s O % . . O . . O O . . O . Z q.: . O . O . g <.3.) g : . . ",
"O O . . O O . % g A Y G s % . . O O . . . . . H. X. O . W 7 A 7 O . . . . . . A r : q.. . . . . . . . . . . . . . . O . . . . . . . . . . . 7 W _ g . . O . . . . . . . . O O . . . . . . O % O . O e : O O . . O O . . . . . O . L q.O . . . O . . 7 G L G L c ",
". O . . O % . . . . O 7 A ) ..W : . . . O . : O.<.s . . s r j 7 % . . . . . . 7 j . ..g . . . . O . . O . . O . O . . . O O : : O . . . . . . . > ..%.7 . O . . . O O . . O . . . . . . . . O O O . e c O O . . . O . . O % % . O . Y u.> . O . O . . . . . % : ",
"O . . . . . . . O . O . . . s ) W G e O . . O O . O . . 7 c 4 > : . . . . . . O s . s %.. O . . . O O O O . O O . . % : O . % : : % O . . . . . . . r q.[ . . . . O % . . . . . . . . . . . . O . . . s e . . . . O O . % : . O O . . ) q.: . . . . . O O . . . ",
"> 7 7 % O . . . . . . O O > . . % s L _ Z e O . . O . . 7 _ > : > O . . . . O . > % . u.e . . . O O O O . . O . . O : O % 7 r e O O % : . . . . . O . O [ 3.: . . . . . . . . . O . . . . . . . . . . . s > . . . . . . . . > e . . O . Y P.Z . O O . . . . O O ",
"% % > 4 > > : % O . . . . > 4 O . . . : g A A c : . % 7 s [ s . : % . . . . . . O % . Y ... O . . O O O . % O . O O . > ) [ e [ O.> O : c : . . . . O O . A N.> . O . O O O O O O . . . . . . . . O . . > g O O . . . . . . % % . . O O . _  XY . . O . . O . . ",
". . . . . O : : : : % . . . % O . O O . . . : Z [ L c s O Z Y . > : . . . . . . . O . % b.> . . . O O . O > O O : . . W 8.r . Z q.) : . s > . . . . . . O . m b.> . . O O O O . . . % O . . . . . . . . . e g . . . . . . . . . . . . . O . Z H.O.% . . O O O . ",
". . . . . . . . O O % : : % O O . . O 4 > > > : 7 L ) : . e %.. % % . . . O O . . O % . O.8.. % O O O . : > . : 4 . L 8.r  XD.{.W N.O.O . . . . . . . . . O . W !.. . . . . . . . . O : . . . . . . . . O . c e . O . . . . . . . . . . . O . s P.P.c . O O % O ",
". . . . . . % > > % : % > > 4 s 7 e > : % O % % . O s L e O s.4 . . . . . . O O . O > . % E.r . . O O . : > O 4 > s <Xu.N.CXMXCX1X[ ].g O % . . . . . . . . O . 8.s.. O . . . . O O . % % . . . . . . . . . O A r . O . . . . . O . . . . . O . O ..].) . % % O ",
". . . . . . . O % : r r > % % % O % % % % . . . . . . % 4 s q.g . . . . . . . O % . j s . _ N.. O O : % : : O 7 % ..xX3.qXxXA 9XCXL [ j . % . . . . . . . . . O . b.W . . > 4 4 4 O . . % O . . . O . . . O . > Z O . . . . . . . . . . . O O O O . c D.3.4 . O ",
". . . . . . . . . . . O O . . . . . . . O O O O . . . . . . j ) . O O O . . O . % . g O.r . D.[ . % % % % % O O.A j.qX> c xXyXCX%.. j e . O O . . . . . O . . O . 4 !.7 . O O O . . . . O % . O . . . . . . O . 7 j . . . . . . . . O . . . O . O O . : u.!._ % ",
". . . . . . . . . O O . . . . O O . O O O O O . O . . . O . : j . . O O . . . . O O O _ [ 7 e {.s . % % % 4 e h.3.G !.A > +XCXyXs : r O . O . . . . . . . . . . O . _ j.. . O > O . . . . . O . . . . . . . . . . Z c . O . . . . . . . . . . . . . O . O Z N.8.",
". . . . . . . . . . O . . . O . . . . . . . . . . . O . . O . . . O O O . . . . O O . s O.A O Y E.: . O % g 7 4 Y g %XCXq.W j.[ H.u.: O O . . . . . . . . . . . . . . b.m . O O O . . . . . . . . . . O . . . . . O m 7 . . . . . . . . . O . O . . O O O . % Z ",
". . . . . . . . . . O . . . O . . . . . O . . . . . O . . . . . . . . . . . O O . O O . Y Y r . O.N.. . % 4 4 % G h.m -.1XCXCXyX<XO.. > O . . . . . . . . . O . . . . s u.. O : . O O . . . . . . . . . . . O O O . % ) 7 . . O O . O . . O O . O O O O O % O . ",
". . . . . . . . . . . O O . . O O . . . . . . . . O . . O . . . . . . . . . O O O O O . 4 _ 4 : . ..s.% . % 4 O g O.W j %.s.) _ [ h...% O . . . . . O . . . . . . . O . <.m . O O O . . . . O . . . . . . . O . O O . e A > . . . . . . . . O O O O O . O . . O ",
". . . . . . . . . . . O . . . . O . . . . . . . O . . O O . . . . . . . O O O O O O O O . c L . % . L h.s . % > % 7 [ u...L . % s.H.s O . . . . . . O . . . . . . . O . 4 _ . . . O O % O O . . O O . . . . . . . . . . O 7 % . . . . . . . . O O O O % . O % . ",
". . . . . . . . . . O O O O . . O O . O . . . O O O O O . . . . . . . . O . . O . . O . O . W s . % . g b.... O > O : m W -.4 s m 7 . . O . . . . O . . . . . . . . . . . m m . . . . . . O . . . . . . . . . . . . . O O . . . . . O O O . O O O . : : . % 7 O ",
". . . . . . . . . . O O O O . . . O . O . . . . . O O % O O O O . O . . . . O . O O . . O . : ..: . O . % <.h.g . 4 7 O % 4 % O . % O % . . . . . . . O O . . . . . . O . % _ : . . . . O O . . O O . . . . . . . . . . O : : : > O . . O . . O O . % O . . 7 % ",
". . O . . . . . . . O O . O O . . O . . . . O O . O . % % O . O O . O . . O . O . . . O . O . r [ . O O . . Z Z.q.7 . : > > e % % > % O . . . . . . . . . . O O O . . . . % j r O > : O O O O O O O . . . O . . . . . . . % : 7 Z L L e . . O O O O . . O . g 4 ",
". O 7 % O O O O O % % O . . . . . . . . . . . . . O . O % O O O O O . . . . . O . . O O . . O . A _ . O O O . > q. X%.% . O 4 % O O . . . . . . . O O O O . . . . . 4 j L [ ..c r A j > % % O . . . . . . . . . O O . . . . . . . : g ) G e . . . O . . O . 4 : ",
"Y [ _ L A s 4 : 7 > . . . . . . . O . . O . . . O . O . . O O O . O O . . . . O . . O . . . . O . Z m . O O O O . j N.].q.r . . . . . . . . . . . . . . . O r A <.D.N.%.) Z 7 O . . . . . . . O O . . . . . O O O . O . . O O O O . . . 4 m L g . . . . O . . . ",
"3.s.h.h.8.j.b.j.3.<.%...c 7 : . . . . . . . . . . . . . O O O O . . O O . O . O O O . . . . . . O . G A . O O % O . . g h.D.b.u.-.G r O . . O : 4 g _ 3.u.q.j.q.[ s . . . . . . . . . . . . . O . . . . . . . O % . . . . . . . . . . O O . : _ W > . . . O . . ",
". . . . . . O > r c L %.u.h.8.q.-.L s g c 4 : O O . . . . O O % O O O O O O O O . . . . . O . . . O . G L . . O O O O . . > j ..8.Z. X{.E.E.Z.P.D.N.q.) m g 7 . . . . . . . O . . . . . . O O . . . . . O O O 7 m A _ [ O.u.8.%.W s O . . . . . r ..A O . . . . ",
"O . O . . . . . . . . . . . O 4 m G s 7 r % O O O O . . O O O . O O O O O O O O O . . . . . . . . . O . Z O.: . O . O O O O O O O c m Y _ L A g e O . . . O > % O O . . . . . . . . O . . O . . . . % 7 7 A q.Z.H.N.u.L Z Z Y _ q.O.<.8.L c > . . > _ A % . . . ",
". . . . . . . O . O O O O . O . 4 _ O . . . . . . O . . . O O O O % . O O . O O . . . . . . . . . . . O . r _ m . . O O . . . O O 4 4 % : : 4 e 4 : % O O . . . . . . . . . . . . . . O . . . O . O O c s.P.[ e O . . . . . . . . . % g G %.8.[ e . 7 ) _ > O O ",
". . . . . . . . . . . . O . . . m L . O . O O . . . . O . O O O O O O O . . . O . . . . . . O . O O . O O . % A r . . . . . . O O % O O . . . . . . . . . . . . . . . . . . . . . . . . . O . % . > -.H.) % . . . . O O O O O . O . . . . . % L b.<.% 7 _ _ > % ",
". . . . . . . . . . . . . . . % [ % . . O O % . . . . . . O O O . O . . O . O O O . . . . O . . . O O . . O O . % > O O O O O O O O % O O . . . . . . . . . . . . . . . . . . . . . . . O O > > G Z.) O . . O . . . . . . O O % % O . . . . . . O ..D.j . s e . ",
"O O . . . . . . . . . . . O . L ) . O O O . . . O . O O O O O O . . . . . % O . . . . . . . . . . O O . O O O O O O O O O O O O O O O O O . . . . . . . . . . . . . . . . . . . . . . . O . e 8.8.7 . . O . . . . O . . % % . % % O O O . . . O . . g D._ . % % ",
"O O % O . . . . . . . . . . . h.7 . > . . . . . O . . . O O . . O . . % % O . . . . . . . O O . O . . . . . . O O O O O O O O O O O O O O . . . . . . . . . . . . . . . . . O . . . . . . W j.A . . O . . O . . . . . O O > m s c 4 . : > O . . > 4 . % s.O.. O ",
"G : . s e . O O . . % O O . Y s.. % % : % % O . . O O . O . . . . O > : . . . . . O . . . O . . O O O : e e 4 > % : O % % O O O O % O O . . . . . . . . . . . . . . . . . . . . O . . > q.s.: . O O O O O % O O % . O . O [ L . L %.> . j % . . % %...7 . %.-.. ",
"_ W . % : . . . . 7 r 4 . . E.c . % 7 : % % O O % O . . O . . . g G : . . O O . . O . . . : 7 : 7 4 > r c 4 4 > : : 7 4 7 r r % O O O % O O . . . . . . . . . . . . . O . . . O . . L h.Y . . O . O % % % % O : : O > O ) A 8.E.b.<.8.% . . . . r b.%.. O . [ ..",
"Y h.) . O . . . . 4 e 4 . Y j.. : 4 4 > : % O 4 > O O O O . . L _ % . . . . . . . . % > % e g s Y <.<.-.W Y W Z g r 4 4 s c e : : > % % % O . . O O . . . . . . . O . . . . . . 4 _ [ : . O O . O % : O O O O > % % % c %Xq.MXqXCXZ.h.A . O . . 4 : Z . . O O g ",
"H._ _ . % . . . . . % . % D.e . > 7 7 7 : % % 4 : % % O O . ..L . . . . . . . . O : % : e W (.<X<X1X-X!.P.E.P.H.E.{.P.j.3.%...W L e O . . . . . . . . . . . . . . . . . . . 4 A c c r . O . . . . % % % . . % > O 7 7 8.-XL aXb.jX3.j c . O . . . O . . . . O . ",
"r 7 r O % O . . . . O . q.%.. % O . . . . . : % % % % % O [ L . O . . . . O O . O g _ H.<X{.Z.Y e % . . . . . . : e g c L ..<.q.!.E.j.q.O._ Y c 7 > O O % % O O . O . O . : e 4 . % _ m . O O . O O . . O O O % O L <.%.N.. j.CX<X. r 4 . . . . . . . . . . . . ",
"4 e : . O . . . . O . G Z.. % O O % O O O O % O % % % O %.W . % O . . O O . % ) H.+XD.%.m % . . . . . O . . O . . . . . . . . . : r m Y ) ..8.8.<.G s G [ j 7 % O O . O O O . . . . . W ... . O O O . O O . O O r 4 G j 1X+XO.P.q.N.g O O . . . . . . . . . . . ",
"P.G O O . . . . . . 7 P.e O % % : : % O O O . O % O . Y ) . : : % O O . . Z  X X-.7 . . . . O O . . . . . . . . O O O % % O % % O . . . . . % g e 7 . % O . . . . . . . . . . O . . O . L <.: . % O O . O . . O > % g -.m Z.jXuX1XD.r > O . . . . . . . . . . . ",
"h.A : O . . . O . > N.m . % . . O O . O O O . % O . c W . % % : % % . > q.9Xj.: . . . O O . O . . . . . . . . . . . O O O O % : O O O O O % . e O.e . . . . . . . . O O . . O O . . % O . Y ].m . O O . . . O O O > : Z ..) ..e j j.-.: . . . . O . . . . . O . ",
"s.h.> . . . O . 4 b.Z . : O . . O O . O O . . % . e [ . O O O : : . G  X(.c . . O O . . . . . . . . . . . . . . . . . . O O O % % % . . O O O 7 ... . . . . . . . . . . . . . . . . O % O . j Z.%.. . O O O . O . % : % j ..<.> s ..e . . . . . O O O . O O . . ",
"_ e . . . . . c u.j . % O O : . . O O O O O O O : %.7 . O . O O . ..+X8.O . O O O O O O . . O . . . . . . . . . . . . . . % % % O O O O O . O [ e . . O . O % % O . . . . . O O . . O % : > . O %.h.m . . . O O O O O > > > e 4 % . % O . . . . . . . . . O : % ",
". O O O . O W O.: . % O O O O O . O O O O . O . O.L . O . O . O q.P.g . O O O O . . . . . . . . . . . . . . . . . . . . . O % O O . O O % . j -.. . . . O % % % . . . . . . . . . . O 4 e : O O . e <.<.m 4 . . . . . O % % : 7 % O O . : 7 e A G s e L ) j Z g ",
"% : O . m 3.m . : > O . . . . . O O . O % O . g O.. O . O . 7 D.s.O . O O O . . . . O : % O . . . . . . . . . . . . O O . O O O . O O O O . 8.m . . O O . . . . . . . . O . . % O . % : O . O O O . . r [ q.<.A j s 7 % O % : 7 r s L ..Y O.L Y G r > 7 > O O % ",
". . 4 ) [ > . : 7 7 O . . . . . O O O O O O O -.r . . O . j P.[ . . . . O . . O % % O : > > : O . . . . . . . . . . . . O O O O O . O O . j s.. O O > O . . . . . . . . . . . O % % . . . % % % O O O . . O e s Z W W W _ ) m c c r e > . . : % . O O . % 4 > % ",
"s G Y 7 . O % % % O O O . . . . O . O . O . Y Y . % O . G Z.c . O . O O . . . : > O . O % % % % % O . . . . . . . . . . O O . O O O O % . u._ . . % O . . . . O O O . . . . . . . % % O . O . . O O O . O O . O . . . . O . . . . . . . O O > r e > % : e e > O ",
"j 4 . O : : % O % O . . O O O . . . O O . 4 O.: % % . A (.e . % . O O . . O % % O 4 j c c j > O % 4 % . . . . . . . . . . . . O O % % . g ].: . . . % % . O . g W . O . O . O O . O O . . . . O O % O . O O > : O O : O O O O % O O . . . O . O : : > 7 7 : : % ",
"O O % : % % % % . . O O % O . . . . O % . Y Z % : . Z !.e . O . O : % . O O O . e [ <.j g s.O.r % O s L . . . . . . . . . O O O % O : . h.q.. O . > 7 O . . . O % O O . O O O . O O . . O O . O . . . O . O O . . . O % O O . . . . . O O O % : 7 e e % . . . . ",
": % O : % O O . . : : O . . . O . . O . 7 ..e 4 . s <XG . % O . % > % . : O . % ) h.c . O W h.) 4 . % e . . . . . . O . . . O % : % . s (.4 . . . . . . . . . . . % . . O O O O . . . . . . . O . . O O O . . . O . O % . . O % : 4 > > : > 4 4 4 : O . . . O . ",
". . . . . . % 4 7 : . . . . . . . . O . [ ) g O : E.3.. % O O . : 4 . % 4 : O A h.4 b.E.j.P.Z (.O.% O . . . . . . . O . . O O % % % . Z.-.. O O 4 7 e 4 % . O . % O . . . . O . . . . . . . . O . O O O % : % O % % 4 e 7 7 7 7 > : % O : 7 s s > . . . . . . . ",
". . O : 7 s r 4 : . . . O O . . . . . 4 3.G s . <.!.: . O O O O > > % 4 7 : Z -Xq.Y xXCXMXCXZ...1X) . % . . . . . . . O O % % % % . Y ].. . . O % % : : % O . O % . . . . . O . O . . O . . . . . . . . O % % % % > e r e % O O . O : 4 4 4 7 > O . . . . . . . ",
"> > 7 e 4 > % O . O . . O O O . . % . Y [ A . g %Xc . O O O O % > > O 4 7 % q.xX%.1XCXZ.8.CXjXG j.Y . : O . . . . . O O % % % % O : (.Z . . . . . . . . . . . : O . . . . . . O O . O O . : % . O . . . . . O O . O O O % O O O O O % % O O O % O . . . O . . . ",
": O O . . . . . . O O . . . O . . . % ..m 7 . N.<.. : % O . O . : : . 4 c >  XzXL O.xXE.j.CX{.s A Z % O O . . . . % % : % O . O . P.q.. O . . . . . . . . . % O O . . . . . . . O . O O . 7 > . O O O O O O O % O O O O % % % O . . O O O O % % O O O . . . . . ",
". . . . . . O O . . . . . . . . O . s G 7 . Z +X: . % : O . % O O : . [ E.c  XZ.% . -XCXCXjX> O j : . . O . . . . O % % O . % . Y E.O O . . O O % O . . . . O . . . . . . . O . % : . . : j > . O . . . O % % % O O O % : % % . O O O O O O % % % O O O . . . . ",
". . . . . . O . O O O O . . . O O . s 7 % . b.... % % : : O O O O r r Y h.m G %Xs.m %.fXfXN.A Z e % . O . . . . . O . O O 7 . Z H.7 . O . O % : O O . . . . O . . . . . . . O O O . r c e Y Z . O . . O O O % O : % O O % O O O O O O O O % O % % O O . . . . . ",
". . . . . . . . . O O . . O O O O O r : % c ].> % O % : : % O . % j s O c W m yXCXP.W q.s.[ 9Xj.s % % O . . . . . . . . O 4 c %Xm . % O . . . . . . . . . . . . O O . . . O O . > [ [ 4 . r Y . O O O O % % O % : : % % : : % % % % O O % % O O % % O . . . . . ",
". . . . . . . . . O O . . O O . . % > % . <.%.. > : : : : % % O % 4 4 % e -.s.s q.%XMXCXCX1X+X... > : . . . . O O . . O . e %XZ . O O O . . . . . . . . . . . . . . . . . O . c [ g . . . > O.. . . O O O % O O : % : % : : : : % % % : % % O O O % % % % O O . ",
". . . O . . . . . O O O O O . . . O O O 4 H.7 . % : % % : % : % O O 4 > O ) <.L g <.+Xh.j.u.q.O...4 : . . . . % % O O . m (.A . O . O : % . . . . . . O . . . O . O O . O . Z ) O . O O O O [ 4 O O O O O O O O O % : % % : : % > % % : O % O O O . O O O % % % ",
"O . . . . . . . O O O % % O O . O : % . _ u.. % : % % : % % % : : % % > O 4 A 3.3.%.G > . : b.%XW > . . . . . O % O . Y b.s . O . . O % > : . . . . . . . . . . O O . O . j G . O O . % O . G j . O O O O O % O O % : : : : : : % O O % % % O O O O O O O . O % ",
". . . . O . O . . O O O % O O . : 7 % . q.Z . % > % % % : : % % O % % % : % O s _ u.+XA O Z s.Y : O . . . . O O . e <._ O . O . . . O O . O O . O . . . . . . . % : . . > m . O . . . O O . Z m . O % O O O O O % % % % : % % : % % % O % O . . O . O % % O . . ",
". . . . O . . . O O O O O O O . 7 e . 4 s.O O O % % O % : % : % % % O . % % e O 7 e ..g > : : : O O O . . O . . m 3.Z . . . . . . . . O O O O . . . . . . . . . > % . . c : . . . . O O O . g ... O : % . . . . O O O % % : % % : : O . . . O . . . . O O % O O ",
". . . . . . O O . O O O O O O O g 7 . G -.. % O O % % : : % % % % % O . . O 7 > % : : % O O O : : % O . . . m %.) % . : > > O . . . . . O O O . . . . . . . . . : . . e g . O . . . . O O . g <.% . O O O O . O O . O % : : % O O . . . . O O O . . . . O O % O ",
". . . . . . . . . O O O O O O % G > . %.c . O O O % % : % : : % O . O O O O % : : 4 4 s e % : > : % . . s ..q.s . . % : % > % . . . . . O O . . . . . O . . . O % . . r % . . . % . . . O . r <.O . . . . . . . O . O O % % % % . . . O O O O O O O . . O O O O ",
". . . . . O . . . . O O O O O e _ O : -.O O . O O O % % % % % O O . . O O . . O O O O 4 4 O . . . O m ) <.Z . . O O O : % O . . . . . . O O O . . O O . . . . O % . : e . . O 4 > 4 . % . . c O.. . O . . . . . . . O . O : % O O . . O O . O . O % O O O O . . ",
"O . . . . . . . O O O O O O O m W . Z Y . O . . . O % : % % . . O O . . . O O O O O . . . . : g Z W [ j O . O . . O O % : % O O O . . . . O O O O O O . . O O s > . 7 r O O e [ ..[ 7 % O . [ L . O O . . . . . O . O O O % % . O O O O . O O O O O O . . . : 7 ",
"Z O . . . . O . . . . O O . : G G . W e . . . . . O O : % . . . O O O O O O O . . . . e A _ O...g % . . % O . . . . O O % % O . O % O . O . O O O O . O . O O Z.[ . g 4 O r s.].MX].G . O . <.s . . . . . . . . . . . . O O % O O . O . O % % % O . . e G ) L c ",
"j 7 . . . O O . . . O O . % : Z j O W O . O . . . . O O O O . . . O O . . . . . r L -.O.A s % . . O : . O % . . . . O O O % O % : : O O O . . O O O . O . O : g 4 . j O e [ s.<.xX..O O . e %.. . O . . . . . . . . . . O % O O . O . O O O . . : A <.) m e . . ",
". : O . O O O O . . . O O 4 : G e 7 G . O . . . . . . O O O . O O O . O > s ) O.%.G 7 . . . . % : : : O . O % . . . O . . % > > % O O O O . O O O O . O . . : O O 7 s . 4 Z q.!.1Xh.4 O . %.c . O O . . . . . . . . . . O % O . . O O O . . r [ ..Y 7 . . . . . ",
"j . O . O O O . O O % O O 7 O c 4 s s . . . . . . . O O O % O . . . : ..b.O.Y 4 . . . O O . O . % % . O O . % O . . . : r r > O . O O O O O O O O O O O O . > : . j e . % 7 G q.A -.g . g [ . O : O . . . O O . . . . . O O : s : O . . s _ ..A : . . O O O . . ",
"[ r O O . O . . O O O O : 7 . s : G r . . . . . . . O O O . . > j Y L A > . . . % % : O . . . . O O O O . O . O : 7 r r e : . O O O O O O O . O O O O O O . > O O g O . . . 7 m : > O % ) % . 7 4 . O . . . O . . . . O O . e e > . > ) O.A 7 > % O O . . . . . ",
"7 Z : > . . . . . . O O > e O > : W 7 O . O O . . . . . > m O.3.A 7 . . . . > 7 O : % . . . . . % % O . O : s m j r 4 % O O % % O O O O O O . . O O O . . O : % 4 c . O . . . O : . . _ s . r e . . . . . . . . . . . O O . O . % G O.W Z G e O . . . % > e j s ",
". m r r O . . . . . O % e 4 . . m ..4 7 . . . . . O s Y %...j % . . O % O % r > O % . O . . . O : 4 s g r r s 4 4 : O . . O % O O . O . O O O O O O . O . O % % e 4 . . . . O O . % G s . s c . . O . . O O . . O O O O O O . 4 _ G m c e . . : c -.s.N.j.u.j.%.",
". > m g 4 . . . . O . O e 4 O . _ Z : Z g 7 : : G _ G e O . . . O O O . O e % . . . . . . % r r e r s 7 O . O O O O . . O . O % O O O O O O O O O O O O O O O : e O . . . O . . g <.s O c r O O O O O O . O O O O % O O O . 4 g : : : . . Z N.H.j.q.A 7 : O . . ",
"O . s e : O . . . . . . r > O % j.7 . : r m O...W 7 O . : > % O . . O O % % . . O O % > > > 7 : % . . O O O O O O O . . . . O O % O O O . O % O % O O O O O O s g . O . . . > L %.s e c 4 O % O O O % O O O O O % O O O . : > . O . . G H. Xu.j O . . . . . . . ",
". . 4 c % : . . . . . . 7 4 . c N.. O . O A Y s O : 7 e 7 7 r 4 O . . . . . O % : % % % % % % . . O . O % O O O O O O . O O . O O O . . O O O O O O O O O . % A r . . % 7 L L 7 7 j e O % % % O O O . O O O O % % % . % O O O . . m !.E.) : . . . O . O O O O . ",
"O % 4 Y 4 O O . . . . . % : . ..<.. . s O.A > % O % 4 > : % : O % > 4 r s g s e > : % % : > : : : O . . O O . O O O O O O . O O O O . . . O % % O O O O O . > 4 s g 7 j g 4 . . > O . O % % % % O O . . O % % % O O 4 : . O . e b.(.W O . . O O O . . O . . . . ",
"j Z : r L . O . . O . . O : . u._ > r ) e O O O O O O O O % > > 4 r e g j e > : % : 7 s e e > % O O . . O O O O O . . O . . . O O . . . . O O O O O O % O : W _ [ g s j 7 % O O . . O O O O O O % O . O O O O > > g 4 . . . W H.[ O . O O O . . O O O . . . O O ",
"O 7 s > %.> . . . . . . O % : D.[ j : . O O O O O . O O . O O O . . . O > : . : 7 j m r % O . . . . . . . O O . . . O . . . O % O O O O . . . % % O O % O 7 g > : % > % . . . O O . . % O % O O % O O . O % : g _ r . . 4 h.q.: . . % O . . . O % O . . O O : : ",
". . . . r s . . O . . O O . j j.. . . % % O % % O % O O O O . . . O O % O O O O O . . . . . . . . . O . . . . . O . . . . . . O O O O . . . O % O O % % % O . O : O . . . O . . . . . % % O % O O O . % : : g _ g . . m j.Z . . O O O . . . . : : % . % O O O . ",
"O . . . . O . . . . . O : . L W . % O O % O O O O % O O O O O . . O O % % O O O . O O . . . . . . . . . . . . . . . . . . . . . O O O . . O . O O O O % % O O O O . . . O O . . . O . O O O O . O . % 4 : j _ r . 4 O.[ 4 . O . O O O O O . O > : . % > . . : 4 ",
"O . . O . . . . . . O O % O e % O O O O O O O O % : O O O . O . . O O O % O . O O . . . O O . O . O . . . . . O . O O . . O . . . O . . . . . . O O O O O % O O O O O . . O . O O . . O O O . . . % 7 > 4 Y s . g j.L . O O . % % O O O . . % 4 O O 4 4 . . c L ",
"O O O . . . . . . . % % . % O O . O O O . O O O % : O O O . . . . . . O % O . O . . . . . . . . O . . . . . . O . . . . . . . . O . . O . . . . . . O O O . O O . . O . . O O . . O . O O . O . % e 4 : c e . Z [ 4 . % % O O % % O O O O . : > . : 4 > 4 [ Z.A ",
"O O . . . . . . . O % O O O O O O . O O O O O O % % O O O . . . . O . O % O . O O . . . . . . . . . . . . . . O O . . O . . . . . . . . O O O . . . . O O O . . O O . . O O . O O O O % O O . O e : % g e . L Z . . % % % % O % O O O O % O : : . > 7 O [ aXP.> ",
"% O . . . . . . O % O . . . O % % O O . . . . O % % O . O . . O . O . O O . . O O . O . . . . O O . . . . . . O O . . . . O . . . O O . . . . . . O % O . . . . . . . . . O O . O O O O O . O e % . : O 4 W g . . % % % % O % % O . O % % % % O O G Z 7  XjXO.!.",
"O . . . . . . . % % O . . . . O O O . O O . . O O % % . . . . O . . O O . . . O . . . . . O O O O O O . . . . O O O . . O . . . . . . % 7 c m Z L Y W _ Z > O O . . . . . O . . . . % : O . > : . O . A 8.j : O O . O O % : % O . O O % % O : r c ].3.W xXP.g ..",
". . . . . . O O % O . . . . . . O . O O O . . O O O O . . . . . O . O O . . O . . . . . . . O O O O O O O . O O O . O O O . . . > g A c g g 7 % % O . % : % O O O . . . . . . O % O % O . . O O . % 3.<.s r % . O O O % % % % O . O % O % : r j > Y Y j !.r . : ",
"O . . . O O % % % % . . . . . . . O O O . . O . O O O . . . . . O O O O O O O . . . . O O . O O O O O O O O O O O . O . . O c ..) c : . . . . . . . O O . . . . . . . . . . . O % O O % O . O . r D.[ . r c . O . O O % % % O O O O % % % : 4 > % g ) j aXaX..> ",
"O O O . : O % % % % . O O . . . O O O O O . . . O O . . O O O . O . O . O O . . . . . . . O O O O O O O O . O O O O O O 7 G ) g O . . > e e 4 % . . . . . . . . . . . . . . . . . O O % O O . Z b.Z . . > W : . O O . O : O . . . O O % % % % 7 O r q...u.uX!.j ",
". . . O : O % O % % . O O O . . O O O O O O . . O O O O . . . . . O O O O . . . . . . . . . O O O O O O O O % O . . % > > . . g ..s.q.-.-.3.%.3.%.%.-.Y g O . . . . O . . . . . . O O % O . _ !.Z . . . . > Z % . O O O % O O . . % % % % % % > O 7 O...% j.9X+X",
"4 > % : : O . O % % O . . O . O O . O O O O . O O O O O % O . . O O O O O . . . . . . . . O O . O O O O O % O . : 4 O . > ) h.h.) j > . . . . : 4 s L 8.N.8...7 . O % O . . . . . . O O % %.O.> A s s A Z s Y ..7 > . . . O O . . % % % % % % : : O j _ O.e !. X",
"% O > c r r 7 : O . O . . O . . O O O O O O O O O O O O O % % % O O O O O . . . . . . . . O O O . O . O O O > j e . 4 _ u._ e . . . . O : O O . . . . . . 7 <.P.-.s % O . O . . . O O O e c . . . % s A L L A W _ O.A s 7 . . . O O % : O % % % > % O c <.s.G 7 ",
"<._ Y Z s 4 e r r r > . O O . . O O O O O O O O O O % O % O : : O O % O % O O . . . . . . O O O . . . % : r L r % G 3.m . . . O O O O : % . . . O . O O . . . r N.].) % O . . . . O . O O . O O O . . . . O % 4 4 7 e s G _ m 4 . . . : % % % O O % > % Y %.P.A ",
"Z.%X<X<X%XP.s.Z 4 7 Z Y j O . . O O O O O O O O . O % j O g : O O O % O % % % O O O . . O O O O . . > 7 e A r m W j O . . O O O O O > % O % O O O O O . . . O . . g Z.q.4 4 . . . . O O O O O O . . O O O O O . : 4 % . . 4 G _ ) m g : % O O O O > r : O r O.7 ",
"% s c [ -.s.<XaX(._ e 7 m G 4 . . O O . . . . . O % . Y D.<.O O O O O O % % % O O O . . O O O O O 4 4 % e r A m O . O O . . . % O % O . > O . > e % % % . . . O O . . D.q.> : . . . O O . . % O . . . . O O O . : 7 4 : O . . . 4 m %...<.<.% . . % : > > % : : ",
"O . . . . . > [ H.<XH.A O O g e % . O O O O O . O O . Y 1X[ . O . O O O % O O O O O . O O O O O : % . j ) G : . O O O O O . . . O > 7 m % G %.L Y c > % O . . . . O . O b._ . O . . . . . O O O . . O O . O O O . O % > > : > O . . O 7 m -.%.Y j : . . : 7 e 4 ",
"O O O O O O . . . c D.1XP.A . % 7 > O O O O O . . . . W : G % . . . O O % % % O O % O O . O O O . > %.<.m : . O . O % % O O O . : 4 L %.3.fXj.h.[ > [ O O . . . . . . . O N.G . O . . . O O O % O O O . % % O O . . O % > j (.r . % : % . . : g [ -._ g O . 7 e ",
". . . . . . . . . . . g 3.<XH.7 . 7 s : O O . . . . O . O . . . O O % % : : O % O % O O O O O O A h.A . g e . O . . O O O O . . : : g m (.m b.CXjXj.O.7 % O . . . . . O . 7 N.7 % . . O . . O O O O . . O % O O O . % > O e A > . % % % : > O . . > G ....L 4 . ",
". . . . . . . . . O O . . j !.<X%.O > s > . % O O O O O O O O . O O % % % % O O O O O O O O . A Y c : g r Z O . . O . . . O . . : % Y O.9Xj (.{.yX<X-.r % 4 . . . . . . O . A h.7 % . . . . . O % O O O O O % % O O O : 4 : . . O O % r j s 4 O O O . . e W ..Z ",
". . . . . . . . . . O O O . . [ <X!.c : Z G 7 O . O . O O O . . O % % O % % O O O O O . O . O % . . > Z m G G j % . . O . O O . % . G A N.H.{.CX+XO.b.s % 4 . . . . . . . O . O.<.. O . . . . O O O O O O O % : . . . . O : e 4 . . : 4 > : O . % > : : % . O 4 ",
"% % . . . . . . . . . O O % O . 4 s.{.[ % > > O . . . O O . . O % % % : % O O O . O . % % . . . O O . . O : e j Z j : . . O O . O % r -.-.fX1Xu.7 7 G % O . . . . . . . . . O . h.Z . O O O . O O O O . . O O O . O . . . . O 4 r 7 : O O O . O O O O O % % % . ",
": > : % O . . . . . . . O O O % O . m Z.P.Z O : % . . O . . . O O O % : % O O O O . 4 e 4 % . O . O O O . . > % . r O.m > . . O O > O ..Y > P.H.L : . O . . . . . . . . . . O . e s.% . O O . O O O O . O . % % O O O . . . . % 7 g c 7 : O . . O O O % O % % O ",
"O O O O % O O . . . . . . O % % O : . : ..!.u.> % % . O . O O O O O O % % O . O O . s r e > . O O . . O . . . > 4 . O r A ) j . . O > e r > <.s.: O . O . . . . . . . . . . . O . G <.. . . O O O O O O O O % % % O O . . . O O : > r g s : % % O . . % O % O O ",
"e c 7 % . % : : . . . . . O O % % % : % . > P.%Xc . O O O O . O O % % O O O O O O O % e 7 . O O O O O O O . O % : O . . . 7 W ) r . % 4 O 4 ) Y 4 . . . . . . . . . . . . . . . O . _ Y . O . O O . O O . . % % % O . . . . . . . % 4 4 e 7 > % > : O O % : % O ",
"> L [ Z > O : 4 G : . . . . O % % % % % O . O <.%X<.O . O O O O O % O O O O O O . . . . . . O O O O O O . . O O : O . O % O . r Y ) r % O % . . . . . . . O O . . . . . . . . O . . > <.r . O O O . O O . O O : % O . O . . . . . O r s 4 : : % O : 4 e > O O . ",
". g j.3.s 7 . . L 7 . O O . O O % % % % O O O . s D.E.c . O > % % O . O O . O O . O . O O O O O O . O O . . . . O e > . : : % . . e ) A > . O O O . . O O O O O O O . O O . . . > m L 7 m 7 . O O O O O O O % : % O . . . . . O O O : s A m : O O . . 4 g g 4 O ",
"O L c [ h.c . . . . . . . . O O % O O O O O O O . . ..!.q.e . : : % O O O . . . . . . O O O . O O . O O O . O O . % r > . . . % O . . e A c 4 . . . . . O % % O O . . . . % A <.) j > . : m > O O O % O O O O % % O O . . . . O O O % % : r 7 : % O . . O 7 c g ",
"<XCXfXm H.H.m . : O . . . . . O O O % % O . . . O O . 7 s.!._ O . O O O . O O . . O . . . O . . O O O O O O . . . . % > : O . . . . O . % 7 G [ Y c > % . . . . . % 7 L q.b.<.s . . . O . O > % . . . O O O O % O O . . . . . O O O % : O O . O > 4 : O . O : : ",
"1XCXCX!.Z +X%.O % O . . . . . O O % % O O O . . . . O . > Y N.b.c . . O O O . O . . O . . . . . O O O . O . . . . O . > > % % % O . . O : . . : j ) _ _ W O.%.O.<.j.s.-.G : . . O O O % % % > > O O O O % % % % % % . . . . O O O O % % % O O . . O % O O O % O ",
". (.CXuXj 3.W : O % . . . . . O O % O % O O . O . . O O % j g ..8.m % . . . O . . . . O . . . . O O O O O O O O . O . : r > O O : : . . . O O . . . . % 7 m A m s > . . . % % % % O % % : % % O . O O . O O % : : % O O . . . . O % % % % % O . . . . . . . O O ",
"u.aXxX%.4 Z A 7 . % O . . . . . . O O : O O O O O . . O . s Z m 4 j W _ e . . . . . . . . . . . O . O O . O O . . . . . . > : O . : 7 % . . O O O O % : . . . . . . % % . : e O O O O . . O O O O O O . O O % : : O . . . . . O O O % % % O O O O . . . O . . O ",
"yXCX X. % c : . . O O . . . . . . O O % % O O O O . O : . Z 8.Z O . : W ) Z 4 . . . . . . . . . . . O O . . . . . . . O . . O % O . % 4 7 % . . . O O % O O O O O O % : O . % > . . . . . O O % O O O O . O O % : : O . . . . . O % : : : O O O O . . . . O O . ",
"qXxXO.j j r : . O . . . . . . . . . O O O O O O O O % : _ N.g . O O . . . 4 7 : % O . . . . . . . . . . . . . . . . . O . . . . . . . . > e 4 % . . . O O . . O : O . O % O . O O O O . . O % O O % O . O O O % % O O O O . . . O % : : : % O O O . . . . . . O ",
"Y ) Z yX<.s O O O . . . . . . O O . O O O % O % % . % %.O.4 . O O . O O O . . O % % . . . . . . . . . . . . . . . . . . . . . . . . . . . O 7 7 : % O O . . . . . . . . O . . . O . . O O O O . O % O . O % O % O O O O . . . O O % : O % O O O . . . . . . . . ",
"1XCXN.(._ . % : O . . . . . . O O . . O O O O % . 7 Z._ . . O O O . . O O O . . . O O O O . . . . . . . . . . . . . . . . . . . . . . . . . O O O % O O O O . . . . . O O . . O . . O O . O % O O O O . O % % O % % % O O . . . O % % % % O O O . O O O : : . . ",
"E.9Xb.!.Z g 4 : . . . . % O . . . . . . O O % . m {._ . % O . O . . O . O O . . O . . . . . . . . . . . . . . . . . . . . . . . . . . O . O . . . . . O O . . . . . . . O . . O O O O O O O O % O O O O O . O O % % O O O O . . % % % O % O . . O O O % s Y G s ",
". 4 > [ E.8.> % . . . . . . . . O . O O O O . [ ].A . % O . . O . . O O . O O . O . . . . . . . . . . O . . . . . . . . . . . . O . . . O . O . . . . . . . O . O . . . O . . O O O O O O O O O O O O O O O % O O O O O O O O O % % O % % O . O O . O . . . > 4 ",
". % Z -X8.7 > . . . . . . . O O . . O O . % j.-Xj . % O % > % % O O % % : % O . O O . . . . . . . . . . . . . . . . . . O O . . . . . . . . O . O O O O O O . . . . . . O . . O O O . O O O O O O % O O O O O % % O O O . O O % O O O O % O . O O O O O O . . . ",
"% e j Z e % . . O . . . . . O . . O O . s  X Xs . O O O : 4 O . . O O . O O O O . O . O . O . . . . O . . O . . . . . . . O . . . . O O . O % % > > > 7 7 e 7 e 7 % . . O . . . O O . O O . . O O O . O O O O O O O % O . O % : : % O . % : . . . . . . . . . . ",
"> : . : % . O O . . . . . . O O O . . ) yXD.% . O O O O . . . . O O O . . O . . . . . O . O . O . . . . . . . O . . . . . . . . . . . . O > 4 7 : % O : > O O % : O . . . . O . O O O O . . O . . O . . O O . O % O O O O O % O % : O % r m m W O.-.%.O.W Z e O ",
"% O . O > : % O . . . . . . O . . 7 E.1XY . . O . . . > e % % O . . . . . . . . . . . O O O . . . . . . . . . . . . . . . . . % > e g c L W ) _ ) m 7 : % . . . . O . O O . . O O O . O . O O . . O O . O . . O O O O O O % O > g g Z u.Z.D.Z.8._ G A G G L O.) ",
"r > O : : % % . . . . . . . . 4 -.+Xj.4 . O O O O . . : > % O O O O . . . . . O . . O O O O . . . . . . . . . > j m s 7 : % . % > 4 7 r g j c Z L Z A s : O . . . . . . . . O O O . O . O O . O O O . . . . O O % % O O . % > 4 Z h.Z...s : . . . . . . . . . O ",
"4 % O . . . . . . . . . O . Z 5X+XZ . . O . . O e 7 O . . . . . . O . . . . . O . O O O O O . . . . . O s G ..O.) j > : O . . . . . . . . . . . . . . . O : s c L [ -.<.3.<.m . O O O O O . . O O . . O O O O O O % O O % 4 4 [ (.O.O . . . . O O O O O % O . . "
};
