/* XPM */
static const char *sangue_EA[] = {
/* columns rows colors chars-per-pixel */
"128 128 245 2 ",
"   c #060201",
".  c #0C0201",
"X  c #140202",
"o  c #1C0203",
"O  c #1C0809",
"+  c #240203",
"@  c #2C0203",
"#  c #250409",
"$  c #2D0409",
"%  c #290B0B",
"&  c #340304",
"*  c #3B0304",
"=  c #340509",
"-  c #3C0509",
";  c #33090B",
":  c #3C0A0B",
">  c #370807",
",  c #32100F",
"<  c #3A0D10",
"1  c #3B1415",
"2  c #3F2321",
"3  c #430304",
"4  c #4B0304",
"5  c #440509",
"6  c #4C0509",
"7  c #440A0C",
"8  c #4B0A0C",
"9  c #440807",
"0  c #530304",
"q  c #5B0304",
"w  c #540806",
"e  c #5C0806",
"r  c #530509",
"t  c #5C0509",
"y  c #540A0C",
"u  c #5C0A0C",
"i  c #4B0C11",
"p  c #430C11",
"a  c #550D11",
"s  c #5C0D11",
"d  c #500610",
"f  c #441214",
"g  c #4C1213",
"h  c #4A181A",
"j  c #541314",
"k  c #5B1214",
"l  c #5C1519",
"z  c #53191A",
"x  c #5C1C1D",
"c  c #54161A",
"v  c #4F110F",
"b  c #630404",
"n  c #6B0305",
"m  c #630806",
"M  c #6B0807",
"N  c #640609",
"B  c #6C0609",
"V  c #640A0B",
"C  c #6C0A0C",
"Z  c #730405",
"A  c #7B0305",
"S  c #740807",
"D  c #730609",
"F  c #7B050A",
"G  c #740A0C",
"H  c #7B0A0D",
"J  c #790806",
"K  c #7A100F",
"L  c #630D11",
"P  c #6B0E11",
"I  c #740D11",
"U  c #7C0D11",
"Y  c #641314",
"T  c #6C1214",
"R  c #63151A",
"E  c #6C151A",
"W  c #641B1C",
"Q  c #6B1A1C",
"!  c #6A1917",
"~  c #741314",
"^  c #7B1214",
"/  c #751519",
"(  c #7C161A",
")  c #741B1C",
"_  c #7B1A1C",
"`  c #7C1817",
"'  c #68100F",
"]  c #50211E",
"[  c #571E21",
"{  c #691D21",
"}  c #741D22",
"|  c #7C1E21",
" . c #4C2625",
".. c #5D2323",
"X. c #5A2929",
"o. c #642424",
"O. c #6B2223",
"+. c #692A2B",
"@. c #732323",
"#. c #7C2324",
"$. c #732B2C",
"%. c #7D2C2C",
"&. c #772729",
"*. c #6B3636",
"=. c #7B3333",
"-. c #793838",
";. c #6F2E30",
":. c #72403E",
">. c #783E40",
",. c #764646",
"<. c #7A5152",
"1. c #7D6260",
"2. c #5A4341",
"3. c #820206",
"4. c #83060A",
"5. c #8A050C",
"6. c #830A0D",
"7. c #8A0A0E",
"8. c #830D12",
"9. c #8B0D12",
"0. c #8B0912",
"q. c #930D13",
"w. c #940E18",
"e. c #841214",
"r. c #8B1215",
"t. c #831619",
"y. c #8B151A",
"u. c #841A1D",
"i. c #8C1A1C",
"p. c #861816",
"a. c #911116",
"s. c #94141A",
"d. c #9A151C",
"f. c #941A1D",
"g. c #9B1A1F",
"h. c #9A1217",
"j. c #90070E",
"k. c #A2141C",
"l. c #841D21",
"z. c #8B1D21",
"x. c #8E1720",
"c. c #931D22",
"v. c #9B1C22",
"b. c #9B1621",
"n. c #A21D24",
"m. c #A41C27",
"M. c #842224",
"N. c #8B2325",
"B. c #832528",
"V. c #8C2629",
"C. c #842A2B",
"Z. c #8C2B2B",
"A. c #932324",
"S. c #9B2225",
"D. c #94252A",
"F. c #9D242A",
"G. c #942B2D",
"H. c #9B2A2C",
"J. c #962827",
"K. c #892B32",
"L. c #932D33",
"P. c #9C2D32",
"I. c #843334",
"U. c #8C3334",
"Y. c #8B3A3A",
"T. c #87383A",
"R. c #9B3335",
"E. c #9C353A",
"W. c #9C3B3B",
"Q. c #943637",
"!. c #93322E",
"~. c #A22226",
"^. c #A3242B",
"/. c #A32A2D",
"(. c #AA262D",
"). c #A42C32",
"_. c #AB2C33",
"`. c #A92933",
"'. c #B32B35",
"]. c #A23234",
"[. c #AA3236",
"{. c #A43439",
"}. c #AC353B",
"|. c #A33A3B",
" X c #AC393D",
".X c #B5333C",
"XX c #B43A3D",
"oX c #B5333A",
"OX c #B2282F",
"+X c #8B201F",
"@X c #8C423F",
"#X c #A3403F",
"$X c #8D3E42",
"%X c #AC3C42",
"&X c #A43D41",
"*X c #B43C43",
"=X c #BA3D44",
"-X c #BB3540",
";X c #894546",
":X c #984647",
">X c #965858",
",X c #AB4344",
"<X c #AB4A4A",
"1X c #A64749",
"2X c #B54345",
"3X c #BB4245",
"4X c #B34A4C",
"5X c #BA494C",
"6X c #B9444A",
"7X c #A6524F",
"8X c #B74B52",
"9X c #A65558",
"0X c #B65659",
"qX c #AA4F56",
"wX c #93625D",
"eX c #AC5D61",
"rX c #9A6564",
"tX c #9F7371",
"yX c #AB6467",
"uX c #B76668",
"iX c #B87678",
"pX c #B17275",
"aX c #C1494D",
"sX c #C4454C",
"dX c #C54D52",
"fX c #C6575A",
"gX c #D04B54",
"hX c #C95D61",
"jX c #D45C65",
"kX c #C96668",
"lX c #D76569",
"zX c #C66E73",
"xX c #D86C72",
"cX c #C87777",
"vX c #D6797C",
"bX c #C9716E",
"nX c #E47075",
"mX c #D9817E",
"MX c #D77C80",
"NX c #B38784",
"BX c #C88689",
"VX c #D98588",
"CX c #C49393",
"ZX c #E98E90",
"AX c #EFADAF",
/* pixels */
"+ + o + + o # # o o + X o = + + @ o o + o o # $ + @ @ o o o + @ @ + X o o o o + * * & + @ o + * w - + $ @ + @ & 3 4 * + o X . X o + + + o o * 6 3 * 3 3 C e.6.i.N ` t.~ 4 q q q q q 0 0 3 @ + + & 3 * 6 0 b C n i.Z.9.*Xc.v.9.6.9.G N 6 + @ * * * & * * * + & = ",
"@ + o + o X o + X + + X o @ @ @ & + + @ o o o X o @ @ o + + @ @ @ o o + + + + @ * * = + @ o + = * 8 @ & & o + @ 4 r * + X X . X + + + o + @ 4 3 * 3 3 r ` J 8.e.q C e.l.y 0 0 0 q q 4 3 * + o + @ * 3 u 0 G T C N.y.oXfX9.n.S.F 6.D n 0 : = & * & & 3 * & @ * @ ",
"& @ & - + o X o o o @ o + @ & & & & & - + o X X o + @ + @ @ & & & + o @ o + = @ & & + @ @ o @ = = & 7 3 & @ + @ r r & o X X X o @ + + + # @ 3 * * 3 t k N J 8.H b n D u.Y.4 6 0 r 0 4 * & + o + & * 6 q 0 b _ I.).7.s.XX}.^.U H 9.A S e 8 & & & & 3 4 * * * 5 + ",
"@ @ - @ + o o o o o + + + @ & & @ @ = @ + X + + X + $ + & & @ @ = + o @ o @ & + & & @ + + o + & @ o @ y 3 & = = 6 3 @ o o + o + @ + + o o & 5 * 3 r u 4 b G G D Z J 4.Z Q.$.* r w 0 4 * @ @ o + & 5 4 0 t q t uXsX^.9.q.lX2XA 6.r.6.` q 6 & & & & 4 5 3 * 3 * + ",
"+ & @ + + o & = + # + o + @ * = + @ @ + @ + = @ + # o + = # o + @ + o @ + @ @ + & - = @ @ o @ * @ X X & i - - 8 u * + o + + + @ @ @ @ o + 3 3 3 r y 4 4 q B B D Z i.H.F D :Xj 4 r t 6 * @ + o + * 5 3 r u * ;XcXbX3XA 7.m.d.3.9.f.9.H B 4 & * * 3 4 * * * 3 & + ",
"@ o @ @ @ @ & @ + + o + @ @ * - + + @ @ @ @ & + + o o @ @ o X o + + + + @ # + @ & & @ @ @ + @ 5 & o + # X $ = 5 E y & o + + o @ & @ @ + & 0 r 8 9 3 4 6 0 Z n B F G./ t.9.N.qX4 r q 4 * & o X o & 6 r R * X.uXD <XfX7.6.6.7.d.7.9.c.F B 4 * 3 3 6 3 & * 4 - @ - ",
"@ @ @ @ @ & @ + + o o @ & @ - & @ = @ + @ = @ + + o + @ @ o X o + + + o @ + + = = & & & # o & 5 @ X @ # . . + 3 t k x 6 - @ @ & & & * * 8 u 5 + & 3 t 4 0 D I b D y.n B y.9.|.:X4 q 4 * & X X o @ 3 ~ u : yXc.P.^.=Xr.f.6.9.f.4.3.A n B t * - t 0 * & 3 4 - & - ",
"@ = & @ @ & + o + o + @ & @ & @ + = & @ @ @ + + + o @ = + o X o # o o + & @ @ & * * @ @ + o - - + X $ o . X + @ 5 5 > 7 t t r w 6 6 4 8 i - o + * 5 r 4 q n B q b 8.6.n n y.4.6XQ.0 4 3 & X . o @ 3 q R :Xc.].R.}.*XA 9.A 6.S.6.r.F G D n u r t 4 * & 3 3 6 6 @ ",
"+ & 7 - + & @ o # o + @ @ @ & = @ & 7 - + = @ o + o + @ + o o o + X X o @ @ & 3 5 * @ & = @ 8 * + o ; o . X # @ & + X o $ & - 5 5 - @ + * & + * 3 4 4 4 q b B m 0 ^ c.8.F H 5.n.fX|.r * * o . o @ 3 #.1X].6X|.H.#X|.F c.F G f.9.7.H n C H B 0 0 3 & & 3 * 4 - o ",
"@ & 5 5 @ & 5 @ # o o + @ @ & - & * 6 5 @ * - + o o o & @ + o o = + # o o + * 4 3 & & 5 @ = 8 * + + : o . o + & & X . . . . o @ @ + + @ * @ @ 5 4 0 0 4 b B B 0 0 N u.9.r.9.a.'.'.dXzX;Xx % X # x 7XfXR.7XU.U F.R.M.B z.t.b I 3.4.Z q b D b q 0 * * * - * 3 + X ",
"5 & 3 6 & & * @ + o + @ @ @ @ 5 - * 4 4 & & & + o + + & @ @ @ + & $ o o + @ * 4 * @ * - + * 6 & o @ - X . o + - - o X . X X o @ @ + @ & * @ * 4 0 q 0 0 b Z B 0 N n b 6.F H s.n.n.~.fXAXVX1XeXuXhX,XT ~ u 0 b i.D.b 0 n H q V 9.6.b 0 0 b b b q * * * * & & + # ",
"& & * 5 * + + @ @ = + + @ @ + * & & * 3 @ + @ + $ ; o @ @ @ & + @ o . X # # & 4 * - 3 & + - 6 & o @ - X . o + * * + X . . X + @ + o & * * & 3 4 q b q q b Z m w N m m H y.9.v.S.9. X0XR.8.H y.u.B b q T b 8.P.i.N.u C 8.H 0 t 9.6.b 0 4 0 0 b t 4 * * * * @ @ @ ",
"@ & - - * + + + + = o o + + + @ @ & & 9 = + # o + @ X + + + & + + + o + + o - 5 & - 4 * @ & 6 @ X & : X . X @ - & @ X .   X & & + o & * * & 4 q b b b b b B q 4 0 4 t D y.d.d.^.F.H.&Xb b b m 0 b g.S.z.n _.4XC Z.! t.oX^ 0 q A A D 0 3 4 4 0 q 0 3 * * * = & @ ",
"+ & @ & - + o X o @ o o + o @ + + @ + - & + o X + = o o + @ & @ o o = @ + 5 5 & + @ 3 - @ - - o X & = . . X @ - @ & # X . + = @ + + & * & & y N n n b b n H 0 6 w 3 q F F 9.4.9.F.F.|.b t t V b 8.8XW.#.q A.U.e M.q i.Q.z.B n J Z B 0 * * 4 0 0 4 3 3 * @ @ @ @ ",
"+ & + - - # # + @ & @ + + + & o + @ + 3 & o o + - 3 & @ @ @ + + + + @ + + 5 * + + @ * @ @ * * o o - & . . X @ 7 @ @ & = # = @ @ + + 3 3 - * 0 n D D n b n H 0 4 w 0 B F 6.S.6.e.A.v.V.q 4 * 5 B <XO.4 4 3 ` @.q 8.b D.N t.H F A n n q 3 & 4 b V t 4 * & @ + + @ ",
"+ & + 5 3 X X + & & @ @ - * = o @ = @ 4 & X X & 6 * 5 * + @ + @ p - @ @ - 5 + + + @ * @ @ 3 3 o + y @ . . X & 8 @ @ & & @ @ @ @ + & 3 4 4 r 0 n Z B G b n D 0 3 r t G H U c.r.n ]./.1XT 3 & 3 b L.r q 6 0 t.Y.Z 0.G U n F H Z A Z b q 4 * q t a P 4 * * & + + @ ",
"= & @ 6 5 $ @ & & o o + * 5 @ + : & * w * - - 6 3 @ & & + @ & 4 6 - & @ * * + + + @ & = @ 3 5 X = a + . . . : 6 @ @ @ @ + @ @ @ + * 3 4 4 u C H D F G b n Z 4 3 3 0 G ~ V G 0.4.4._.P.C 0 6 5 0 ) #.b b b F  Xa.y.9.9.F F F Z 4.Z q w 3 & t 4 & N 0 * * @ + + @ ",
"5 & 5 r & * 5 * @ X o + & & + + 3 & 6 6 & - 6 4 & + @ & + & 5 4 3 * @ o + @ @ @ + @ & @ + 3 6 . 5 6 o . . X - 3 + @ @ + + + @ @ @ 5 3 3 3 3 G 4.Z F G B Z n 4 * 3 0 H C 0 n 4.5.4.3.A ~ Y & * r t T q ^ v.A _.*Xe._.^.A 9.F Z 7.H t r 3 * w * & q 4 * 3 @ + @ @ ",
"& * 3 3 @ + @ @ o X + @ @ + o + - * 3 & + o @ = + @ - * @ & 4 * * 3 & + + + & - & - - @ + 3 e f k 3 o X X o - & + @ @ o o + @ @ * 3 3 4 5 0 H H G G G n n b 3 & * b F n b D Z A 7.a.a.C I.7 y #.( t ! u R.8.U ,X[.y.H.7.s.4.r.4.U t q * 3 4 & 3 q 3 * 5 @ @ - & ",
"= - @ @ + o o + o o + @ @ + + @ 3 = + @ + o + # + - 3 - @ * 6 & & * - # @ @ @ * - & & @ + * N } u = X X X o - & + + + o o + @ @ 3 3 4 4 4 t a.r.G 8.m 0 b b 3 & * n C b b F F Z a.a.y.Z ^ $XP q V V N b / i.A t.A.H t.S.s.F r.6.G 4 6 * 3 3 @ 3 b 4 3 * @ @ - @ ",
"3 - o + o o o o o o o & - @ @ 7 5 = + + o o o o @ = & & @ 3 8 @ + + & + + # + # o o + @ + * q r 0 @ X X X o - @ o + + o o + @ & 4 4 6 0 q ^ v.G.C D q 0 b q 3 & 4 G b n n 7.H Z 9.6.e.6.A i.{.n C N ^ U i.S.4.Z ^ A.7.~.r.y.6.H G w 4 3 3 3 3 4 t 3 * * @ @ & @ ",
"4 3 = + o o X + + # + @ - @ * y 3 - = o X X o + + + $ @ @ 3 3 @ + o = # o + # o o + @ @ @ * r 5 w @ . X X o & + o + + + + + + & w 0 6 N ~ R.u h O.G B ~ b b 3 * t H n Z Z 9.f.e.F F e.[.4.f.y.8.8.~ M.U ).s.5.e.Z Z a.^.7.^.8.n u.u 3 3 6 4 5 0 t * * & @ & = @ ",
"4 3 & + o + o + # + @ @ & @ 3 0 4 3 * @ + + + @ @ @ = @ @ 3 5 @ @ o @ = + o + o o + = @ @ * 3 * 6 @ . X . + & o o o + + o + + 3 r t r b $.{ @ o 3 G b t b b 3 * q U n b n 9.s.F Z Z F ).q.F F 8.U t.C ^ ` Z 6.9.6.Z r.(.d.6.F D D.R & 3 * * 4 q r & & - - - @ = ",
"3 - & - & & o + + + @ & & & * 6 - & * 5 8 - @ + = @ & @ @ 3 q * + X + @ @ o + o o o = & @ @ * * 5 @ X . . + @ X o o + + o o + 3 t t t W  .* & & 4 Z ^ q n B 0 * 4 D b b n r.6.Z 6.F F U y.8.U n D e.s.Z b D H r.~.y.4.n.s.5.4.F y.N 3 3 & 3 0 b y * * * 6 & @ & ",
"& @ + @ = + o @ o o @ @ @ @ 4 3 & @ + - - @ : : - @ @ @ & 6 t 6 @ o + @ = o + o X o @ = @ @ * * * + . . . @ @ X o o o + o o @ 4 0 0 V X.& 3 @ * q G l.B n F t & 3 D b b n e.F Z 8.y.H G i.e.H b D Z 8.9.U e.Z H c.H ^.a.4.9.7.8.G n 0 - & 4 q n 0 3 4 3 6 & @ @ ",
"+ + o + & @ + # X @ * & @ @ 0 5 + + o & - o 1 { 3 & @ @ - 3 4 6 & @ + @ g = @ X X o @ = + @ & & & o . . X & + X o o o + + + & r w 0 +.1 & 5 @ 3 m w } ^ q H P @ 3 G q q b H Z D F 8.D F 6.4.Z b b H H y.G ~ n B H Z f.s.9.4.4.G b b 0 * * 0 b Z b q 3 3 & @ & @ ",
"o o o # @ = o X + 7 r * @ @ 0 y o o + & 6 7 & y q 6 & @ * 3 3 @ @ & + @ 6 3 @ X X o + @ # + @ @ @ o .   X = + . o o o o + + * B e y X.+ - * @ 3 N * +.N.0 y.#.@ 4 B 0 q b F Z n F H Z Z F 5.Z q b F 6.8.G b b n 6.4.e.9.7.s.J n q t r 3 4 b n G G q * 3 & @ - @ ",
"o + + + + $ X X @ - - 5 & @ 3 Y # X + @ 3 r y q b q & @ & & & + + = + + 3 - @ X X o @ + + @ + + @ o . . X = o . o o o o + @ 4 D t a < + 5 & & 3 u & h u.b C Q & 4 b 0 0 b 4.A n B H Z G F H B b n F 9.8.G b b G J 4.s.f.7.r.H n q 0 4 3 0 n G W y r * 4 * & - = ",
"+ + + + + + + $ * & @ 4 * @ & 8 f @ - & 3 4 4 4 q q & @ @ & & + + @ o X 4 3 @ X X o + + o @ + o + X . . X = o X o o + + @ & q n t j @ & 3 & * 4 r @ : ^ b m Y - 3 b 0 q n 5.6.b b Z 8.H F F b b B Z 6.D B b b G Z F 9.n.a.6.F V q 0 3 * 0 n U 4 & a * 4 * - 5 & ",
"@ + o o @ + # # * @ + 4 * @ = 3 u u y & - 4 3 & u q * @ @ @ & + + @ o o r 3 @ X X o + + o + o o + X . . X = o X o o + + & * t n T f & - 5 & 3 0 e = = B m N ! : & q b b 8.h.y./ q F U n 4.D q q b Z F D b q D Z Z J 4.a.~.9.Z B 0 0 3 - 6 n N 5 - k 3 3 & 6 6 @ ",
"+ + o X @ @ X o @ + @ 6 & + @ 3 q t 5 o - 8 - + s t * & @ + @ + + @ o : u * @ X X o + + + + o o o X . . o = o . o o + @ - 4 V b Q 7 & 3 - & 5 0 e : @ t B C V - @ 0 Z m M.9.H V e G H q Z D q q b n A F b b G n J F 9.9.6.e.4.B 4 t * - 3 B u * & 5 3 3 & 3 3 @ ",
"o + + + = o o = @ o = - + + @ * 0 4 @ o - 3 * + j u & @ + + @ + + + # l 3 @ # . X o + + + + o o X X . . o @ X . o o o & = 4 b B j & & 6 * & 3 r r - # q N B N 5 & 0 Z ~ k 4.9.U N B 8.b n B N q Z n Z D b n G b B B G H S 7.9.I r 0 * - 3 N 6 & & 3 5 * & * 3 & ",
"o + + + - = - @ + o @ + X o o & 4 * @ @ 3 3 = o g 6 @ o o o + + + + f j @ @ + . X + @ @ + o X X X X X . + & X . o o + = + 6 b V 7 @ & 6 * * 3 4 4 = o r q N I 8 3 b H k 0 5.H D n U e.n b b w r Z S S B b C B q q n D Z H 6.0.A n m 7 - 4 N 4 * 3 3 4 3 3 4 3 = ",
"o o # + @ = & + # o @ @ + o o = * & @ - * @ o X 8 3 o X X o + o o p k * @ @ # . o + @ @ @ o X X . X X . @ & X X o o @ @ o r b u & @ & 6 * 3 4 4 6 @ X w q b G k 4 Z ^ 7 q 8.Z b b 9.8.D t q 4 4 S J F n q B b 0 6 b D q G 6.4.Z Z l.7 * 0 G 4 * 4 4 w 0 V e 3 - ",
"+ o + o X X X + + o + # o X # @ @ # + & & X . + k * X X X X X o - k 5 = + + + X o + @ @ @ o X X X X X . @ & o X X o & # + t D r @ @ & 6 * 3 6 4 y # X w V B G s 4 G T * q H D n b H H b 0 0 r 0 9.t.n n C B q 4 4 b n 0 b F F Z D T @ * 0 C 3 * w 4 4 0 y y 5 & ",
"+ o + @ o . X o o + + o X o & o o X o 5 o X X = u 3 + X o & > y C 0 * # o o o X + @ & & @ X X o . X X . @ & o X X o & o @ b C 7 @ @ 3 4 * 3 5 3 y # X w T C Z e 4 M y * q D G b G F H q 0 0 q C / Y V b ( C q 0 w b n 0 q F H n n T & - 4 N * 3 t w 4 r 3 6 3 & ",
"o + @ = o X o o o o o X o = - X X X & 5 # o X 7 V 3 & & * y u r q 5 + o X o o X # @ & * @ o o o X X X X @ & o X X o & X & b C > @ @ 4 w * 3 3 3 u # . e b 0 B V 3 b 0 3 q G H t.t.Z Z b 0 0 B &.: & 4 b ~ m q q q b b 0 q F 6.b n N * - * r * 3 w t 4 4 3 0 4 - ",
"@ + o + o + + X # + X X o 6 - X X X 5 = + @ @ T B 4 & & * 5 4 3 6 & o o X o X X # @ * - @ X o o X o X o & & o X X + = o 3 n t @ & & 6 4 * 3 3 3 u : X C D 0 B C 0 C w 5 t D F F n n B b 0 q ~ [ + - 3 B ` 0 0 0 q q b t n F 8.H n b 4 * 3 r 3 3 0 N 0 q r 5 3 * ",
"+ + + o o @ @ o < + . X & 6 + .   + 7 + X + 9 P t 3 @ + & & & * 3 + o o + # o X o & 3 * @ X o o X o X o & & o . X o @ X w G 8 @ * * r * * y 3 3 w u - N G q B U t C 4 r t B D B n D n b q q Q ; o & 3 V U 4 4 4 5 6 4 t B 8.F D b B 3 * 4 r 4 4 t C 0 N r 6 r 5 ",
"+ @ + o + $ + + - o . @ y * o X X p : + o p l 0 w 3 o X + + o = & + o o + $ o o o * 0 * + o o + o o X o & & + . . + # + t P 7 @ 3 3 t * 3 a 3 5 4 V 6 N H t B U t 0 0 t w n n b Z H B n b N W + o @ 3 N ( 4 4 5 & - * 3 C u.B n b b 3 4 q t t r q G q t - 4 N 6 ",
"+ @ + + $ @ o @ 5 7 7 a r & o X @ i * & + a Y 3 3 5 & & - @ @ @ + o X o + # o o o 6 u - + X o + + + o + * @ + X . + @ - q T - & * 3 w * 5 5 3 6 0 0 3 q ^ b N ^ Y 4 0 t 4 n q q D B b n b L k + o @ 4 B B.4 4 3 & 4 - 3 B I b n b b 0 0 q n b 0 b Z C P 9 3 4 8 ",
"@ @ o @ @ o + # * u y 4 3 = X . $ @ 3 & & 0 w * * 3 4 4 4 3 5 6 - + X o @ + o X + 5 8 - o X @ @ + + + @ * @ + o . + & * n #.@ * * 4 6 * 4 * 5 6 0 0 - w G n G T #.4 t w 3 B 0 0 B b b D b L 8 @ o + 4 N R 6 3 5 & 5 3 4 B B q q q q b q q A F b n n U C 3 4 r 5 ",
"+ o o o o X X X & 3 * & = + . o $ + 5 * 5 3 3 * & * 3 - @ & - 3 6 6 * - & + + o @ = @ - o X @ = @ + + @ & @ + + . + & 3 G u @ 3 3 r 6 3 4 * 5 3 4 4 3 q F n D m #.0 B 6 3 B 4 r b b n H Z u - @ o o 6 0 u 6 - 5 & 3 4 q Z ^ 4 3 N q b q b 6.4.n n b n q 4 4 r * ",
"o o o X X X . X = & @ o o o o @ + @ 6 4 * & & & @ & @ @ @ & & & & 3 4 y 3 @ @ o @ @ @ - o X & & & + + & & + + = X o & 4 B 4 @ 3 4 q 6 4 3 * 6 4 4 4 * 0 G B U q E V C k 4 G 0 q q b n Z D u - & o @ r 0 4 4 - 5 & 3 q b D c.8 3 b b b 4 n i.V.l.D q b q 0 r 4 - ",
"$ $ o . . . . + = + o X X o + = + - 4 3 @ & * & & 5 - @ @ & & + + & 3 4 6 * @ + & + @ = X o - * & @ @ & & + o & @ @ @ 4 q * * 3 4 u 3 3 * * 5 3 5 3 * 4 C G 8.n C ) r 7 4 G 0 0 q B n n H k * - o - t 0 4 4 * 7 & 5 q n F 8.u 3 q n B 4 C ^ 4 @.y.n b q q 4 5 - ",
"o o .   . . X @ & o X o + + + 7 - y t N r 3 4 - = * : # + @ + + o * 6 3 3 6 & + - + @ @ . o 5 * * & & & @ + X @ & @ @ 3 0 & * 4 0 u * 5 3 3 3 & * - & 4 b ^ H B G #.3 * 4 B 4 0 0 b C b G 3 * - # 5 r 4 4 0 3 6 @ & 3 b H t.Y * q Z D N B C 4 0 e.F n q 0 4 3 & ",
"X .   . . X o = + o o # + + : o.5 r 6 y r 4 4 & + + o + & * @ o + 3 4 * 3 6 : o - + @ # X + 5 3 8 - & & @ o o + & & @ 4 4 & 3 0 t e 3 4 4 6 3 * * * & 3 b b B B D M.8 * w B 4 4 4 t b b G * @ = 7 y 4 4 w 0 4 5 + + & r Z F Q 3 0 Z G B b q 0 b F J B C 0 4 3 + ",
"X     . X o + - + + & + @ & j W 4 4 3 5 6 4 4 3 3 5 7 8 w w 4 & * y 6 * 5 3 7 - * + $ # X + 3 5 @ ; - & @ o o @ & @ * 0 3 * 4 0 N e 3 0 0 6 * * 3 * * 3 b n b n F M.x & N B 0 4 4 q q n D * + 9 O.4 4 0 r w 4 - + + * q Z A u.j 0 B G Z n q 0 n 6.t.b b r 4 - X ",
"X . . X X o + & - - * @ & 3 V t 0 q m b q 4 r e k ..: @ * r &.L.r y t 4 4 * - 8 5 o $ + o & 5 #   o 5 & + o X + & & 3 0 3 3 0 q N q 4 0 r w 3 3 * & * 4 b Z B n F G ;.* B B t y 4 q b n H 5 o +.O.4 4 0 4 r w * @ & 4 b 4.A G O.w b A J 8.B b D 8._ q Z b 4 & . ",
"X . . X X + + @ & * @ @ 3 q G t 4 q V 0 4 3 6 g ; # o o & 3 g T.C.t q q w * & 6 5 o $ + o & = .   X * & + o X + @ & 4 q 4 4 q 0 t q 0 4 0 r 3 3 * * * r b Z Z J F n %.j b U m 4 0 q n Z G * , qXs - 5 0 t V 4 * & 3 q G ^ B b N.} 0 6.i.~ I I b G C b U C 4 & X ",
"X . o o o + + @ & & @ @ 4 n B r 4 0 r * + + = o o @ @ & * 4 3 - T b C N q 4 * - 8 + o + + & +   X o & @ + o X + + & r t 0 q t 0 t t q 4 0 4 4 3 * 4 4 4 b Z F 6.C I I O.0 H B 3 6 0 n H G * =.6X4 + 3 0 G I 4 3 3 q D ~ b C U 6.P.( 8.C 4 ) V q b H C B q 0 3 + ",
"o o # + + o + & 3 * - * 4 b b 0 4 0 0 @ o + + @ @ * 3 3 4 4 0 5 3 C ^ C b 4 & & a < o o + & @ X X o & @ + o X + + & e e 0 b b n b 0 0 4 4 * 4 3 * 4 4 3 b Z F n m ( n %.Y b b 4 * 4 b G I T G.t.* @ * 0 b n 0 3 0 n G N b n C Z 7.d.9.C./ q 6 q D H B t b q r * ",
"# o + # o X @ 5 3 6 4 3 0 G C 3 4 6 4 & & @ o & = * 3 * 3 3 6 - - V D D b 4 & @ 8 c @ o @ * & o o + & & + X X o o & r 0 q q b n b 0 b 0 4 3 3 4 6 6 4 4 n n n n / u.B ~ W.N q w 3 4 q G H i.N.t @ + * 0 q b 0 3 q A Z b Z B b b Z q.9.e.N 0 0 b 8.D b b n n q 5 ",
"o o + + + + - & @ & 3 4 q D C 5 * * & & * @ + - @ * 3 & * 3 - + o W H F b 3 + = & p - + & 6 @ o X o @ & + X . o o * q q b q q b t b N 0 3 5 w 4 4 0 r w b b n Z I B B H ).E.0 4 3 3 q Z A z.Q * @ + - 0 4 b q 3 q 8.D B A F B b n 6.6.Z b t q b 9.G n H H G t 5 ",
"X o + + @ = @ + @ & 3 3 0 Z ~ 7 * & + @ * @ = & & 3 3 * * - & o X z y.Z q & o @ & & 5 o & 6 + X . X @ & + X . X o 3 t 0 B q N b b b n q 0 q r 3 3 4 0 4 B n n D B q b n 6.oXt.V u R I F D B 4 & = + - q 4 q t 4 q t.G B 9.F C b Z J Z B b b D G F e.F F ^ S q 3 ",
". X X + @ @ @ & & - 6 3 r Z i.7 @ @ @ & - & * 3 4 3 4 6 - + o o X h F.A q & o & * + 5 @ & 5 + X . X @ @ + o . X o 4 q 0 b b q q q n B b C q V 0 3 4 4 3 N n n F I q q q n f.a.[.E.z.U U G n I 6 & + 3 N 0 q b q D 9.G G 8.Z Z Z F Z Z n n Z 7.D n e.y.H D 4.n w ",
"X X o @ * & & & & & y 5 0 n y.+.+ & * 3 3 4 w q 4 4 4 5 & + o X . < v.4.r & + * * + 3 5 & 5 + X . X + $ o o o o @ 6 q q D G b C ` A F D b 4 b B r 0 3 3 t q n Z b q t q b s.d.v.A A J 4.n C ~ s @ @ 3 B w b Z n 4.7.4.e.9.4.A 4.5.F F Z J A 6.Z n A 9.H Z F Z q ",
"@ + & 3 4 3 * & = 6 5 * w b U I.f 3 4 4 W ) q r 5 - @ @ @ @ + o . < E.^ V & & * * @ * r - 3 + X . X # + X o @ & * q b b B b n B H.G E +.W L 0 N w q 0 3 t b n Z b q t 0 b a.5.r.s.4.5.q.q 0 q 8 5 * 4 q 0 b A A 9.a.y.6.7.r.J 4.5.J Z A 4.Z r.Z A 4.4.A 4.8.6.B ",
"@ * 4 r b 0 * & 3 6 - 3 w b b V I.! C N E T r * @ & & = & @ + o X X.%.0 V * & 3 3 * 3 y 5 5 # X   o + + . o @ * 3 b b b G b n _ &.& + X % +.P q 5 q V 6 q b b Z n t b q n a.5.A H F A f.n b t 4 4 4 q q 0 b Z A a.s.r.r.4.r.s.q.h.A A 5.q.9.s.F A 9.q.0.4.6.H b ",
"5 r 0 5 s t & & 4 6 * 6 0 q b b ~ u.A.^ _ V & @ * 3 3 3 & + + o o @.P q w * - * 3 3 4 0 r * o X . o + + X + & 3 4 B n b u.B T I.- + o .   # @.( 4 6 r 3 q q n Z b 0 n e.I 9.q.7.J F A r.H B b q 6 0 b q 0 b Z 3.0.6.f.~.v.q.q.q.q.3.3.3.5.r.4.f.6.4.s.8.U D A B ",
"L r 5 = # j 3 3 q 0 * 4 0 q q q b G ~ ^ B 3 @ * 3 * 3 4 & @ @ + @ ) C t 3 * * 3 5 4 4 0 r & o . . X o + . + & 3 0 D b b D e o.8 * @ + . . o u U 0 t r 4 q b F n q 0 b G b G 9.4.A A 5.9.Z B b b r 4 q q b B n 4.s.y.6.v.^.n.9.a.~.d.5.3.4.9.A s.9.v.y.Z.I Z 7.B ",
"6 * & & o 7 r q t 4 * 4 r 0 4 q B C b B N - @ & 5 7 4 0 3 @ + o ; #.b 0 3 & * 4 4 r r 0 t & o . X X o o . @ * 3 0 B r 0 N O.7 3 & + + . . @ s r 0 t t t t b 4.b q 0 q b q n F Z J 6.4.7.G q q b q q b n G B n 6.(.f.4.f.b.7.v.n.4.f.a.4.7.r.~.s.^.n.d.y.F a.H q ",
"w * @ @ @ 6 q 0 q 5 * 4 4 4 0 q B B b b q & @ - 4 6 4 w 6 @ + o f I.m 0 0 & & 4 4 0 q q e - o X X o o X . @ 3 8 0 C y t Y 8 3 4 & o o . X & 8 7 y 0 r 0 q G A b q 0 q b b Z Z A 4.F Z e.I 4 0 b b n Z F H Z F f.q.f.^.[.s.4._.s.4.5.n.g.9.^.e.J.fX/.5.A 4.r.n q ",
"q 3 + X & t 0 4 r 6 & 3 4 w w 0 b n q 0 4 & & 3 3 5 * 3 6 * @ + ..) q q 0 * 3 N 0 q b b N - o X O X o o X & * & 4 P u L r * 3 4 & + o . o * - 3 r t r 3 N 6.Z b q q q q G D Z A F F Z 6.B 3 3 q b n G e.e.6.8.d.g.XXF.y.v.[./.v.5.q.7.^.h.d.A.XX(.0.4.y.F F C V ",
"0 - + X & t 6 3 4 8 * 4 d 6 w 0 b n q 4 3 * - & * 5 & @ 5 & & = $.B b q 3 3 P u 4 u n n q & o . X . X o o = = & w C b N 4 4 0 4 * @ o . o - 9 3 u P 4 3 H J n b b t q q B B n Z n Z A A P 3 3 0 q M J s.8.r.q.7.XXaXy.n H 7.s.n.5.v.^._.c.8.2Xh.q.7.4.A.S.9.4.I ",
"w & o + * t 0 * w y * 4 & * r 0 b b t 3 * * * & - * @ + 3 3 @ a ) n C 0 3 k W & & 8 U n r * + o o   X X + * 5 t I I B b t q q b r 6 5 = - 4 4 u Y 4 3 L 6.Z B q 0 4 w q b b b Z B b Z Z C 3 * 4 q M F 9.S.).a.g.XXd.v.N.Z 6.g.q._.3XoXn.XX2X/.s.f.6.F i.aX^.4.B ",
"5 + o + r r * & 0 V y 8 & 6 8 4 q t y * 3 * * 3 3 * & & - 4 - } u.G q 4 4 p = & = @ u B r 3 + o o X & 6 t V q G 6.Z B n n T _ C B b t t N B B G T 3 y R.H n n q 4 * 4 q q b n n D n D Z N * & 4 q G f.a.s.A.f.s./.9.%XZ.P.7.q.^.2X7.v.7.w.n.F n ~ V.@XW./ N B u ",
"* + o @ 6 & = & 0 b q j 7 * * 3 0 6 3 3 * & @ & * * - @ - 4 c M.H ` t 3 5 & & @ & @ i P 4 4 & & 5 r r q 0 w 4 q G i.B G D e C t w 4 - 4 q q b Z I C.V.U D b b q 4 * 3 4 q b n n Z n n n b * * q B Z s.d.v.S.4.q.sX^._.5XkX[.k._.aX7.r.A.5.n.A.V.;XO.k 0 b Y 3 3 ",
"4 + o @ & @ - & 4 b 6 & * 3 * 3 0 3 3 6 & + + @ & & & @ - 0 U.l.B B b 4 * & - + @ @ 7 T 0 t w y 5 & & * 3 6 6 3 ~ z.q r 0 3 4 4 * & + & * 3 0 b q N ^ 6.F b 0 q 6 3 * 4 t q q n Z b b b b 3 0 n G H f.4.s.7.6.v.(.b.oXF.kX.Xb.9.7.g./.aXsXa.r.y.b 4 3 3 m _ ) E ",
"r + o @ & * 4 * 4 6 3 * 3 * * r 6 5 6 w @ o @ @ & & + + - b G._ m B n 0 * * 5 @ @ @ y G n B 4 * + + & 6 & & - 4 l.~ t 3 4 4 0 0 3 @ + & * 3 0 q 0 b Z J J G C w 3 * & 4 q q 0 b b b b b b q n J n `  Xi.6.y.A.5.5.`.8.t.,Xa.F 6.h.^.2XdX=XdX^ B B N t 6 0 w m V ",
"- @ @ & 3 4 0 0 3 & 3 4 4 4 6 4 * 3 4 * @ + & @ + @ o o g G n m B C N 0 * * - + - s I 8.Z b 3 3 3 & * 4 * * 0 n i.m q 3 0 w 0 0 * + @ & & * 4 t q Y t G b b B P r * & - 4 0 0 b q q b n b b B F H z.J.].F.}.e.A _.F.B 0X^.3.7.c.H.|.fX=X XW.I Y r t / _ N 0 t w ",
"o + @ & 5 0 N N 4 3 q b q q r 4 3 3 4 & + + - + o # X 1 &.^ B m t b q 0 * & * * N G n I b B q 0 3 * 3 6 3 3 q e.^ q 0 3 0 4 r q * @ @ + @ * 4 r 6 u t i.n 0 3 q B u * & 3 4 4 b b b b n n b b B b ^ c.*XdXy.F [.v.^.fXjXOXOXdX5XhXaXs..X%XD B 0 3 4 4 u ~ 8.8.#.",
"X + & + & 5 t B b t D Z n b 0 r 0 0 0 - + + - + + + % ;.~ ( q 4 0 q 0 4 3 3 4 t b n b D n D b 0 3 3 4 r 0 r n H.C 0 0 3 4 3 r 0 3 @ o o @ 3 4 4 5 r N z.b 0 3 0 q n V 3 3 r 0 B n n Z Z C b q b Z y.y.d.^.F f._.m.=X`.(.m.(.'..X^.`.9.5X).0.y.` I B m q C y.|.@.",
"o + & + @ 8 E b ~ G e.F F n q t r 0 r 4 & - * + + & { %.M.N 3 3 6 6 * 3 0 q t 6 w b G H H G b t 4 3 6 b B b t.W.b q q 3 3 3 0 0 3 @ X X + & 4 0 5 a b C 0 3 & 4 0 q b C w q b B Z n Z n n t q B 4.).8.b.z.E. X3Xd.a.s.j.q.q.k.n.a.v.=X5X2Xs.9.U I U 6.y.e.a.fXW ",
"+ @ + o & 4 ) ^ B y.c.9.H Z b 0 6 r 4 6 5 3 @ . o u n _ C 4 - * 6 * & 0 n t 3 3 4 t b G e.G B n q t V t H G c.V.n b q 3 4 w q 0 3 & o X + & 4 4 * j q b r * @ 3 0 q n Z C C b n Z 6.6.b G B D H A /.b.v.4X<X6XsXoX=X/.v.v.2X).=XdXoXgXfX5X^.~.4.6.x.e.K Z a.oX&X",
"+ + = * E K.L.y.F v.s.a.f.F n q w 6 * & @ * @ X & e I C b 0 * & 5 - y N b 4 @ @ * t m B G F U H Z I ( N ` B A.G Z b q 4 4 0 q 4 3 - o X + - 4 3 - j e B b 4 @ * 4 q n J J 6.F G A 9.e.0 u.G 9.7.9.).0..XlX.X.X_.2X|.f.v.'.hXVXMXxXdX.XaXlXdXXXm.w.m.g.A S Z a. X",
"+ - y o.yX>XI.r.6.u.c.s.q.7.Z n t 6 @ o + @ + + 5 t N q q 3 & 3 6 6 r 0 0 3 & @ * 4 r G B D e.e.Z Z n G U G N.B B B q r 3 4 b 4 3 - o X + - * * & l L N q 3 & * 0 q n F F H 6.8.H D D / ^ n 4.s.9./.F.xX_.g.g.7.4.A f._..X_.8XAXZXnXnXnXZXZXZXfXoX_.n.h.7.n 7.c.",
"5 8 : z i + 4 r.S y -.1X/.h.7.U B w + o o @ & 4 q t 4 6 6 @ & w w 4 3 5 4 * - @ & * q u.B D 8.F 6.A.t.8.F e.e.n n b 0 r 4 4 n 4 4 * o o @ * * & @ { C 0 6 * & * r q Z A H Z 6.v.).D G I B S.(.d.a.s.dXmX3.a.A.S./.*XfXsXg.R.ZXZXkX,XY.I.%.&.=.-.;XyXcXlX6X6.3.D ",
"i o o & 5 3 I C M q & X.qX_.c.C B 0 @ + & * 3 u t 4 & * 5 & 9 w 5 - & 5 5 & = @ = * V R.G D q b ).).m.y.H S.4.n n n q r 0 0 n 0 3 * + o & 3 * * & a C q 4 & @ * 0 q J 6.r.y.H Z P.` n D R.%XfXb.s.v.sXbXW.4XkX%XkXkX2Xu.yXAXpX+.L 0 * & 3 * & & + o 1 >.iXkX^.D ",
"o X o & 8 T G b b w 5 @ z 0Xn ' T 4 * * 3 4 4 4 4 @ & & 3 6 6 5 & & * 4 3 @ = @ @ - w y.S.i.N D  XG 9.s./.v.9.H Z Z q q q 0 n 0 3 & + + * 3 * * & 3 q e 4 & & * 4 n 6.H F e.H H 9.N.u.c.g.F 5XOXd.^.`.kXZXfXF.6X,X^ W.BXNXX.* * 0 4 3 * 5 - + # # o @ & & ,.vXW.",
"# + @ s E t B N u 4 4 - o *.Q.B n q 0 0 4 4 3 5 = o $ - y 6 4 * @ & - 3 * @ & + @ 4 q Z F S e.0.(.A.4.s.a.4.a.a.r.J b b ~ b n 0 3 @ + @ * * * & @ * 4 0 0 * 3 4 q G G b G t.U c.D ^ b.^.H H.6Xb.w.s.^.nXoXm.5XM.I uXiXX.@ & w r 6 3 * & * & + @ + o & y - + ] >X",
"e L T / N 0 N B 0 4 4 * + # ;Xl.G b b q 0 0 6 % X . & y q w * @ @ * * * = @ & - y t.H.Q.S.q.S.A.9.d.d.f.f.v.e.6.r.H G n e.Z n 0 5 = @ = - * * - & 3 4 0 6 * 3 6 q G b C e.D D.U V c.d.y.t.=X9.A D s.'..XF.0X} ;XCX,.* * = & 4 0 0 3 3 & @ $ = & o + & 3 @ $ + 7 ",
"b D t t t 0 V t 4 4 6 - @ o X.L.` n b t 0 0 7 X X o 8 0 q 4 @ @ * 3 * * * @ y ~ G.4X|.4X).y.u.M.L.t.m.n.g.oX*Xg.a.{.A.G Z Z n 0 3 @ @ = - * * * * 4 0 4 4 & & 4 q G b G 8.A ].W.R.y.c.y.f.0.A Z e.F.^.).0X@.rXNXW 3 4 3 & = 5 0 t 4 * @ @ $ & $ o + = @ @ + * r ",
"0 b q V V 4 ( y 4 b 4 + @ & f U.H 8.H b q w - X o 7 6 0 t * @ & 3 3 & & * ..~ D.VX>XT._ N - 7 y *.rXQ.f.oXb.}.[.4.G ^ U n Z b 4 & + o o + @ @ @ @ 3 0 4 4 & * 0 b B b b A 4.H e.8.u.N.a.s.F F i.y.H.{.<X#.9X;X4 q q 4 6 3 * 4 0 4 4 & @ @ + $ o X + + + & - t r ",
"* 0 0 m u * ( s 4 b 3 o + + = Y.t.9.H D B t * @ - 6 4 r 5 & & & 3 6 + @ x T | pX,.g 4 q q - - & X O 1.iXhXS.,X|.^ b B G n Z b 0 * + o + @ & & @ + & 6 4 4 & 4 q b B n H q.Z q B G _ 8.9.a.^ ,Xc.i.%X,XM.7X#.3 r b q 0 0 r 3 0 r 4 3 * & & @ + o + 7 W R L y r - ",
"& 4 4 V y : V L e b 6 + + + @ I.A.F.f.8.G B 4 5 r 0 w 5 & & & @ 4 5 @ [ u } ;X1 + 3 V B q - # o X X X ,.zX5X<XH ` I.` H b Z n b r + o o @ & @ + o + 3 4 3 & 3 q n D H e.z.q ~ ^ C U 6.A 4.6X).F 1X4XD.qX/ b q q n n n 0 6 0 0 0 4 4 3 & * & & 5 6 y #.N 4 4 3 = ",
"& r 6 s Q f V t t t - o o + * ) c.e.e.U G D b b b q r 3 * = + @ 4 3 [ R W o.& & - r C ^ - X . o o o $ o ,.cXN.Z b ) R.n b A Z b 0 - + o @ @ + # o + 3 0 4 & * q n D H n b G c.S Z.` n G 4XoXZ u.8X}.,X( Z t q b b U e.0 4 w 0 0 0 0 3 * 5 5 5 6 3 E L * 6 4 * = ",
"4 r $ 5 P 3 P t 4 & o o o + & &.D.A.H e.U n b 0 e e 3 & = @ @ - 4 k W l f & 3 r 0 b M V @ . . + o X # o . CXE.Z M b H 6.Z 6.4.b 3 = = @ @ & & @ o + * q r 3 0 N B G n q V N.G ^ W.m #.kX Xq.N.1X6X*XG n B b b q q ~ ~ b 0 q 0 0 0 w 4 4 * @ + * L P - * 6 & & @ ",
"b 4 X @ t y B t & o o + + o & %.5Xt.U G G b 4 3 4 r * * 9 : & 3 u T l : & - 4 q b C G w + . X o X . # O   2.0X4.H ( C e.J 7.4.b & o - & @ & @ = + o 3 6 0 0 t B G C m u.C.e D v.fX0X8X*X9.r.3XkX1XH Z Z Z Z q 0 b m 0 n q b 0 0 4 0 0 4 & @ * t N 4 @ - & + @ o ",
"T & . o * y V 0 @ o o o + + 5 C y.H ( N q q 4 3 4 r 4 r 8 @ & t / R = & * 3 0 0 N I b 3 o X X X X . # o o % :X^.8.G ~ H i.9.6.b 3 + @ & @ + @ @ + o 3 0 q b 0 N C t t ~ r 4 G d.2X/.4.f.8.4XkX4XH 9.8.F A 6.b 4 q b 0 G N q w 0 4 0 N u w 6 0 0 3 & * @ X + + + ",
"T @ . o - 3 e t @ o + + @ 6 6 L H H B q 0 4 3 4 3 0 q 6 & @ 3 ( &.- @ - 3 4 t t t q r = X .   . + o @ o o * Y.D.9.8.C e.` r.e.b 0 & + & + o + + o + 3 0 4 q b q N y * q 3 4 I D B n Z ` :XlXhXy.6.s.6.8.4.8.n 0 0 q 0 G B 0 4 r r 4 6 w 6 3 & & @ & @ o o o + 5 ",
"m 5 X + 5 4 q r @ + + & 5 3 : { c.u.b q 4 * & 3 3 q w @ + - P M.8 @ @ 3 4 0 q 4 0 q r + . . . X = ; @ X @ y $.E.y.,Xe.e.^ H F B q & @ 5 3 & @ @ o + 3 4 3 4 q q u 3 & 4 3 3 C 0 t B I I.uXvXF.0.9.H H.A.y.6.F q 0 w 0 D G L 0 r 4 0 4 3 * @ @ + @ @ + o o + - 8 ",
"b N & @ - r q 4 o + - 7 - + 1 Q ` C n q 3 * * * 0 b e 7 y V Z.L * @ & 3 4 0 0 3 0 q 5 X . X X o - W @ . i t j :XM.M.H 9.e.7.H b q * @ 4 3 = & & + + * 3 3 0 w 3 3 - @ 4 0 3 / w q 9.L.yXvX<XA q.9.V.@.0 ) t.F b 0 4 0 H V e b q 4 q r * & @ + + @ + o X o = ; o ",
"w 6 5 & & r C u $ = $ o + o +.C.Z.b D q 3 * & * 0 q q G D C.I.3 - @ 3 0 0 0 4 4 q 0 = X X X o + & T - = y 0 3 T.R.M.F 4.f.r.J b b 0 3 t & o & @ + @ * * 4 q 6 & - 6 + - N 3 { N G }.kXqXcXn A j.d.^ 0 0 q Z 3.n q 3 4 8.m 0 b q 0 q 6 & + + + @ + o o + = # .   ",
"3 & + + + 4 C L $ X X X X + I.N.` B n b 4 * & - 5 4 q Z C ;Xr 4 - & 4 q q 4 0 3 q 4 + X o o o o + t r 3 6 4 & -.L.N.Z ].].7.A b b N q t * + $ @ o @ * * 6 0 - + & 5 + @ b 4 h B.).kX1XBX%.n A q.a.D q r b n r.C 4 3 0 F B b n b q w 6 & + + @ + o o o = $ . . X ",
"3 @ X . X * b k o X X X . 9 I u.B 0 0 4 4 3 * 3 * 0 D n T...3 3 * 3 q q 0 0 4 0 b - o + + + o X + 8 8 3 6 4 & -.z.Z.n s.9.h.a.I n n t 0 5 - & & @ @ * 3 3 5 - X # 5 @ + N t & E 8X0XeXrX3 Z A q.n.6.T t b n 7.t.q 0 b D n D D n b q 0 - @ @ + o o o 5 = . . X X ",
"6 @ . . . & b W O X X o o y G I q * & & * 3 y - 3 N F u.*.& 3 * 3 4 q t 0 q 4 b b * @ @ + o X X @ 5 & 5 3 3 + *.V.^ H A 4.h.g.e.6.8.G b q q 0 0 4 3 3 3 * * - o o * @ X r B u ^ MXuXpXf 4 B 4.g.q.4.b 0 b B A M.) 0 r G n B H Z n q r - @ @ o o @ 8 ; X . X o X ",
"3 # . . X - N o.X X o o + 6 b b 3 @ & 5 6 5 y 4 r B U I.; & * * 4 0 0 q t 0 0 B q - @ @ + X . o * d - 3 4 * o +.:XZ f. X[.A s.U 9.r.H G B B b b q 0 r r 4 - * = o @ @ o & G H 4XVXzX-.4 y G 3./.s.F q q b n 3.G T 0 3 b b n F U n N R * @ + + @ i ; X . . X X X ",
"5 o . . X * B j o o o o o 6 b b * @ * r r w 0 q C A Y.X.o & & * 3 0 0 N b q C G 4 & & @ o . X @ * 5 @ 4 4 & + o.<X8.5X!.2XA.4.f.i.f.9.F C t 4 6 0 t 0 4 4 r w - + + @ X o ~ S.VXBXwX4 t e b F r.4.H q 0 b n A G q r 3 t N b Z Z n B 6 3 3 @ @ i @ . . . X . . X ",
"- + . .   @ V f X + + o @ t C 4 & & 3 q t t q C H l.,.+ + & & * 3 0 q N q T ~ N & @ - @ o X # @ & - & 4 3 & @ W <Xz.R.D ^.).r.r.^ F r.H q * & & & 3 4 3 & 3 0 r = @ + X @ t.fXAXBXf 4 q 4 4 n r.7.e.V 0 b n J ^ w r 3 0 m n Z Z F B 0 0 5 5 p o . X . . X . X X ",
"o # X .   @ E  .X @ + + - e N * $ * 4 t b B C ~ B $X, o + & * * * q q q 0 b C 6 @ = - + X o $ @ * * 3 3 4 5 * l *Xi.f.8.c.9.9.H.e.8.H G 0 3 @ & & * 4 r & 5 4 * @ - - + y `.xXAX<.@ 6 0 4 3 b 6.H 6.` C b Z J H s 0 4 3 e G Z Z Z B t q V c o   . . . X . . X o ",
"  o . .   + W  .o @ @ & 5 0 r @ * q w t b b H I ;.2 @ + + & * & * m b t m N k & * - & @ o + + @ 3 * 3 * & = * O.*Xg.v.x.y. X].v.6.U I V 3 & @ * 3 * * 8 - * 6 * + @ 3 r ` .XvXpX= 3 4 4 4 * C 6.4.4.e./ e n n Z _ Y Q 3 b 9.6.6.Z Z B G e + . . . . . X . . o + ",
"  X . .   o k : + @ & 3 4 q r 3 C B 0 q t q B +.h o @ + + & * @ 4 t b b N L 7 * 5 & @ @ + + + & 5 & & & & @ * ;.&X[.<X/ ^ c.9.4.H b q 6 @ @ & - * 3 * * & * w 3 @ + @ s H %XZX*.@ 5 0 4 4 4 I 4.A 6.r./ 0 n n n t.M.Y 3 n 4.v.f.e.8.U B 0 - X . . X X . . . o o ",
". .     . $ s @ o & 3 3 4 q 0 _ f.n m ~ B C R h + @ @ + + * & & 0 b b q L k * 4 3 @ @ @ + + + * 3 @ @ & * : & *.&X%Xu.G V.G F.y.B b q 5 + = + + * * * & & & 4 * @ @ - R q bXiXL - * w 4 4 N t.n Z F F N.e b B B Z F B r n 9.9.7.a.G B B b r = . . X . . . X o X ",
". .     X + i o . & 5 3 r q | I./ q ^ ` H I - + * & @ + @ - @ * b n q t k 5 3 4 * @ & & & + + * - @ @ * * = @ wXE.qXu.i.` G y.H B b b 5 X o X o & * * & * * 4 * @ @ j Y C BXX.C C 4 0 4 q u.~ b B n Z 8.) b n b q B D b B H Z A 4.D B C b e = . . .   . . X X . ",
"X .   . X X i o . @ * 3 0 | O.7 z 4 C Z n 4 + @ * & @ @ & - & 4 b b 0 k 7 3 4 4 & @ & * & @ @ * * @ & * @ @ & 9XvX0XD c.V.B 8.B B n b 6 o X X + & * 3 3 5 3 6 3 * * $.0 |.tX+ B F B F N D 8.q 0 n B n F G.B q 0 q 0 q n t B B Z Z n n b B 6 o . X .     . X X X ",
"X     . . X i o X + 3 3 } } 4 l j ' Z.G 0 & @ * * & + & * * * q ` C L 7 * 4 r * @ @ * * * & & - & + @ & = @ 4 D.fXc.6.i.D.C H I b b q r + o o + & * * * * * 4 w 0 R W b 9X .@ t F B B q n G t q b B n F f.M.0 0 q 4 4 q q b J Z G B C b N & . . . .   . X X X X ",
".   . . . o 8 + o @ 3 L W t N 3 b M._ B 3 @ & * * & @ & 5 3 6 n U I j 3 4 0 r & @ @ * 3 * * * & @ @ + & @ & r y.a.9./.u.n I G N r 0 0 u @ o o o & - * * - * 4 4 w #.b ^ ;X* * 4 F m 4 0 N C C n n Z Z J 4.R.e 0 b e 5 4 B n 4.B D e.G b r @ . .       . X X o o ",
". . .   . o 8 @ @ @ 6 } 4 t 0 r _ ) t 0 3 & * & & * & * 4 b G G b b 4 4 0 0 3 & & & - * & - & & & & + @ @ * Y e.7.9.r.B b m n r * * 3 u ; X o o @ * * & * & - * 8 #.n U.o.4 4 * I t.0 b I N b n G J Z n H D.#.4 n ~ - * D H u.B n D b r 3 o .       . X X X o o ",
". . . . . o 8 - @ & R y 4 t 0 Z.N.B b q 4 3 3 & & * & * 0 G D n B t 0 0 0 r 3 & & * * * @ & * 3 = + + + + 3 @.e.k.5.6.b 0 q q 4 + @ * 6 = . o o + 3 * & & & & @ c V m ;X- 4 6 & t 9.n N ~ T m C H H A n Z y.1Xu n B 3 - B 9.C n B b B 4 & X         X X X X o + ",
"o X . X X + a g @ y u 3 4 q | 7X/ ^ B t - * 3 & * * * * 0 B n G B 6 5 y 0 0 3 & * 5 - * @ & 3 3 & @ @ + + : =.i.hX).e.C q q 0 4 o o - 3 = . X X + * 5 & & & @ & O.b @. .@ = 4 * 3 H n m #.C e q n A A Z n 9.].$.0 G u * N U ` D B n C 0 = .   . . . X X X X + @ ",
"+ . . X o @ a [ 3 Y 0 4 4 t I.Y b C b r @ @ 5 * * 3 * 3 C e.+XH q & & 3 4 q 6 * 4 9 @ * & * * - - & @ + + h @.L.W.{.H ` t q w 6 X . $ & - . . X o * 6 - @ @ @ g / b $.> * = 3 5 & G Z T ) N w 4 Z A Z Z b 9. X9Xy D _ & 4 t.` n D q q 0 @ .   . . X X X X X + @ ",
"+ X X o o o 7 =.l t t 0 0 } j 4 n b B t @ @ * * 3 6 3 3 1XA.i.S 4 * * 3 4 0 r 0 3 + + 3 * & & & = @ @ @ o .._ !.i.J.` _ t t 4 4 X . + @ 5 X   X o @ 3 - @ @ @ l N T [ @ 5 * 3 6 & V 6.` V b 0 r Z 3.A Z b H _.Q.C.D u.;.E 8.Z Z H t 0 r @ .   . X X . X X X @ & ",
"& + X o o o * 1X..4 t q L k 0 q B B n t @ + & & 3 r 4 ..:X` {.C 4 3 * & 3 4 4 4 & o @ 3 & & = @ + + + @ + *.I R.{.` ~ B b r * - o . o o - o   X o & 3 - @ + = O.q { % + * 3 4 4 * 4 t.M.N ~ 4 q Z 3.A Z m H k.].N.u.b ^ v.6.b n H C w 0 & .   . X X X X X + * 3 ",
"5 @ # + + o & zX,.3 q V 8 0 L q B G q 3 + + & & 4 0 3 -.N Q.M.t 3 * & & 3 5 4 * + + * * & * & + @ + + @ , -.D <Xu.t.Z ^ L 3 @ - + . X . & $   . o & 4 3 @ o f Q t x @ @ * * 0 6 3 * _ W.b ` w q Z 3.A n w C 5. Xt.N.w q n n b G G t 4 6 = X . . . X X X X @ 3 6 ",
"& # + o X X 3 :X>X0 C u 3 t r q b t 4 & o + * 3 4 4 z @.N.0XI b 3 * & & * 3 3 & + @ 3 * * - @ + + o + +  .&.u.zX/ ^ D.H q & + = @ . X . $ =   X + @ 5 8 = o [ V R , @ & & = 6 0 5 * E L.( b 0 n Z 3.3.n 3 u D F.u.^ k * b q b U G 0 5 & o . . . X X X X + = 3 t ",
"X X o o X = 5 ) 9XT F 3 4 Q u b b w * & @ @ & 3 w 4 $.~ &XC.t.G 4 * & * 3 3 * & @ = - & & & + o o o o X ,.$.U.0X~ U i.t.t * @ @ & X .   + 7 . X o + & 5 * @ { b ..O + @ @ @ & 3 r y E ^ z.b t n A 5.4.Z & 5 b U G.B _ - 0 0 q Z b 4 * + .   . . X X X o @ & 3 ~ ",
"X o @ = @ - 3 0 7XL.B k u w r t 0 4 - & @ @ * 4 0 u / D.N.G F B 0 3 & * 3 5 * & & & - * * & o X X X o + pX:XC.W.Z.i.F G t 4 @ + - o   . o 5 o . o @ @ - * 7 Y C f X + @ @ @ & * 4 W s n c.G b Z A r.6.n * * 8 N c.B t.Q 3 r b n q 3 - o . . . X X X . o @ @ y ( ",
"X o @ 3 r 8 L t.z.{.b ~ t 4 q r 0 4 & @ & & * r q G r. XH.t.H G t 4 * 3 * * 3 * @ @ 3 3 & @ + X . X o d 8XG Q.N.N.I 8.H C 4 @ + - + . . X - @ . o @ & * * a C l O X # @ @ @ @ & r %.w V c.i.b B A e.p.b 4 3 & r 6.H M M.q b n n b 6 * + X . . X X X X + @ & ~ ^ ",
"X o + 3 m y Y G.c.c.G 0 0 w q 4 4 4 * @ & * r 4 T.{.A f.^.F 9.H b 0 3 4 * * * & + @ * * * & + .   o o s c.y.|.^ n G G U b r * + = o .   . & = X o + @ * * P G z . . X + @ & @ & Q M.4 y z.v.B n 4.B e.N 6 5 @ - Z 6.C C ( b 6.H b r 3 & o . X X X X + @ @ 4 y.C ",
"o o + * N m b n N.u.G.u 4 t 0 3 3 3 & @ & 5 3 ..>X0Xy.Z 4.r.F B n b 0 3 * - & @ + & 5 * - & o . X X ; ) ` G.H.i.C C N b 0 6 3 + $ o . .   @ - o X + @ * 4 I ~ 1   . X o + & & 3 B.e 3 3 n H.t.n 6.n H V 3 6 - & B H R.B l.t.^ ~ q t 4 & X X o X X o @ @ @ P y.b ",
"+ o + 4 q C U 6.H M u.;X[ 3 6 3 * 5 & = * 3 l :XL.%Xy.y.G F D b q q q 4 3 3 & & @ * 3 & = @ + X X . o.i.^ D.8.I 0 4 r w 3 * * @ @ o   .   + * @ X + @ & y U E %   . X o @ & & V l.3 4 4 q A.|._ H b U u 3 i 5 * q Z A.C.B c.Z D V r 4 @ X X X X X o @ @ * u.r.t ",
"@ o @ 4 q B D y.i.F {.G.:X*.* * * * @ + - ;XuXD.H.P.Z t.b b n q 0 3 w 4 3 * @ + @ 5 3 & @ @ & # . . { 8.^ c.8.t 3 3 4 4 * = @ # @ #       X * * @ o + @ r i.@.X .   X + * * 3 U ~ 3 0 q n U  XD.n b U 8 3 ..c 3 6 t n ;.%.F 6.D t 6 4 & o X X X X o @ & r x.e.e ",
"@ + * 4 t B n e.F A.H.y.`.eX9X{ h h z -.;XU._ y.S.z.U c.b b b q 3 3 r r 3 & @ @ & * 3 & & @ & o   . y K G 8.D 0 * * * 9 * & @ + + @ .     . $ 3 - o o @ u A.W o X . . + * 3 q H L 3 q m D n u.F.I b / & 3 =.x * r 0 ^ 8 -.^ 4.F t 6 r * + X o o o + @ * / u.` r ",
"+ & - * 3 0 t n D e.S.q.~.}.jXfXcX<X1XZ.A.D.i.).8.U ( G B n q 0 3 5 * 5 & & & & * * * & & & @ X   X u u.C 8.D 4 * @ + > 3 @ @ @ + = X       o * 8 = o @ T t.8 6 # . . X @ 4 G F u 3 b b n b B S.U.N R + 3 l.c * t q H V 8 _ A H C w q 3 + X o o + @ @ 3 t.C ~ w ",
"- - @ @ * 3 q b C H i.v.s.m.v.,Xf.y.A.S.W.^ H F.y.9.8.G n B t 4 3 * * 6 @ @ & & * * * & @ & + .   + C i.G 6.n 3 & o . % 8 @ @ @ # & o       o & 3 j + # / ( * u g X . . & I J G T 4 B n n b q 8.].M.r @ 3 z.a & r 0 M C w t F A F B b w = X X o + @ & L ` I C 3 ",
"& @ @ * 3 4 q b b C G y./.s._.2Xy.n G i.~ U r.y.[.y.f.e.G B m 3 * * 4 4 @ & & & & & 3 = @ & o     @ n A H I 0 & + o . X 7 & @ @ @ & $ .     X $ & y z : z.R & 5 8 < . o R U B b N t C G Z b B A q. Xx @ 3 F C w q 4 n U t q B Z Z Z B r * o X + + @ 5 _ r G C 3 ",
"@ @ * 4 0 0 q q q B y.f.~.q.s.~.^ m N G G F f.6.H K e.9.G B T 3 * * 0 4 * & & * & * 5 = @ @ X   X 4 F 0.H B 3 + + X   . p * = @ @ @ = X   . X = @ 4 ) } z.i & - r y 7 l L q b b q r t b H n C Z 3.S.<Xj W e.( C n n Z 6.G b b b F J t.q 3 + o + @ & k Y 3 H N 3 "
};
