/* XPM */
static const char *sangue_SO[] = {
/* columns rows colors chars-per-pixel */
"128 128 195 2 ",
"   c #020101",
".  c #0B0304",
"X  c #0D0805",
"o  c #040208",
"O  c #0D0508",
"+  c #0E0A0A",
"@  c #130505",
"#  c #1B0506",
"$  c #140806",
"%  c #1B0807",
"&  c #140609",
"*  c #1B0609",
"=  c #150909",
"-  c #1C0A0A",
";  c #1D0C10",
":  c #151515",
">  c #181818",
",  c #230506",
"<  c #2A0606",
"1  c #220807",
"2  c #2A0907",
"3  c #23060A",
"4  c #2B060A",
"5  c #25080A",
"6  c #270909",
"7  c #220B0C",
"8  c #27090D",
"9  c #260A0C",
"0  c #270A0C",
"q  c #210C0D",
"w  c #250C0D",
"e  c #260D0F",
"r  c #230A0C",
"t  c #290908",
"y  c #2C090B",
"u  c #2C0A0A",
"i  c #2E0A0B",
"p  c #28080C",
"a  c #2A090F",
"s  c #2F0A0C",
"d  c #2E0B0E",
"f  c #290D0F",
"g  c #2F0C0C",
"h  c #2F0F0E",
"j  c #2B0B0C",
"k  c #320505",
"l  c #350707",
"z  c #330606",
"x  c #3A0506",
"c  c #340907",
"v  c #370807",
"b  c #320A07",
"n  c #3B0907",
"m  c #31070A",
"M  c #33060A",
"N  c #3B070A",
"B  c #350808",
"V  c #320B0C",
"C  c #330B0F",
"Z  c #320C0D",
"A  c #360C0C",
"S  c #370C0E",
"D  c #330B0C",
"F  c #380B09",
"G  c #3E0B0C",
"H  c #380C0D",
"J  c #390F0D",
"K  c #3E0D0F",
"L  c #3B0B0D",
"P  c #26100F",
"I  c #2C100F",
"U  c #34110E",
"Y  c #3B100F",
"T  c #250D10",
"R  c #250D11",
"E  c #2C0D11",
"W  c #300B10",
"Q  c #330E10",
"!  c #360E12",
"~  c #330F14",
"^  c #330D12",
"/  c #3B0A10",
"(  c #3C0F12",
")  c #3C0D12",
"_  c #3B0F18",
"`  c #251011",
"'  c #2C1012",
"]  c #341112",
"[  c #3B1113",
"{  c #3D1219",
"}  c #232323",
"|  c #292929",
" . c #333333",
".. c #3C3C3C",
"X. c #4F0503",
"o. c #440A06",
"O. c #480906",
"+. c #460509",
"@. c #42070B",
"#. c #4C060D",
"$. c #43080A",
"%. c #410B0E",
"&. c #400D0D",
"*. c #430C0D",
"=. c #48080A",
"-. c #4C0C0D",
";. c #550807",
":. c #5F0907",
">. c #530F0F",
",. c #540C0D",
"<. c #5B0C0C",
"1. c #45110E",
"2. c #4F110E",
"3. c #4C110E",
"4. c #53110E",
"5. c #5A100F",
"6. c #5B110E",
"7. c #470710",
"8. c #490712",
"9. c #440E10",
"0. c #410F15",
"q. c #430D12",
"w. c #4C0D12",
"e. c #410E18",
"r. c #4A0F19",
"t. c #530D12",
"y. c #5B0E13",
"u. c #520E19",
"i. c #441114",
"p. c #4A1013",
"a. c #4C1214",
"s. c #441218",
"d. c #4C1219",
"f. c #541413",
"g. c #531213",
"h. c #5A1010",
"j. c #5F1716",
"k. c #5B1214",
"l. c #5C1817",
"z. c #52121A",
"x. c #5B1419",
"c. c #65070D",
"v. c #630C0D",
"b. c #6A0C0C",
"n. c #700707",
"m. c #740A07",
"M. c #7F0608",
"N. c #730C0C",
"B. c #7C0C0D",
"V. c #64110D",
"C. c #6D110E",
"Z. c #72120F",
"A. c #72110E",
"S. c #7B110E",
"D. c #630E11",
"F. c #6B0F10",
"G. c #6B0E13",
"H. c #630F18",
"J. c #730D10",
"K. c #730E12",
"L. c #7A0F11",
"P. c #641516",
"I. c #641214",
"U. c #6C1013",
"Y. c #6C1213",
"T. c #63131A",
"R. c #6B1519",
"E. c #761011",
"W. c #741713",
"Q. c #741113",
"!. c #7B1215",
"~. c #781812",
"^. c #741319",
"/. c #7C1219",
"(. c #414141",
"). c #4E4E4E",
"_. c #535353",
"`. c #6B6B6B",
"'. c #747474",
"]. c #820B0E",
"[. c #83120E",
"{. c #820E11",
"}. c #831114",
"|. c #891114",
" X c #8B8B8B",
".X c #959595",
"XX c #A6A6A6",
"oX c #A8A8A8",
"OX c #B2B2B2",
"+X c #BEBEBE",
"@X c #C0C0C0",
"#X c #CCCCCC",
"$X c #D4D4D4",
"%X c #E4E4E4",
"&X c #EEEEEE",
/* pixels */
"  . W ( p @ . . @ @ . o # P.#   . . * p # @ .   . g 2 3 ! H g s C p * . . $ @ .           @ S L , @ .               @ 6 @ 5 % .       % 7 .   . 7 9 .   # S @ 7 .     # -.# @ *                             o                         o     @ * * .             ",
"q 9 s p.6 # C K $.9.g 6 c F.5..       . # L 7       $ 9 ! , 7 @ = @ @ = . .           . # C u @                   % k.L   . # # .     . 7 ) @   @ ~ * o . < s 3 .     o %.L . p                                                                       o o       ",
".     @ >.Z.U.=.c c l B u +.E.5.t .   .   # K @       7 9 @ # * @ . o o             @ j M #   o         @ * * u 2.W.J.z .     . * = .     6 / . 7 0.Q $   @ # .         * f.# 5 .               . . @ e f R - @ .                 . .   . $ 7 # .               ",
"      p -.=.z # @ @ @ . . # N -.w.L #       = Q @         @ @ . .               . 7 u < .     @ d.w.-.n K 8.t.v.B.:.x H j 6 % .   @ e 6 .   9 7 . # @ * % . .           . *.g @               . @ & .   . * * = e e @             @ _ . . $ # # * % = @ . .     ",
"  % [ L # . .               . # 1 B -.1.2 #   9 j .                           . C L , .     . j <.N.N.,.4 t C N N < j u L L w.-.s @ . C S @   @   @ . 7 E 7 = @ @ .   o   j b   o   . & * 9 ~ [ [ q.j @ .         . - -         . $ ! i.u i.4 # . @ # 9 # * O   ",
"] S #               . = = .       # -.Z.Y.u     u ,     o               o   @ V *., .     7 w.v.;.<.-.M # @ . .       # , < x $.$.-..   # K #       @ * . . 7 j C g j # . 7 a.u 9 f f g s p j , # # # , g j % .       = =       = 9 * , , L w.w.-.9.%   = & .   ",
"*                 . 7 s * . @ .     # -.<.*..   @ u @   o                 . 6 H , .     j x.-.,.-.4 .                   . @ , 6 L E.<.2 6 t.w.@       . = = . @ j # C H i.b *.I.2.g 3 @ .                 . % q =       @ 7     3 ! ] .       # < t.w.#   = .   ",
"  o               7 C 6 b M @ . @ o   1 ,.<.L     1 M .                   . 7 #     . H C.v.$.u .           . .             . . # -.L.<.*.4 # / &         o . X % % @ . 9 [ *.j # .         @ [ #           . . = % .     7 s   * @ ) %   o   o o . , K j @ .   ",
"                O e H t.,.=.8.@ . .     < O.<.#   @ L t                   . . @ b b >.E.c.x #           . % p % .               @ # @.<.#     . E $               $ & = = # .         = S q.9.Y.Y.9.u 6 .   o     % q .     E 7 . @ 9 g .     # , .   # y.t.% . ",
"@ . .           . $ S y.@   C M . .   o   b V.,..   C L .                     * w.U.L.D.#               = g 3 .   . O .           . @ L -..     . .           . = .       . [ *.4 *.y.H.y.<.h.v.b.F.*.9.w.*.*.*.T.9.@ R &   . Q 7 * @ E *   . C $.s @   # B @ = ",
"{ L #     o     . . 6 ,..   j M . .     o . F Q.z   @ s @             o o       3 t.$.#             o . ! S %.y.-., O .               . *.B   o                 s.C .       u Y.S.Q.v.-.%.K L N M M 4 p *.D.!.J.G.,   @ q .   @ E @ = s 6 . . C 6 # 3   . C # . ",
". b K 3           . @ %.L s q.@ . .         @ v.U.w.@ @ @           @     . @ ! w.u .                 @ p K y., , *.# . .             o . i.p                   @ g.I.*.*.9.i.i.*.< @ . .               . , L A H f .   @ $     - $ @ # f .   # u j # . . M M . ",
"    ) S # =       . * , u j 1 = .             2 <.L @               ) w.i.<.v.Y.L . o                 . . *.@.  o C j . .                 . w.,   .             O . L G.H.w.3 .   o o o   o     @ & .         @ C K ) *   - &   . e . @ % %   @ , , .     u %.% ",
"o   # 0./ 3 # .     @ 9 f 1 % @ .             . H ,                 . 4 %.>.v.k                       . @ 4 t.@ @ ) # . .                   @ C @ q .           R 9   ) # . o o         o   . - p % . . .       % C 0.d.6 . R .   e $ @ . 9 @             b a.j ",
"  j x.-.t.H , @ O . . . @ . .                 o 6 k.<             o o .     s W                       . & @ b K ) , @ .                   o   % @ @ i.#         % g   f e o o o o       o   $ e 6 # @ . . .     . = u 9.i.- * Q   = - @ . 9 p .     o     6 u C ",
"  @ t #   @ % % & & . . . . . . . .           o . -.Y.*.* .           % f o . s C o     .               . - p j 7 % $                         p g.. , z.3       = 0.@ % 9.. o o           . g H *.<.2.L @ . . o   . - g h.%.  S 6 . =   $ = @ e % .       e . # ",
"@   . - .     7 d./ % @ @ $ % # , , % % #   o . j L B *.w.f   o         S ,   % D.h.j . = = . . o o o o o @ 6 6 3 # .                         . I.*.  , w.@     . a.q.d.U.w.  &           . 6 S <.# . L t . @       . - <.Q.3 . [ .       & @ 7 i.b #     q . . ",
"% @   . 7 @ . ] , @ , E 9 g C b b F F A A i.f.t., .   . .     o   o o o * 1.H g.-.,.x.w., % 1 j 3 @ .       .                 . . & 3 u S s % @ w.=.  o i.s       S # . , k.C % =         . @ s ;.o   7 C . @         @ H Z.6.[ f.b         . * E # E * . % .   ",
"  .     @ % 7 @         @ E # B L , # u L u n t.j . Q p . o           o o b *..     @ C i.*.H 6 , , * # # @ . . o   .   . * 7 @ 7 S K L L t # C C . . 7 C @       9 p o o * a.g = E .   .   . @ w.s & q., . @         o * t.z # u !         . @     . = [ j &   ",
"            . = - * @ . .     . 7   o   R .   . -.p.1   o   . @ @ = = @ .   C j     7 E . @ u K L b # @ # # @ @ @ @ @ . . # # 3 ( w.j         .     . .           . Q . = E % ( S 1 E .     . * 1 / C 3 & & .           . ) / o o q %       . @ = @   . * f =   ",
"                . = # % q # * % 7 9 s 7 @ . @ p L #   o   . @ & . . . . .   @ ! *   @ . .     # q.l b ! e 7 # # % , 3 7 6 H g.g.L #                                 % e $ @ o   0.S % E .   . = u 6 7 6 & .             o % ( . o . R           . * @   . e .   ",
"                              . @ @ # # 7 = 9 # .   o . $ s , @ @ . . @ @ . . % s * $ 7 / *   E *   . g # 7 j , H g., . . @ # L I.g.@                               . E = [ 7   . i.0.# R = . . # 7 * @                   . [ @     .                           ",
"                      o o o o     . & - = @ .         . @ j H S b t @ K # . $ . & 7 3 . # C C 7 @ . .             W 0.  o o o . 3 %.#         = e =                   ; . # _ @ R g B ! # * 7 @                             C C                                 ",
"                            o o o @ @ .         o = . . = 9 w.%., # # 9.q.  @ * & . % 7     . # * $ = = .         . *   . $ 7 7 @       . # C C #                     . f   @ ~ -     g ) - @ & = . o                     o * 0.o o                             ",
"                    . . . . .                 @ ' e - 7 3 @ . @ &   . . C f . . e .   * = .         . * 7 7 % 7 7 % 3 5 s 9 @       . % f C #                           * @   . - = o = . p ] 3 @ & & . . . o           o o . 7 = =                             ",
"              . = % e q % 7 3 # @ .           . @ E E       . t c C @ . . M 9.# # *     . .             . . . @ @ @ . . .       . = 9 p % .                               .       = - .     @ p r.p = $ # = = = % # # .     . E @ ]                             ",
"          . q R 7 @ .         . * s C =     o     * 7 * .   @ B -.t s # . . >.-.. 3                       o                     . . @ .     o                                       & f @       Q ) * 9 ] ) 6 ] q.0.9.( %   @ T.# U j                           ",
"        . = #                       @ e E @   o .   . E 7     , L . E @ .   , ,.@ @ #                                                                                   . . . . .     . 7 - .   % /     @ a.x.j p * # s ! 6 * R.t * d.                          ",
"    . o . @ . @ 3 7 - & = = & * .       . 7 %   = &   . H # . @ u C 7 @     o K B . j                                                                                   . & . & @ @ @ .   = f 7 = & o   o   d.g.  o       % [ b .   q.*                         ",
"      . Q ( , 7 7 @ .   o . 6 , 9 = .       7 E . =   q i.! . . % , @ .       # g.# 7 .                           @ % % 7 f Q p * @                                 O - * @ . . . . . @ X     @ = e g q - - 7 i.@               @ - s.#                         ",
"    X ] q.# .             9.a.  . @ * = .     # e 3 @ @ # @ = . . .       o o   *.C @                       & * 7 C C j 3 # 6 u j E g 7 @                           . 7 0.L b # j j . @ $ @         = & . @ @   o           o o . & &                           ",
"  = ! j .           . % t./.-.. .     @ 7 ' *   @ & .   @ @ 9 E = * @ .         j 6                   . 7 C C # .       o o       . # C ( 0.s .               = $ . = q L 4 , , L z.. . * @                   . . . . @ @ . o                                   ",
"% Q *   . . o @ p L w.Y.!.-.C L S [ C 7 . @ Q ) @         @ * . @ % 9 E p % @ . j a.% .           @ ! i.( , .     o               o o   . # s { s . .       = R Q % . . . @ .   . s / . @ 5               @ - f P C C g C e @                                   ",
"C #   o g f.h.g.K H 0.$.@.< 6 u C %.w.-.-.@   , d.6   o     . & @ @ @ 9 # f ( { $ , g .   o   . ! d.L @               o   o o o       o o     @ @ @ & .       . E @     @ b L 3 .   3 g., * @               & * @ @ .                                           ",
"@     @ *.V.C.>.b * @ .       . = % s H G.I.%.0.i.H q .         . . @ % * @ . p Q =   o     = s.C @                   o   . . .   .     o             .       .   7 ,   @ q.4 p # .   %.L . *                                                                   ",
"    7 g.D.>.=., .                 . & = L V.h.< .   % P .             . = * = = @ o o o   q ~ #     o o       . @ = - 7 g g g C ! ! ! ) C 6 @ . R % o       . =   . g @ . 6 j 6 @ .   @ w.@ 3 @                       . . . . .                                 ",
"  # k.,.p.L .       . - = .             X , w.Q       . .             o . .       o   . ' E     o o       $ q f e 9 % @ . .   . . . @ j C B g g 9.d.g @       * @ . [ f . # C 3 .       U C # #   o             . $ 7 q * @ & & = &                             ",
"1 h.I.0.3         . e p @ . . .           . # 0.S     .                             @ { ,       o o   . E ' e % @ q @                     . @ % j w.p.C 7 .   . * . # @ = @ . .         # w.% @   o         & - & . .           . & = .                         ",
"I.V.L @   o     . f b j L j . . .           . @ ) !                               - s.#           . & % - @ .     g.K.@                         . @ C p.( f $   o . . @ q % % @ @ @ .     L @   o       o = & .   . . & * @ @ @ .     - &                       ",
"E.b             & / L y.-.-.7.. & .               Q S . =   o               o   q ] .   o       * E 7 @       . . 2.[.F.,                       o o   3 w.( g % .     . @ @ @ 7 s u 6 7 # ) ! .           @ % 7 % @ . @ . W # . & - . . @ .                     ",
"u o             . 3 -.#.  o L , . .                 p # 7 ( @                 - { .   o   . 7 ] 7 .             o S Z.|.!.>.1 o                           S i.s - .       . . @ = # 6 C / = 7 @   o o . 7 i.j . % 7 7 % . a.*.    . % # % .                     ",
"  o             . O L #.    / 3 . .                 . [ . j f.%               7 . o   o % i.K @       . . # 7 6 ! i.-.F.{.{.Q.I.*.2 6 % . o                 % [ H j .         . & = @ @ R %         . - @ , 0.w.h.$.=.L V $.Q.G . o o . L j                     ",
"                . @ @ -.C / W . . .         o o       i.h.  * i.=                   & Y f.u     @ 6 g 0.d.0./ s f p u u <.L.c.G.v.>.V.>.K ] S u j u g .       @ S C q @           . . .                   # -.<.l # # # @ @ @.>.*.6 .   . C *                   ",
"                  @ = , s 6 % # @           o O @ @ . , k.# o ~ C                 u f.1.# o o j [ [ 1.D.*.j 0.w.[ ) / L $.,.-.*.0.4 < M K g.Y.L.S.!.8..     o   @ g f g =                         .   . Q ! , . .             @ 6 *.a.L @ @ p @                 ",
"                  . * E p 7 % @         . & p 0.i.) t [ 3 . = - .           o . K f.b . o   . 1.3.*.9.=.-.K u , # @ . . @ @ # # 6 E R e i.<.C.B.N.D.M .           & Q f ) 9                 o = E * = P # .   o     . . .     o   < v.v.6   # 7   o             ",
"%   = = = = .         . @ @ .     . = = % ) i.j @     .   o                   ) ^.-.#   . % 2.E.J.w.) C # = 7 = .         o o       . # L t.>.v.>.-.Q.<.V .         @ ] H 9.s .           . I ) 3 u 6             - 9 @ .           2 >.-.#   7 #               ",
"R.p.u q p p , 7 % @ @ & O . & @ . @ 3 % Q 0.#                         o   . { q.b k.P.P.H.Y.S.m.>.9 % - 7 % @ . .   . * - . .             # B y.h.,.<.v.I.i..         @ [ *.i.E           . ] . g a.. o o       X C F =.j @       o   < ,.L   # C .             ",
"# 6 i.0.[ ( b j * $ @ @ @ . @ @ % f _ z.x.*.# .   o     . .             = s.b     . , L <.N.N.v.2 * - @ .       . R ) W 9 @ . . . .           @ *.F.y.*.-.E.g..         @ 9.K ] E           . . 7 s @ &         . C w.@ C , .           L I.#   W ,             ",
". E *   @ 3 ( 0.C ~ R E f f d./ @ @ # . t y.9.  o   . 9 ' $           R i.#   o o     . g.U.=., - = .         . Q s * = - * @ @ . . . .           6 w.a.L ;.C.=.@         @ q.C 6 7               @ % ) C @   o   # L . s # .           @ >.<.@ * 9             ",
". @ & &   & E   @ E @ @ @ . , s.@     . = = .     = ~ p .             & .             a.I.C # - .   o     o   E 7 % 9 e @ . . . . @ . . .       o   . S a.a.v.N.I.6 .       . 0.6 . @         .       . C ) @ o . @ u g j @ .             , F.u.# .             ",
"9 % e ] f E * . . .           = * . 7 e *     . e ] *                           o   [ k.M # # .       o o o 7 6 C ) C # * t @     @ @ . . .             7 t.v.b.L.>.6 .       . E &           = %       @ K u = . @ , j # . .               V j   o             ",
"= p .   # 3 % = = - 7 * @ = = = 7 7 % .   . = R E @   .                           H I.u . @           o   . g C a.A 6 y.B.B.N.-.@   @ X . .             o . u g.C.S.D.*.L u #     & .           9 %   . [ w.w.W $ . . @ .                   * t.,               ",
"  & R &           . @ * * = @ . .         . & &                             o   g P.M . .                 = 7 H Y 6 b.M.X.< l b.v.. . @ . . .           o     # k.].{.S.}.^.i..                   7 =   # 6 @ @ * 9 = @ @ @ . . . @ . .   o O =.I.Y 7 .         ",
"    . & .                                                           o o       j R.z                       = * ! u %.].x   o o # D.@.  & . . O                   @ y.<.L.l # .                     . 9 *   = =   @ { g 6 6 = 7 7 p C p % , u 9 j , u 9 .         ",
"                          .                                           O .   b P.< o                       @ @ p 7 c.n.. o   o   l v.  @ & . &                     @ w.t.w.  o o                     . @ .   * % % @   . @ q 9 / / j s ) 0.y.L . - $             ",
"              o       o o                                           @ [ . @ T.<   o                       . . = @ <.b.  o       < D.. @ & . @                       * ~ *.p.@                                 . @ = @ .   .   * =   . p . . S i.7               ",
"                . . @ = - q p % & . .                       o o   g i.# . Q ,                             . . & . L B.# o .     -.-.  @ & . .                         = p y.I.F ,           @                       @ = % * @ = 7 q 7 @ @ - f # .               ",
"            . - e 7 * * @ @ * % * @ % - & .                   . p.I.#   7 j   o o                         . . & . @ c.c.# O . L G.# o & . @ .                           % g.[.b.g.w.B , , i.d.%   o       . . .                 . @ * = % &     o               ",
"            . .       o o             . = ` @           o   @ l.G.#   . i.H                               . & X @ @ @ <.G.<.y.y.,   & & . O                               # t.J.C.}.}.!.!.I.L .     = = = - % O .     o     o   o & & .                         ",
"          @ = 6 s e - = @ @ = = @ .       . 9 #         o = R.y.#   @ d.}.z                                 & . % - $ . # , # . . = = & @ .                             o   . -.v.-.l < , @ .   . = & .   . . # b j % @ @ .                                     ",
"    O R R ! x.M 3 # @ @ . . @ # , - = .     . E @       . l.,..     *.|.<.@ o                                 = @ E g S s = = q / q . . .                                   ( a.@             . @ .   . @ - % @ # # 7 p 6 6 1 # .   o                           ",
"    . . @ . / ( @ # g j * .     H j   $ - &   . E @     V Q..       9.E.# o         + =                       . * # s ) C E E Q p @ . O                             o     ] H.<       E 3   @ -     @ * @ .       . .     @ 6 S b @                             ",
"            . g.Z.Q.>.$.w.[ 9 - I.-.  . @ q 7   . R . o # T./ .     t P.*.# f g a.9.L g f *                       = % 7 * * * @ @ . .                 .   . e 7       # i.9..   o   s z.. . R . . = #       @ # V g.L , @       # & o                           ",
"= @   . 7 ! i.*.-.$.u u u B K 0.-.^.,     . 9 9 . . . o   @ / W % . o @ g.0.1 g L y.H.g.( / ) g $ .       o o o     . * * @ . @ .             o   @ q R - ] 6 .   # w.^.F.#   o o @ x.,   R @   * * q.a.*.9.[ F h.v.<.<.<.4.L B f       . .                     ",
"= @ ' _ / 4 # @ @ @ & @ @ @ # % C J.h.@       # Q % . o               o . &         . , 9.w.4 , 7 e Q g $ .               o o o           . $ 7 C [ U g % . . g h.~.[.m.Z.!.t.# o a.L   O &   @ .   M v.v.$.# # # # , , z =.5.Y.*.@ @ , ] .                     ",
"j 6 # .       o         . .     @ L >.w.%   o   6 i..                   o o         o   . d.Y.>.<   . 7 f 7 * @ @ @ @ . . . . . @ = = e E ] g C , @ @ @ 6 d.k.w.t.o.< < 4 N k.g.*.I..   =   . @ . 6 b , @ . .           o o . 3 B 4.6.t.6 o                     ",
"r..                 # 9 7 @ .     . 6 A ( 7     . ) j                                     . < $.g.9., . . . . @ @ % 7 7 7 6 % q f f 6 6 * . . . $ V p.x.k.$.*.B .   o o o o   B P.z   * * . - @ S K < .   % % .           o o o   @ K # = .                     ",
".                 @ f 9 &     .   o   % K k.9.@   * ) .                                 o o   @ M g.W.Y.g.Q 7 & . .         .   o o o . @ s Y p.f.v.$., .   . ! d.@       o 7 f.b     - . E @ g -.t .   * b L C @ . .         .   . p . ~ .                     ",
"f %             . f S L t.w., . @ . o o C I.Q.a.O   g 3           .                       % l.!.!.D.L < < , p Q ) ) H 0.L j 7 p C C ! 0.( w.=.-.L @       .     Q S   o   % d.b o o o . * 9 # I.L .   . # *.-.b ! @ .         O   *.t.V (                       ",
". ] q.@         . p L v.x < 8., . .   o . w.<.-..   * s .         = E p @                 g.!.:.z .               j I.y.L B *.9.L t # d.@ . . # g.j         = .   .     = g.t   o       ( 0.a.v.#     . @ %.u   W # .       . = E -., , 9                       ",
"    S ) @       . # L =.    , b . .       3 y.y.<   . u #           @ K g.! @             , u @ .               % R.%.                ! 7 o . o 7 a.    . % i.% = % @ @ s.t           & 9 @ u N   o   o . , S s p @ .     @ 3 g q.%   T &                       ",
"o   @ r.E @     . . , t.# . ) 6 . .       . S >.-.. o j j               # 0.d.E @           . E ! E = .         1.<.  .               . . o     . * = C i.i.H g q * p ! #             - .   W #   o     o @ 6 j * @ .   @ % S f . = @ %                         ",
"      E ) % =   . . @ u / Q C @ . .         $ a.D.# o % [ .                 , i.] - .   o o o   . * s E = .     % .                         . % ' [ *.B 2 # .     q ~ .                   . Q . o         . * @ .   . @ % Q /   = 7 - @                         ",
"  . s.w.a.j 3 @   . % 9 6 t - # .             C Q.b o @ i.3                   @ g ( g 9 @           . - C ] I 6 @ . .       . . @ # 9 Q E 7 % 7 * @ .     o   . ] W .   o             o   7 7   o                 . @ * E , 7 - p @ = .                         ",
"  . _ H %.u.7 @ .   . q j , * .               @ I.>.    ! p                 o     7 ) 9 E p .         @ * 6 p p g C E E ! / ( ) ) ! Q * @ .           o o   = { 3                   o o & % .   o       o .   . @ = 9 e % . $ 7 . X .                           ",
"=   $ =   . 9 9 @ = O . . .                     w.!.-.. - - .                       * R = 3 9 &                     . , C u 7 @ . @ @ .     o o         . R E .                       $ 9 7 @   . # % $ & * # = E E *   . = .     .                             ",
"7 .   7 &     # Q # = & .                       p g.-.7 . @                             * .   .                   . $ % .   . 7 g . . @ &   o           = & o o                       I 3 a., $ ] L *.H q.) % # e..   @ - .                                     ",
". .   . e @ . [ d.0.% @ , * = .                 & i..                                     o                     . % @ & 0.b b u.L % 3 # = .                                         . { @ C ' * @ . . S d.#   . = @ - =                                         ",
"        = e % * . . p / % @ 3 7 % * @           . d.*.                                                        . q @ 7 -.G , @ . @ , L S g *                   @ 7 7 % 7 * .         @ _ @   .         ' j @ % % % * .         o o O - = . .                     ",
"          . 7 =       . E _ Q s s s % = = o   o   L Q.u                         . & - = % = .                 . * [ i.,   @ # @ .   @ ( M @ .           @ - e * @ . . . . & 9 7 @     . .               o   . .     . . @ # % 9 e # @ . . = @                   ",
"              = R & .   . * # ( L ( ) S g j , % P A >.T.( % .           . % R 7 = @ @ # # % % 7 @           @ . s L .   . s L C @   o . q .         o % e @ .               . 3 f R @       . q p , 7 = @ .   o o @ u u , # # @ . @ * = .   O &                 ",
"                . * 7 7 @     E @ . @ ! S -.U.-.6 #   # H ( .         7 ~ f # .               @ p E =     o = [ L       . , L # j .     . 3 $ .   . . .     . @ = & = @ . .       @ - % .   . . . @ @ $ . .     o # @ .   . * E #     o O .   @ @             : ",
"  . O .               @ = = % 9 * O . = 9   3 d.#   E -           = - = .       . . . @ . . .     . 7 @ o   . % 6 7 @ .   @ u s # .     . 7 ' q . . % 9 % 6 e % & @ & & % 7 7 @       % e @               . q .   $ { 0.p.2.2.D.y.C p # # 9 @   - =           > ",
"@ @ = & = =                 . * e Q E $ @     j a.{ s .       . e q .       + 7 p = * * * 7 p s 7 . . . o   . - g s E E = . # # . . = p 7 - % = . - i.u @ . .         g ) . & = & @     . R =             . E i.K S w.-.b < < , , # U x.T.C @ @ . -           : ",
"7 # # @ . . = .             o     . @ 9 * 9 Q H b #         . E =     . = = = & . ! 3   o     @ % , ! ] .       $ @ = 9 9 @ . @ . - i.3       . g ) # . o o       O C W.$.      . * - =     R @           . @ t $.# .       . @ . . . # b j @ . . # &         : ",
"@   o @ & .   = .             . = 7 - - * = .               & .   & ` % @         u.Y.#   o o o     # H ] @   o . & = # @ & . * % . % @ @ = $ W W .       o @ 6 S 4.!.:.n j e p % . @ E ~ #               . e , 7         @ < b s #     @ C H # = . =         > ",
"k.C % % 6 E O . T               . .                           @ ! ] # . # 7 e q p L b.Q.%.# . o o o   . W ) &           o . . . @ . . @ $ % C 6     - ) *.*.K 0.w.<.-.M B L F -.w.K 9   @ H C .             Q / d.# .     @ N 0.M s . .   @ L L = = = .        .",
"z < C g.H.j . . @ O                                         g d.t   . ( *.a.-.K L C B v.F.g.0.E = . . .   7 Q @                         @ f 7 .     / G.E.D.C % % # . . . # 1 2 A -.I.H t 9.g.f .           - # 7 ( % .     2 C . g @ .     * k.< p @ .        .",
". o o . # S , @ . = .                                   @ ' g w.[ ) T.I.L C < , # @ @ # 4 s p / f.I.y.j     1 g #                     % [ j     . 0.h.,.t.M @       .       o . = 2 <.Z.y.9 . @ ' =         = = $ 7 ! 6 .   @ C s 7 .       . w.9.) *          .",
"z , .     , ( , = @ @                                 + P @     < Y.F.L % & . .           . . j >.b.D.H .   . % ' =                 = [ S . o . i.,.>.=.#       . q 6 @ . .       . , $.w.@     . =         o = 7 @ # ) # . . , 3 @ .         t * @ T          .",
"*.b 7 . o o M w.7 p .                                         . 9.*.< @ .       . = @ .         @ -.5.D.w.@   . f [ *             . f S @ o . a.F.*.u .     o . 7 6 # @ . . .         @ M i.@   o             @ @ 7 7 6 s * . . .       o o   @ E   =          .",
"C # s .   o . -.( ^ .                                   o   . i.H @ .         @ e 7 @ . . .       . L 3.<.w..   . [ [ @           . - . . @ -.Q.,.#           % H V -.t.M . . .         . t i.@               o . . - . * e % @ .               E .           ).",
"2 u # .       6 # @ =                                 .   @ s.4   o         . f u 6 t # . . .         j 2.Y.w..   * ) 7 o         o   * g.F.E.*..           . 7 b >.-., q.M . .             # i.# @ .                 * @ . % E = @ # . . .     = =           ).",
"@ @ .         @ 9 . .                               - - @ s.#               = ] K y.w.w.t . .       o   * >.Q.%.@ . $ 7 .               , h.$.. o             @ 6 y.@ O $ q.@ @               @ R @ E %                 * @   s % - [ C C C %   E p =         ).",
".             . 7 .                             @ [ ] @ q @                 @ 6 <.N   @ q.@ @ .           . 4.B.F.9.. . .       o     @ [ S .   o             . @ w.4 . f / . .                 = 6 . i.) . o             O = = @ . f i.# @ % 7 i.% E         ).",
"E 7 = $ $ * @   % e .                         % f.B . { s                   . @ ,., o o ( # @ .             # g.w.# o         - * 7 S I.4.. o                 . & * q./ / $ @ .                 @ T.j . 0.U o                 . * * . 6 .     . @ X ~ .       _.",
"q = # [ ) s p # { R 9                       @ d.#   K T.@                   . . < w., C B . . .           o   * w.6   o o     E g.h.Y.>.# o o                 . * 7 6 p % % @             . . . . *.t.o @ d.@                       . . . . . .   . @         `.",
"= = @ f s     & 3 = '                       . C % o / w.@ % @ & o           o @ @ j C j $ @ .                   u R.*.# . . .   . . @ ( s   o .         o o       = p 3 % @         . * j ( i.g p ) @ . - *                         . = 3 * % .               `.",
"  . . . . . . .   . .                           & .   E E s i.i.C = .         . 6 f 7 7 7 X .                     L C.U.k.g.Q   = E   . j ) *   = = @ @ .           .         . = = 7 K *.t @   . .                                                           `.",
"      . = % % &             o                               . # i.i.q = & .     . $ @ . . .               .     . Q B , < # . o   Q j . 0.Y.P.i.j p 6 7 6 # * & & @ . . & . O & % % H L @   o o o o o     o           . & & . . . .                           `.",
"                                                            o o @ L ) % % * . . . .   o     . . @ = = % - . . 6 ] s . . -       o   i.w.C # # u i.H [ ) j 7 * * # @ @ @ @ = % 7 Y k.g.b .   o       . .           & & = = @ . . = .                           '.",
"                        . = e 9 3 7 @ .           = =           . b g.x.[ 7 * & . . @ $ # * 7 7 7 p 9 9 p Y k.R.t.@   [ 6           @ [ * o o e %   @ j w.8.E Q s s 6 C i.g % @ # # B T.W       . f E .   o   . = . . . . . . $ # p p = .                      X",
"                  . - R 7 * @ . . . . = 7 9 @     . R ' @   o   U k.B # , 3 3 j C % @ @ * = 7 u u ( 9.K [ C < < / 9.i.s               @ ~ *   @ @ &   @ Q . @ R # @ @ @ s a..     & - # .   . % Q 5 .       . = . . @ * . @ $ % , ) 3   .                      X",
"              . & ` 7 @                 . 7 Q e .     = ] % . o . = = .       i.w.u p E 9 [ s C 9., .   @ P .     ( L .                 . 9 7 * 6 C s e = . . .   o   o   % @ @ - 7 @   . @ E E @         . -   . & $ ) @ E H =.k.w.% @ . . = % @              X",
"              . . .   . . = & & & . . .       * q =     . ~ e . o . = e 3 . @ Q .         3 .   E %   * = @ o . U j .                 o     = 9 @ . # # % = $ - 7 * * * = = 9 p % .   . % E 7 .           = @ = =   9 T.u 6 # # , , , 6 q 7 9 6 ! *            X",
"              . f 7 % p p % @ @ & = 7 p - .     o - q .   . f e = .   . q e 7 . . o     . . . . % 9 g ] E * = E *                       o     @ T =         o . . @ * * @ @ .         . @ @             o . 1 * o @ f.L & $             . . e.9 . &           .X",
"            $ [ 0., # .     o     i.1 . = = $ .     = ' @     O . .       . # * 9 9 9 9 e q = * % # .   @ e 7 .                                   & .             @ & @ * * - & .                         * j   . H B @ 7 6 # . .       o . p %               oX",
"          = [ C @ o           @ p.!.,       . = q @   . q .   o                         .         o o = q @                                                 . - R % .   o o   . - - @   o                 9 # = 4.N   # $.q.C 3 .       * ! .     .           XX",
"      . - ! 7 .   o o . * 7 ( Y.Q.=.g p 9 7 @ . $ ' C .                                             . O                                                 . = = & .     . . O . . . @ = .                 . 9 . [ v.#   . %.4 . W .     . S #     - .           XX",
"      - / @   @ f C ) S ( w.y.v.=.C S H %.-.*.[ @   7 q.p                                                                                             & R &     . % % % @ @ = 7 7 @ = @                 * #   9.$.    . 3 C u 6 .     7 Y @   @ %             XX",
"  . e s @     @ h.Q.Y.t.j 7 , # . @ @ * t B H g.I.u 3 i.a.9 .                                                                                       . ; . . = = . @   [ /       . # s ) @               6 @ @ t.,     o & 4 t # .   $ [ i.~   5 @             OX",
". C ] $     7 g.,.<.-., @             . . * % b b.U.w.6 @ 6 ' @                               . . . . @ .                                         .   . p E = @ @ = $ w.Q.F @ .       # ! &             g . j y..   o   . @ @ .   . - * @ @ X -             . @X",
"U i., .   j k.,.t.C .     . = 7 @ . .       o @ 2 2.0.  o   @ @                           . O O @ . . # % & .                                       * a.s . b 0.9.K H b o.I.g.( j * @   @ E %         . e . a.$.  o o         . @ E 9   =   . .             . +X",
"Y 6     9 I.<.*.,     o . - 9 & . . O .         . # 0.K   o                               = = . & . @ @ . . & &                                 . - 9 C H g.P.L j , @ . @ # , u 1.V.I.,   . g %         & 7 g., o       . . @ % p 6 7 % @                   . @X",
"=     6 I.v.%.@         - C j H L # . @ .           . H ( .                             . = # @   f s . @ @ = * .                               . &     H 5.b @ .               , -.y.>.#   @ ] 3       o   S ,     . # 7 6 j 6 . . = @                     . +X",
". [ k.E.G.,           . 6 L >.,.N w., . .           o   C [ . .                       . 9 *   . 6 x.L b L S B ) q $                                   Q ) @ . o     . = .   o     @ K 4.g.#   3 { #   o   6 k.# o & e C S B # . @ = .                       + #X",
". # 5.I.2             . @ j <.@ o , L . .             o   p p = Q . o                 % = @ C C L < @ # , L g.u . .                           o . . ] E           . 6 3 # . .       . p 4.g.@   q E .   - s.M 7 i.i.Q # @ 7 @ & @                           : $X",
"  * q.2                 . * >.#   p L . .               o   e @ % a.6 o             @ * . 1.5., @ @ .     . @ 9 R .                         . q = R 7             = S =.8.2 . .         , I.y.u * = @   . @ = j S . X = 7 * .                               : $X",
"*.R.s                   . @ j G M 0.# . .                   p x.@ * a.u           @ e   C -.# . b L p @   o     @ 7 7 R @                 = { % j 3               @ *.%.. C # .           * Y.h., o         @ p j - * 7 * .                                 : $X",
"Y.@.@                   . & % t 6 7 % @ .             .       g.1.o @ g..         - * , 4.#   . L < % % .     o   @ ] 7 '   o         o . i.@ 9 z..   o           . < L . C # .           o 7 0.@                 . @ @ . o                                 : $X",
"H 9 o                     . 7 p = 7 # .         . . 7 ( { 9 p i., @ R b         . @ 7 f.<       # u 6 # .     . 7 = E . .   o           . E X 7 0.# q 3 . o       . @ b G u . .           o o C h.B # @ .     o                                             } %X",
". C g .   O = . .           . @ . .       . @ & 7 ) [ C 6 . * &   @ .               7 B . o     . , # .   . @ E 7   .                       .   * @ 6 H K 1 . .     @ 7 3 # @             .   . -.h.i.C .         . . . . .                                 | %X",
"  # k.P.1.7 - 7 9 7 = = . . . .   . . . . % % = F 3.#     o                     = S d.@     o     . . . . % ) ] .   = =   o                             p ) j % . . . . . .     . . @ @ O o . e 9 . &       . & @ * 9 = 7 E * .                             | %X",
"! w.S V *.*.*.H C p , 3 * * * & & @ @ = = 6 %.g.1.#   o   o     . .             = s , 9 9 = 7 # # # * - e # * f @ = = .       o o o         . = .   o   @ 9.a.S 7 & @ . @ @ & * * 6 s g b q.T.9.. R 9 . = ' E * . .       . @ q e % .                       | %X",
"u.t   o . ' * # g ! [ ! 6 3 7 % % f C 7 % 7 u B >.I.#         = R .               = E ) ! Q p C s 6 @ @ e & = . $ =       o                   = E &     ' w., # & 7 ! p 7 7 % e / L / f ] t , u i.C @ R 7 @                     @ q R .                     | %X",
". ) 9   = # .     E C # Q E 7 E 3 j g.p       . 1 u @ o   & ~ E @                   7 9 . = & 7 @ X . @ & = .   .           . . . . .           . E 7 .   @ = .   e H @ @ # f 7 6 s     = @   % H f - .       @ & @ * * * 7 = . .   . . .                   ..&X",
"  . f 7 @ = S 9 $ e .   . .         & ~ . . = q =     . q ] %                         . = % = @ . . . .               @ 7 f ' p 9 E 9 * & .       . p q @   @ 7 = 7 .       . . . e 7 E % = 7 Q f @     o . = p = 7 * . . @ * 9 p # - @ .                   (.&X",
"o o   % f @ # 6 W C p @ + . .     . . = 7 E R .     = E ' .                               . .                   . 7 ] 9 $ .           . * s f * .     @ @     . @ = = - * 7 ; = & % @ @ = q % q .   . & - = . .   i.0.          . @ C i.%                   (.&X"
};
