/* XPM */
static const char *conhecimento_WE[] = {
/* columns rows colors chars-per-pixel */
"128 128 225 2 ",
"   c #1F0F02",
".  c #1F1003",
"X  c #200E02",
"o  c #251403",
"O  c #291603",
"+  c #2D1A03",
"@  c #2B1A09",
"#  c #271806",
"$  c #331D03",
"%  c #391F03",
"&  c #331E09",
"*  c #391F08",
"=  c #301F11",
"-  c #352104",
";  c #3C2303",
":  c #3F2804",
">  c #352109",
",  c #3C2509",
"<  c #3D280B",
"1  c #3D2710",
"2  c #2F2002",
"3  c #412603",
"4  c #442A03",
"5  c #4B2D03",
"6  c #412709",
"7  c #442A0A",
"8  c #4A2E0A",
"9  c #502F02",
"0  c #4D3104",
"q  c #4D310A",
"w  c #473007",
"e  c #533403",
"r  c #593703",
"t  c #563803",
"y  c #5B3A04",
"u  c #53340A",
"i  c #583709",
"p  c #56390A",
"a  c #5B3B0A",
"s  c #422910",
"d  c #4C3312",
"f  c #5B3C12",
"g  c #573A15",
"h  c #623E03",
"j  c #613E09",
"k  c #683F04",
"l  c #603F15",
"z  c #5F4003",
"x  c #5F4008",
"c  c #5E4011",
"v  c #654103",
"b  c #6B4503",
"n  c #6E4903",
"m  c #64420A",
"M  c #6A450A",
"N  c #6D490A",
"B  c #714603",
"V  c #734B03",
"C  c #7A4E03",
"Z  c #734C0A",
"A  c #794E09",
"S  c #784702",
"D  c #765004",
"F  c #7C5203",
"G  c #76510B",
"H  c #7C530A",
"J  c #7F5908",
"K  c #634313",
"L  c #6C4A12",
"P  c #6B4A1C",
"I  c #674616",
"U  c #744E13",
"Y  c #714E19",
"T  c #7B5411",
"R  c #7F5814",
"E  c #795519",
"W  c #6F4E21",
"Q  c #795825",
"!  c #7B603A",
"~  c #825503",
"^  c #895703",
"/  c #865904",
"(  c #8B5C04",
")  c #82560A",
"_  c #885709",
"`  c #855A0B",
"'  c #8B5D0A",
"]  c #915E04",
"[  c #905E09",
"{  c #835A13",
"}  c #895D11",
"|  c #805B1D",
" . c #815611",
".. c #8E6104",
"X. c #8E610B",
"o. c #946304",
"O. c #9A6603",
"+. c #9D6904",
"@. c #93630B",
"#. c #9A6609",
"$. c #96680B",
"%. c #9D6A0B",
"&. c #966804",
"*. c #8E6212",
"=. c #936412",
"-. c #956912",
";. c #9C6B13",
":. c #9D6C19",
">. c #986612",
",. c #A36D04",
"<. c #A96F03",
"1. c #A26D0B",
"2. c #A67005",
"3. c #AA7205",
"4. c #A6710B",
"5. c #AB740B",
"6. c #AF780C",
"7. c #B07604",
"8. c #B17806",
"9. c #B1770B",
"0. c #B27A0D",
"q. c #A26E12",
"w. c #A46F18",
"e. c #A57113",
"r. c #AB7513",
"t. c #AD7914",
"y. c #A5741B",
"u. c #AB771A",
"i. c #AD7A1A",
"p. c #A7791A",
"a. c #B37B13",
"s. c #BA7F16",
"d. c #B37C1B",
"f. c #B17612",
"g. c #805F2A",
"h. c #87622C",
"j. c #996C25",
"k. c #9B712A",
"l. c #8D6B38",
"z. c #926B33",
"x. c #987139",
"c. c #A47424",
"v. c #AD7A24",
"b. c #AC7C2C",
"n. c #A77827",
"m. c #B27E22",
"M. c #B27E2C",
"N. c #AB7C34",
"B. c #A97C39",
"V. c #B17F39",
"C. c #927045",
"Z. c #A07B47",
"A. c #B98216",
"S. c #B6811C",
"D. c #BC831D",
"F. c #B58123",
"G. c #BA8423",
"H. c #B5822B",
"J. c #BB852B",
"K. c #BD8A2D",
"L. c #B38533",
"P. c #B98635",
"I. c #BB8A34",
"U. c #BB8B3B",
"Y. c #B78739",
"T. c #AF813A",
"R. c #C28B2E",
"E. c #C28D37",
"W. c #C9943A",
"Q. c #D29A3C",
"!. c #AD8249",
"~. c #B38544",
"^. c #BC8C44",
"/. c #BA8B49",
"(. c #B68848",
"). c #BE934B",
"_. c #A68356",
"`. c #BB8D52",
"'. c #B38B5B",
"]. c #BD925B",
"[. c #BD9255",
"{. c #B78D61",
"}. c #BB9666",
"|. c #C18E45",
" X c #C2934C",
".X c #C69645",
"XX c #D29D45",
"oX c #C29453",
"OX c #C4965B",
"+X c #C99A57",
"@X c #CCA25B",
"#X c #D5A457",
"$X c #C49C61",
"%X c #C49B6B",
"&X c #C69963",
"*X c #C69E72",
"=X c #CDA364",
"-X c #CCA26C",
";X c #C6A06C",
":X c #D6A869",
">X c #DDB169",
",X c #CDA374",
"<X c #C8A57A",
"1X c #D4AC7A",
"2X c #D4A974",
"3X c #D8B17C",
"4X c #E2B57B",
"5X c #D4AD83",
"6X c #D2AF8D",
"7X c #DAB48C",
"8X c #D8B387",
"9X c #DEBC94",
"0X c #DDBB9C",
"qX c #D4B695",
"wX c #E2BC8A",
"eX c #E1BD9A",
"rX c #E1BC93",
"tX c #D7BBA0",
"yX c #E8C185",
"uX c #EAC89B",
"iX c #DDC2AB",
"pX c #EDCDAC",
"aX c #E5C6A5",
"sX c #EDC9B1",
"dX c #F1CDAD",
/* pixels */
"$ $ $ $ $ $ $ $ $ ; - - 3 q p p p q q 0 5 5 4 3 3 4 5 5 5 p a m M v m M m M m b M S F H ` ] O.4.i.Q.a.#.@.F S ` G b C @.@.D b n T v k h h h h y r t e e e e e e e e e r y r r y y r y r r y y t t t e e e e e 0 4 - - - ; $ + O o + + o o       o o o o o o o o ",
"$ $ $ $ $ $ $ $ % ; - - - 4 u 0 5 5 5 4 4 4 3 3 3 4 5 5 0 0 p y y y m m m M M M V A F ) X.#.1.r.G.R.t.%.$./ ~ ` b B F / ~ C B b b b b k h h h y y r y y e e t r y e t r y y r r r r r r e e e t e e t e e e 0 4 - ; > > ; - $ + + + + o X   o     o o o o o o o ",
"$ $ $ % $ $ ; - - ; ; - - : 3 4 4 3 8 4 3 6 ; : : 3 5 8 u e p e r y y e a m M b V A ~ / ' ,.1.5.d.D.r.#.@.@.=.) b A ) ) H F C n b b b v h h h y y h y r t e e e e e r y y y r y e r y y e e e p t e 0 0 0 w 3 ; ; ; ; $ - $ $ $ $ + + + o o o o o o o o o o o o ",
"$ $ $ % % $ ; ; % ; ; ; $ ; : 3 3 3 4 3 : ; ; : 4 4 8 8 8 5 5 e e r r y a y h Z Z F ) ' o.+.,.,.4.t.1.o.^ ..$.~ S / ~ D C C B B n b b v y y y y v h y y r t e e e e y h r r r y r r r r e e e e p 0 4 4 3 : ; ; : - ; - % $ ; ; - - $ + + # o o o # O o o o o o ",
"$ $ $ * * * ; ; - - , 7 , ; 3 : 3 ; ; 4 3 ; 3 4 3 4 4 4 5 5 5 e r y r y e y h N Z F ~ ' %.q.1.+.O.r.d.$./ / ../ / ^ / D C V V V B b b v y y y h v h y y y y r e e r h y y r r y r e e e e e e e 0 4 3 3 : - ; ; - ; 7 7 : - ; ; ; - $ $ - $ + o O O # O # o o o ",
"$ % ; ; - - * % % ; ; * ; 3 5 4 3 ; : 4 3 4 4 5 4 q q 4 5 5 e e r y y a a r k N V ) ~ ( @.;.;.o.o.1.d.4.o./ / =.j.( ../ F V V V n b v v y y y h v v y y y r y y y y y y y r r y y y e r e e e 5 4 4 3 6 3 - ; 6 ; ; 4 4 : : - - $ $ % * $ $ + @ O o # O O # # # ",
"% ; ; $ $ - $ % - ; ; - - : 5 8 4 3 3 8 4 4 5 5 5 8 5 4 4 0 e e r e e e y y v Z H ~ / ' ( / / o.o.r.D.i.%.....X.X.' @.@.~ B b n b b b v y r r y m y y y r r y h h h v k h y r y r r v y e e e 0 4 3 : ; ; , 6 6 ; 6 : : : 4 3 ; % $ $ $ $ + $ & + O # o o o O # ",
"$ - $ $ $ $ $ ; ; ; 3 3 - 3 8 4 4 4 5 5 5 5 4 4 4 4 5 5 5 0 e e a a e e y y v Z H ~ ( X.) ~ ' %.#.( o.4.$.^ ' / / 1.,.#.( F B V n b b v y r e r r r r r y r y h k b Z b k j y m e y v y r e e 0 3 , ; $ $ - , 6 6 3 3 3 4 4 3 4 3 ; - $ + + & & o O O o o o o O ",
"$ $ $ $ $ + $ $ : 3 3 3 3 4 8 5 0 5 5 5 5 8 5 5 4 5 8 8 5 5 e a a r 5 W h.r b Z H F _ ' ) ) / =.;.) ~ ( ' _ ~ F _ 5.5.+.@.( D V n b b v y y e e y r r y y y h b B B n b h h b Z h m y r t e 0 4 : - $ + + $ $ - 3 4 u u e w 3 4 0 0 8 4 > - $ + + o # o o o O # ",
"+ + $ $ + + $ % ; ; 3 3 3 4 3 q q 4 8 4 4 4 5 4 4 5 8 u u 5 9 i a e e a m y n n H ` ) ~ S C ) ` ' F D C F / / C / o.e.%.@.( C n n n b b v y e e y r r y y k b C ` Z v k h b V Z M M y e e e 5 3 , $ + o + + O ; 8 5 5 u p 4 ; 8 e y y p u q 6 < $ o # o @ o o # ",
"+ + + > + $ $ % % , ; 3 : 4 3 3 3 3 3 4 3 3 3 3 4 5 5 u e 5 e e e e e r y v n n V F ~ ~ A H ) A b B C C F ~ ` ( ..@.' ' @.~ b b n Z B B b k j r t r r y k b F ( J v k v v n V H V v r e e 5 3 $ + $ + + + + + , 8 3 4 q u 3 3 4 5 m K a p 5 ; $ $ $ - > $ O o o ",
"+ + $ $ $ $ % * % % ; ; : 3 3 : : - - : 3 3 3 3 5 4 5 5 i e e e i e e a h b Z V n D _ ` F V n N b M b n D D F ) / ( C C ~ ~ C F V Z V V C b h y r y h h B @.=.X.n v b b v b Z E M y p e e 5 4 - + + + # > - ; ; 4 w 0 0 u 5 5 e e e y h a 0 3 3 4 4 4 6 6 ; $ + ",
"$ + $ > $ $ ; ; ; % - - 3 3 4 3 : : ; : 3 3 3 3 4 5 0 u u u e i a a a m m N H H D D G Z b v v b V M n n n b n V C F C ~ / / ( ) F V D ~ ( F v y r h k B X.y.=.X.V b V H n v b N a e e e e e 0 4 - + + & , 7 8 8 q f u e q i a N N v v k y e 0 0 4 4 3 8 3 - $ $ ",
"$ $ $ - $ % - ; ; % - - ; ; 3 : : ; ; : : ; q w w 4 3 8 q u u i y y L M y y G ' / H b L y y v b V C V B B b b n Z Z B / ..X.' ~ F n C / @.' b y h b B / ' ^ ( _ V b V ` V b y I i e e e e e 0 w : - + $ , , 8 q u u p a e e y Z Z Z Z k r y e 5 4 4 3 7 ; $ * - ",
"$ $ - $ $ % * * * $ $ - - % ; ; : : : : 3 4 8 4 4 ; ; $ % 8 u 8 e a y Y Y r b ' @.` M M y r k H ~ F C C H b b V B V V D ~ ( ' ) V v V ~ ( ` C b b C ~ / X.-.-.~ b k b D N a e I a e e e e 5 5 5 4 ; , , ; ; 7 d q u e y y h m N N Z n h h j y e w 3 ; , ; - - - ",
"$ $ $ $ % * % $ $ $ , ; ; ; ; % ; : 3 3 4 q u 3 - ; - - * , ; 8 f a P h.Y e j _ [ ' Z b v y v ) [ ' / F _ A V H V C H D S F X.) b H V C / C Z Z C F ` ` H H B n b b n M j e 9 I e e e e 8 5 4 5 4 3 4 d 8 q : 4 f I a j m v b Z M V b v v m a e 0 4 3 3 3 : ; ; ",
"$ $ $ $ % $ % $ $ < , , ; ; % % : 3 4 5 5 8 3 ; ; $ $ - $ - ; 8 5 u c K f i L Z H ` D n b v M A / _ ` ~ ( ' ~ C V V J F C F @.~ ' @.C D F B A V V C H n v v v v v v M y i e 9 P u 5 0 0 5 5 5 5 5 5 5 q u q p a a K m L L y v V V V Z b v y y e 0 4 5 0 8 4 3 ; ",
"+ $ $ $ $ $ $ $ $ < < - ; , ; 3 3 4 4 4 3 ; ; ; 6 ; ; , ; ; ; : 5 5 q w w a y m j v N v h h v N F / _ ~ / X./ B D H A B B F ( ^ #.( ~ / ~ F F C C n b b y m m y y y p e e e 5 P e 4 5 5 0 5 4 0 0 5 5 4 0 p f a a j I m m v N V Z n b b b h r y e e e e q 4 4 : ",
"+ $ $ $ $ $ $ $ ; - , < ; - 6 6 3 3 4 4 ; ; ; ; 6 ; ; ; 3 3 3 3 u u u u 8 5 e p u e y m v k k b C ~ / ~ / ( / S A F S A  .) / o.@./ ~ / ~ ~ ~ F F C n b v y r r t e e 0 0 0 5 P e 4 5 5 0 0 5 5 5 5 5 0 p i a a a j m k v Z Z H T Z Z Z M b h m m a p 5 4 3 7 3 ",
"+ $ $ $ % % - - - , , ; , , - ; : 3 3 4 3 , ; ; ; ; 6 ; 3 4 8 3 q I f 8 8 5 e e e e r y h M M B D C F F ~ F ~ A A F / / H C F / ~ ~ ( / / / / ~ ^ ) S S V y e e t e e e e e e W i 5 8 5 e e 5 4 4 5 0 e p i i a a a m M Z Z Z H T Z A ) V V b b y p e 4 3 3 6 ; ",
"$ $ $ $ $ $ $ ; ; , ; , 1 > $ $ , ; ; 7 7 , ; ; s s ; ; ; 3 3 : 8 C.g q 5 0 e e e e r r y Z V F F C V F ~ C F A C F / ) C S F F D D / / / / ~ ~ @.' C ~ D y e y y e e e y r y Q K e u e e 0 5 5 8 e e e i p p a j j M U Z Z H D H A A _ F V N m y e 5 w 3 3 $ $ ",
"$ $ + $ $ $ $ , , , , $ > & 1 > - - ; , 6 , - - , ; % - : ; ; 3 ; 3 7 4 4 q 8 e e e y v b A ~ / / ~ C F ~ ~ _ ~ C D ) F C V G V b B C ~ / F C ) X.` F _ H v h z y e e e h U Q _.l.W m e e 9 e e e e e e i e e y a h b A H H H F H ) ( @.) Z M y y e 5 8 3 ; - $ ",
"$ $ $ $ $ $ $ - - $ - $ O & 1 & > , ; ; ; , > < , * - ; 3 7 q 3 3 7 6 3 3 5 5 e e e b V C C ~ / / ~ F F F ~ ) D C V V V V Z V n n Z C F F B n V C V V Z H Z v y r r e e h l.}.6X<X_.P e 5 5 5 0 e e e e e i a y m N V H ) / / ( ' ( ....F M m r e e 8 5 5 3 , - ",
"$ $ $ - - $ $ $ + + - > + + + < , > ; ; , , ; - , ; ; ; 7 8 3 3 3 7 7 3 3 5 8 e e r b n n B C ~ ~ ~ C D D C C C V n b b n n n b Z V C C V b v b b n n n b N M m m L I Q h.'.0XsXaX<XC.W K l c a a i e e a a m m N A ) ' _ / ' @.@.@.( ~ V v y y e e 5 u 4 3 ; 7 ",
"> > + $ - - > $ $ $ $ $ $ > $ $ $ - $ $ ; , - ; ; 6 ; ; : 3 3 3 8 8 3 3 4 5 5 9 e r v b b b V A F ~ F D D C B n n n B n n V V n B V C C Z N v b b b M v m k m L Y Y Y Q z.}.0XdXsX5X_.h.Q W P K f a a a y h M G H _ ' ' ' ( @.;.@.' ` V b v y y y y e p 5 3 6 3 ",
"$ > + $ $ - - - - $ $ $ ; > $ - > > - , ; , , ; ; , 6 ; % : 3 4 8 8 3 3 5 0 9 e e y h v v b b b Z D A D D C V V B V B B V C C V V V C A T Z v b b b v h h h y y r e e e v z.<X9X6X'.Y e e 5 5 5 5 e e r r k B H ` X.@.$.' ' ' ( F C Z M b v m h h r y p w 3 3 : ",
"+ + & + $ - - $ - , ; , , + + - < > , < 6 ; ; 6 3 3 7 6 d 3 3 3 3 3 3 4 0 e e e e y h h v v h h v b n B C C C B B B V C C C C Z n n V Z U N v b b b v v k k h y r r e e m | l.'.Z.h.N y p 5 0 0 0 e r y v V ' X.@.=.' ( ' ) F D V n Z Z b v h v h y a y u f 0 8 ",
"$ + + $ $ , < ; , ; - - 7 > $ - > $ - s 6 ; 7 8 4 3 7 6 6 3 3 3 ; 3 3 4 u e e e e e y h h v y y h v v n V C S S B b b n M M b M b b b b Z Z v b k k v v v k h y h y r r v b Z z.U v y y p 0 5 5 5 e y h n F ( ' X./ / ' _ F C F H V V n v v v v v v h y e p e e ",
"$ + + + $ , , , < 6 ; ; ; > > > > , s * ; w 3 3 4 8 3 6 ; 6 d 7 - ; 3 4 q 0 5 0 e e e r h h r r r y h b B A C C B b b b v k k v b b b b Z Z v b v b v v h v v h h h h h v b v | b y y y y e e 5 9 e h b ~ ' ( ' X.@.( @.( F ~ F D V n b b b b v b b b h r r e e ",
"$ $ $ $ < * - - - 7 , ; ; - $ * ; ; * ; 3 4 3 : 4 7 ; ; ; ; 7 ; ; - ; 4 5 5 5 5 0 e e e y r e e t y y k B F C D D V b b v v h v b b b k Z Z b b b v v v b b v b b v v v b N v E m y h k h y y y h h b C ( #.%.%.$.-.-.@.X.~ F C B n n V b n n b M Z n b v m y e ",
"- > + $ ; $ - - - , , % % $ $ $ , ; 7 7 5 8 3 3 7 7 d 7 $ * ; % , $ ; 8 5 5 5 5 5 e 0 e e e e e t t y v V D D D D V n b b v v v b b b k Z Z v b b b b V M N b M V V b b b n v E v h v b v v b M V A D ( o.4.S.1.@.X.` ) ) F D Z n n V Z Z G V b n Z Z Z Z N y e ",
"+ > $ $ $ * - $ , 6 ; ; * $ - $ , ; 7 7 0 q 7 5 3 3 7 7 < $ $ ; , + * ; 3 4 3 3 4 0 5 4 5 e e e t r v b n B C B Z B n n b h y h v v v b E E N k h b n V V N b b V Z b b Z n b | Z b n n V n n n A A C / @.%.1.( C n n n n n B V M b Z B V D B V B Z B n U v v r ",
"$ $ - ; ; ; - - - ; ; * , ; * ; , , - 7 8 3 3 4 4 3 4 7 1 1 , - - + $ - 3 : : : 4 5 4 3 4 5 e e r h v b n B B n V V B n n v y h b N M h.<X1Xh.N Z V V S C Z v m M v v b Z Z N R V b B V n V V B H ) ~ ) / / / F B n Z n M b b b m y b Z G F F A Z Z b M M v m e ",
"- - - 3 3 : - ; ; - ; ; $ ; ; ; - ; 6 g 6 ; ; : 4 4 3 3 ; ; $ $ $ $ $ - ; ; - ; 3 3 3 : 3 5 5 e y v b n D D F Z B B n b n b v M Z U E Z.uXuXx.| { {  .) C V M h h m m v b b b E v v v b b b n Z H Z n Z G H H F ) ~ V N m m y y r r b { H C V A V B Z n b v j e ",
"- - ; ; ; ; 3 3 : - % - - $ $ ; ; - 6 d : ; ; ; 4 3 6 7 ; * * $ > - $ - ; % ; ; : : 3 : : 4 0 y v b b n V D C B b b b M M v h v k k k U !.!.Z b V F F A ) ' } n h h j y y h y Y m v v v v n n b v v v Z N b V H } ) V G y r r j M b Z  .H B B Z Z B B b v h a a ",
"- - ; ; : : 4 4 ; : : ; ; ; : 3 6 ; ; ; ; ; 6 3 8 3 6 6 ; , $ + $ > + $ ; - ; ; ; : 3 : 3 5 e h b b b n B D F B b b b b v r y m b v v b U Z b V Z F F ~ _ @.@.D V B b h y y r L m v v v V B v h y y y v v v v N Z Z n N m y r j N Z H H V C S H { V Z N v h j a ",
": ; - ; ; 4 4 3 : ; 3 : : 3 7 3 ; $ ; ; ; ; ; : 7 3 6 ; ; ; $ $ + $ $ * ; - - ; : : 3 3 4 5 r v b b b B D F F D B n b b h y r y v v v h Z Z v b b B C S C F / @.@.;.@.F B v k Z v v m y m n m y e e y a m L m r y h Z m a a a y r v N T H H H H A V Z n v h m y ",
": ; % - ; 3 6 : - ; ; - ; 3 4 3 ; ; ; , ; ; ; 3 3 ; 7 6 - - - $ $ , > * * , - ; : : 3 4 5 e y k S A F D F D V V B n b v v h y r h h h k U Z b b B F _ ~ V b b ) ;.%.#.q.q.' S U v r y t y h y r e e e y m y e 5 g r N m K u p a a r y a j b N Z V B b b N v y y ",
"; % - - ; ; ; ; - : - - ; 3 3 3 3 6 - - , 3 3 3 ; ; ; - $ $ + - ; < , $ * ; ; - : 3 4 4 e h m B / #.@./ ~ D B B B n n b b b v y y h k k Z Z b v b F _ >.` v m v H ' :.v.:.=.F { b r e e t r t e e 0 5 e p 0 4 4 8 4 e i 0 u q e p e e a e r y v Z V B V N m y r ",
"- % * ; ; ; - - ; ; ; ; ; ; ; - 6 ; - - ; : 3 6 ; % ; - $ + + $ $ , ; ; ; ; ; - 3 3 7 3 4 e h F #.+.@.' ~ D F F C C C B M b b b k k k k Z Z b k b A ~ F H V k k M V T H k b b Z b y e e e e e e 0 5 4 3 4 3 3 3 8 ; 4 4 4 8 w 5 5 0 e e 9 e e y G H H Z n v m m ",
"; * * ; ; - - - ; ; ; : 3 ; ; - - ; - $ - : : ; ; ; < , > + + + + - , , % ; ; - 8 3 3 ; 4 e y C #.o.o.( ^ / ~ ~ ~ _ ` ) C S V B b v h h N Z b b M H ) V C H Z b Z V v y r v v N m r t e 9 5 0 0 5 5 4 3 : ; ; - ; ; 6 3 3 - 4 8 4 4 q e e 5 e e j N Z V n b M k ",
", - ; ; $ $ $ - ; % ; ; ; ; ; ; - ; $ - ; 3 - - - - $ + + > + + + + $ ; ; : : 3 3 : 3 3 5 e y n ' o.&.o.o.' ( ( _ ' / / ( / C D V n v y v b b b b A C V n n T B D H Z v y y y m v y a e e 0 5 5 4 4 4 3 : - - ; % - % - ; : 3 4 4 4 5 5 5 0 0 0 e v n S F ) M b ",
", ; - $ $ $ - ; ; % % - ; ; ; - - $ % ; ; ; $ $ $ $ + + + + + + + + + - ; : : 3 3 3 4 5 e r v V / o.1.o.../ ~ ~ C C ' O.+.e.;./ F V v y y m b b v n B n v h v b b b V H N y t y e e e e 0 5 4 : : : : : ; ; ; ; - ; ; ; 7 3 3 8 3 3 8 3 3 w u e r v V ` =.*.H G ",
"$ $ $ $ $ $ ; ; , ; - % $ $ $ $ - - $ ; - $ $ $ + $ $ $ > + $ + + + + $ - : : 3 4 4 0 e r v C / o.%.u.#.^ / F S S / o.#.S.i.d.e.o.) F b v h v m h v b v y e r y M N V G M y e e 5 5 0 0 5 4 3 : : ; - - - - - - ; ; 3 3 : 3 3 3 3 3 5 4 5 e t y j M T -.*.} ) Z ",
"+ + - - $ * * ; ; - ; ; $ $ + $ - $ $ , - $ $ $ $ $ $ $ > + + + $ + + $ - - 3 4 4 4 e r h B F ( ( @.#.#.@.$.@.( ] #.O.O.e.e.o.#.$.X.X.D b y r r y y m m y e 9 e y v b v v r 0 0 5 5 5 0 5 4 3 : : : : : ; $ % ; 7 8 4 4 4 5 5 4 4 5 5 e e r y m m y h b V B b v ",
"O + - $ % * % % $ % ; ; ; $ + $ $ $ $ * ; $ $ $ & > $ $ + + + + $ $ $ $ $ - : 4 3 5 e h b ~ ' ' / @.4.+.o.#.%.#.#.@.o.#.%.o.o.o.o.( / C M y t t p r y m r e e e y v m k v y p 0 4 4 4 w 4 3 : : : : : : ; ; ; 6 8 4 4 4 5 5 8 8 5 5 e y y h M m y a y h N n b y ",
"o + $ $ ; % ; % - % ; , ; $ $ $ $ $ $ $ - $ + $ & + + + # O + $ $ $ $ $ $ % : 3 4 5 y b F _ ( ( ( o.+.%.o.o.@.@.( ~ / X.@.$.@...o.../ C M y t t e e y a p 5 5 9 e a j y y z y 0 5 5 5 5 5 4 4 3 : : : 3 ; : : 3 8 5 5 5 5 8 5 8 5 5 e a m v m m a K a m v m y t ",
"o + $ $ , ; 6 ; ; ; % ; - $ $ $ - - $ $ $ + + $ + + + + O O + $ $ - $ $ * - : 3 5 5 y v B ' o.o.o.o.%.v.=.' ' H B B A F ) ~ ~ / / @.@.F b y r e 5 0 p y y 5 5 5 5 0 0 0 e y y e 5 5 5 5 5 8 8 4 3 : ; 3 3 3 3 : 3 4 5 5 5 q 4 4 3 3 5 0 i e e e e e 0 e y y e e ",
"o + $ - ; $ % * * , * % $ $ $ $ - - ; $ $ + + + $ + + + + + + $ $ - $ % $ % 3 4 4 5 y v B ( o.o.O.;.V.+Xc.X.) V b ) X.' ~ ~ ~ F D ~ ' ) b y y e 4 4 0 t r e 5 5 0 0 5 5 w e e 5 5 5 8 e 9 9 q 5 q 3 : : : 3 4 3 5 0 5 5 0 q 4 4 4 5 0 5 5 8 5 e 5 5 0 0 e e e e ",
"+ $ - - $ $ ; * $ , , $ $ $ $ $ - - $ $ $ + + $ + + + + + + + + $ $ $ $ $ - 3 4 4 5 r v C ' @.o.#.#.b.OX^.' C S S _ $.$.] ( / ~ Z V C V v y y r 5 4 5 e e e 5 5 0 e e 0 0 u 5 5 5 5 5 e e e e 8 q 8 4 3 3 4 q 5 5 0 5 w 4 5 5 4 5 5 5 5 5 5 8 0 5 4 5 5 3 u i e ",
"$ $ - $ $ $ ; * * 6 $ $ $ $ $ $ + > - - $ + + $ + $ + + + + $ $ $ $ - - - : 3 4 4 5 e h C ^ / ( w.P.n.k.;.' ( $.@.( ^ / ^ @.X.( C B b b n v y r e 5 4 5 e e e 0 5 5 0 0 w 0 5 5 e 0 0 0 e 0 0 0 0 5 5 4 3 w f 5 5 5 4 4 5 8 5 5 4 5 4 4 5 5 5 5 4 3 : : 3 3 4 5 ",
"$ - $ $ $ $ $ ; * $ $ $ $ - - - 2 > > - $ + + $ $ $ $ $ $ $ $ $ $ $ $ - $ : 4 3 3 5 e y C ( / ' q.;.u.1.1.#.#.+.1.u.%.$.@.( ' ( F B B D C v h y y e e 5 e e e 0 5 4 3 3 4 0 0 u a e e 0 0 0 5 4 w 0 5 w 0 0 u 0 0 0 5 5 5 5 4 4 4 5 5 5 5 5 e 5 3 : - ; ; - - ; ",
"- - - - $ $ $ $ % % - - - - - $ > + > + + + O $ $ $ + $ $ $ + $ $ $ $ $ - : 3 3 4 5 e y V ~ ~ / @.o.( o.O.1.+.O.+.,.,.%.@./ C F F n C H Z v m h r y j r e e e 0 5 4 3 : 3 4 0 u e e e y e 5 5 5 e e e 5 8 5 q 0 e i 0 0 e 5 5 5 5 e e e e 0 0 4 3 ; ; ; - - - - ",
": ; ; - $ $ $ $ % % % - $ $ + + + + + + O + + $ $ $ + $ - $ $ + $ $ $ $ - : 3 : 4 5 e h Z C C / ^ ] ] o.O.+.+.1.1.+.+.%.o.' ) F H b b n b v h y r r a x t e 5 0 0 5 3 3 : : 4 5 5 9 e y e e e e r e e 5 5 5 g 5 4 5 5 0 e e 5 5 5 0 e 5 5 5 5 3 : - - ; ; - - $ ",
": ; - - ; $ + $ * $ $ - + o + $ $ $ + O O # + $ $ $ $ $ $ $ - $ $ $ $ $ - ; ; : 4 5 e j M b B / ] @.@.o.#.+.O.O.+.+.O.1.O.o.@.@.F b h h h y h h r r y y y e 5 5 q 0 0 4 : ; : 4 4 5 0 0 0 e i e a y e e 0 5 5 5 5 5 5 0 e e 0 0 4 5 5 5 4 4 4 3 ; - - : ; ; - - ",
"; * $ $ $ + $ + $ $ $ + O o + $ $ $ + O O O O + $ $ $ $ $ ; - - - > $ $ - ; ; - 3 5 9 r h b B / o.n.N.;.%.1.1.#.o.o.o.O.#.%.+.#.~ n h y y r y y y y r e e e 0 5 5 0 0 5 4 3 : 3 : : w 0 0 5 e 9 5 0 0 8 8 5 5 0 5 5 5 u u 0 0 5 5 5 4 4 4 4 4 3 - - - - ; ; - ; ",
"% * $ $ $ $ $ $ $ $ + o o o O $ $ + + + + + + + + $ $ $ $ - - $ $ + $ $ ; ; ; - : 4 5 e y b C ( $.~.&X~.c.b.L.Y.y.#.#.O.#.$.#.o./ C b y y y m h y y r e e 5 e 9 5 5 5 e 3 C.! $ ; ; 3 5 5 5 e e 9 5 5 4 5 5 5 5 e e e i i 0 0 4 4 5 4 4 4 4 4 : : ; - ; ; ; - - ",
"* % $ $ $ $ $ $ - + o o o X O $ + + + + + # # + + + ; ; - - ; $ $ $ $ $ ; ; ; - : 4 5 e r b C ^ ;.`.}.{.*X}.}.<X:Xb.%.+.O.O.%.$.o.~ Z v h h j j y r r e e 5 e e e 5 5 0 5 f g : : : 8 8 5 5 e e e 0 5 4 4 4 5 5 5 e i 8 e e w 4 4 5 5 4 4 3 3 3 3 : : : ; ; - - ",
"- ; * * * $ > > $ O o o o o O + + + + + + # + + $ $ * 6 ; ; - - $ $ $ ; ; - - - ; 3 5 e r n H ' :.$X%X}.6X0XqXqX7X@Xy.+.+.+.#.%.&.o./ b k k y h y r e p e e 5 5 e 0 5 5 5 4 3 4 3 4 f 0 5 e e e e 8 5 5 5 5 5 5 5 e 5 0 0 0 5 4 5 5 5 5 5 4 3 3 3 3 : : : : ; - ",
"; ; * $ $ $ $ + # o o o o o o O + + + + + + + $ $ $ $ : 6 ; - - - - - - - - ; ; : 4 5 e y n V S ;.U.^.).$X<X0X0XqX8X=Xn.r.+.o.%.+.@.;.H b h y h j y r r r r e 9 e e 0 0 5 5 5 5 5 5 u e e y a i e q 4 5 0 5 5 5 e e 5 5 0 0 5 4 5 5 4 4 4 4 3 3 3 3 : : : : : - ",
"$ * ; % $ $ + + o o o o o o o + + $ $ $ $ $ $ - - $ - 3 : : : : - - ; ; ; - , : 3 4 5 e y b b S X...$.%.b.(.%XeX9X;XoX+XK.,.o.( o.o.%.' B m y h h h y y r r r r r r t 0 0 e e e a e 5 i r e e e e 0 5 5 8 5 5 5 0 e 5 5 0 5 0 5 4 5 4 0 5 4 3 : : 3 : : ; : - - ",
"$ $ ; - - ; - + O O O o O O + + + $ - $ $ $ $ $ - $ - 3 : 3 3 ; : : ; ; : - ; : 3 4 5 0 r k b F F F ( #.1.d.c.+X2XoXU.|.v.1.+.( / ....~ F M y h h k h y y r r e y y p e e e e e a e e e e e 5 0 u 5 8 u e e e e e e 0 5 0 e 5 5 5 0 5 5 4 4 4 3 3 3 3 ; ; % % % ",
"* % ; ; - ; ; $ + + + + $ $ + $ - $ $ $ $ - $ $ - - ; : 3 3 3 : : : ; 3 3 : : 3 3 4 5 0 e h B F C C ~ ( +.4.+.n.U.b.b.P.H.+.#.' / / ~ F V N m h b b b v y y y r e e t e e e p K K e e 9 5 5 8 5 5 5 9 9 5 9 e e e e 5 5 e e e 5 0 0 5 5 5 5 4 3 3 3 3 % % $ $ $ ",
"$ $ % ; ; 3 ; ; $ > $ $ $ + + $ , - , - - - - - - - : 3 3 4 3 3 3 3 3 3 3 3 3 4 3 4 5 e r b V H A F ~ ' #.,.,.#.u.J.J.E.I.e.$.( ' C B n b v v b B C B b v k h y y r p e e e e a e a a 5 9 5 8 5 5 5 9 9 e e e e e e e e e e e e e 0 5 5 5 8 3 3 3 3 3 % % $ $ $ ",
"$ $ $ - 3 4 3 ; $ $ + $ $ + + $ - ; ; - : : : : ; : 3 4 4 4 4 4 4 4 4 3 3 : 3 3 4 5 5 e h V C C F F / ' O.+.O.#.#.r.J.u.4.4.$.~ F D n n b b B B A ~ C C n v h h y r r r e r r e e f f e 5 5 5 5 5 e e 5 e e e e e r r r r e e e e e 5 5 5 4 4 4 3 3 3 3 ; - $ $ ",
"* % % : 3 3 : ; ; $ + + $ $ $ $ $ ; : 3 : : : : : 3 3 4 5 5 5 5 5 5 5 3 4 4 4 4 4 5 e r b Z S C F D / ' ' o.o.o.#.+.4.u.2.4.$...D D V B A D F C ' $.' ~ Z b b v h y r r r y y e e e e e e e 5 e e e e e e i e r y h M m y r y p e 9 q 5 5 5 4 4 4 3 3 3 : ; - - ",
"% - - ; 3 3 : $ - $ $ $ $ > $ $ - ; : 4 4 3 3 3 3 4 5 5 e e e 0 5 5 5 5 5 5 5 5 5 e e y M n B V Z C / ( ~ ( X.@.o.#.#.,.<.%.X.~ F V B B ) ) / ] ,.,.$.@.F S V M v h y r y h a t e i 9 5 e e e e e e e e e e y j b b V Z b v m r r e u 0 0 0 5 4 4 4 4 4 4 4 : : ",
"$ - - ; ; ; ; - $ % ; ; - $ - $ - ; 4 5 5 3 5 5 5 5 5 e e e e e 0 5 0 e e e e e e e r r h b Z n b C ( ^ ~ / / ( @...o.+.,.#./ F F V B F @.@.' o.+.O.1.;.' ^ H C B b v h y y a K c e e 0 5 e y r r e y y r r r h M b M Z Z V n v h r e e e e 0 5 5 5 5 e e e 5 5 ",
"$ - - - - - , ; - ; ; ; , ; - , ; 3 4 3 4 5 8 u e e e e r r r y e 0 e e e e e e e r r y y v Z Z b S ' ' ~ / / ^ ( ( ^ o.+.O.^ / ~ C S ) +.,.,.#.1.,.4.J.e.%.( ) D B n v m y e a c e e 0 e e r h h y h y j h y h b b b b H F D H Z h e e e e e e e e r v h h r e ",
"- - - - - ; 3 ; - : 3 ; - ; , ; 3 3 4 5 5 5 e y t r y y y h h y e e t y r y y r y y y h v v n Z b A / ' / / ( ( ~ / ( ] O.,.o.' @.@.@.] #.,.,.<.<.5.4.d.W.6.o.~ D Z B b m y t e e p p e e y y v v v v h h m v v b b b S >.:.( _ ) M y y r r r r r v n Z n M v r ",
"% - : 3 3 4 3 3 3 3 4 ; ; ; ; ; : 3 4 q 8 5 0 y y y y h v v v y y y h b n Z b v v h v v v v b V B F / X.^ / ( ( / ( o.o.o.,.+.#.#.1.4.5.t.a.5.s.<.3.s.t.S.+.( / F D B v v v h y e e y y y y v b b N N k k b b n V b B ` =.( ~ F H n h h h k b n n Z G Z N M m y ",
"- - : 4 5 u 8 5 w 5 5 ; ; - , ; 3 4 5 5 0 e e a m y k v v b v h h b n B B V b v v v b b v v n B C / ( ( ^ @.^ / ^ ^ o.#.#.#.1.+.+.,.5.D.t.d.F.t.5.2.5.a.t.O...X.' / D n M v b v y h y y y h b b b M b b b b V Z Z V S ' ' D D T A B b b b Z Z n V Z b v y r y y ",
": : : 4 0 0 e 0 0 5 4 ; 6 ; 6 ; : 3 5 0 0 e r h M N b b V n M M V Z n B b b b v v b b b b b B S ~ _ ' / ^ #.@.' ( ( o.#.1.O.O.1.,.,.4.<.y. X+XK.t.1.+.O.#.o.@...@.@.~ C B b b b b b b h h M b b M b b b b B F A A C A F ~ C V n b M n b M Z V n B b v y r r e e ",
": 3 4 5 5 e e i e 5 4 3 3 : ; 3 : 3 5 0 e e r y h v b M V n b b b b V V M b b v v b n b V V C ) H F ( ( ] #.%.#.#.] o.+.#.,.+.4.,.,.r.H. X4X>XS.6.<.O.O.o.] ..' ' -.( ~ C B B G D F B N b v k b b v b b B F ~ ) ) ) ) / / ~ V b v v m y k b b b b v m y r r e e ",
"4 3 4 5 0 e e e e 0 8 4 3 ; 3 3 4 4 8 e e a e e r y y k b b k k k b Z Z n V b b b V D D A F ~ ' F F / o.o.+.+.+.+.O.O.+.G.e.1.+.+.,.i.#X4XE.a.3.8.2.+.+.#.o.@.] ] @.X.' / ~ F ) ~ ( ` H A Z V b b b b V D V } *.) ) ' ' ' _ ) V b N v v b M b v v m a y t e e 0 ",
"4 5 5 5 0 0 0 e 0 8 5 5 : 6 7 4 w 0 e e e e e y y y y k b b b k b b Z C V n b b C F ~ F F ~ ) / F ( ] #.#.+.,.#.+.+.+.O.K.U.v.i.e.5.4.u.a.5.3.5.4.3.2.,.,.o.o.] o.#.O.#.o.' ^ ^ ' o.@._ ~ _ H F C A A C F B Z C ) _ ;.( / ~ F A B Z Z Z V n b v m y y p e e e 0 ",
"3 4 5 5 0 e 5 e e e 4 3 : ; 8 4 0 i 9 e e e e r y y v b b b b M M n B F C B B S C F F F F F / / / ] #.#.O.r.4.+.,.,.+.,.e.=XOX(..XF.G.a.9.5.,.,.5.5.3.2.2.<.,.O.,.,.+.O.#.( ( o.#.#.#.' / F F ~ ~ F F F C V V V H ) ' ) ) ~ F F Z Z Z Z n M v v h y y t t e 0 0 ",
": 3 5 w 5 8 e e e e 5 5 3 ; 3 4 5 e e e e e e r y m b n n b V n b n V H ~ F D C V D F D V F / ~ ^ @.#.+.O.t.t.,.5.2.,.2.r.`.rX<X%XoX|.J.4.4.3.,.,.0.3.2.2.3.4.4.3.,.O.1.r.#.o.#.1.1.#.( ( _ ~ ~ F _ ( F ) H F B Z A V V V V V Z Z Z b v v m m h y y y y t 0 5 4 ",
"3 3 4 q 5 5 5 i a e e w 3 4 7 4 5 5 e e e e e r h v n V V B b b b V B H ` ) D n V D F C C ~ _ ~ ( O.1.1.+.,.6.3.3.5.4.2.0.b.5XdX7X}.&X Xq.5.3.2.,.<.3.,.,.2.2.8.0.<.,.<.5.1.#.1.1.#.#.@.^ ^ ( / ~ _ _ ~ F D V M b b v m M M v b v M v m h y y r y y y r e e 5 5 ",
"4 4 3 5 0 e 0 e p e e 5 5 4 5 0 0 0 e e e e r y v b n B B b b b n n V F D V n B C C C C ~ / / / ] #.#.5.2.,.4.a.6.a.5.3.0.i.`.rXuX5X1X2XP.r.5.3.2.3.8.2.2.2.3.8.5.5.3.,.,.1.+.+.+.1.#.$.@...@.' ~ ~ / ~ H Z b v h y y h m m y k h y m v m y r y y y y t e 0 5 4 ",
"0 4 5 5 0 e e t t p e 5 0 5 5 e e e e e e r y y b b b n b b b b B V B b n n B A A F C S F ~ / ( o.o.O.,.2.,.<.d.d.t.6.4.3.d.^.}.5X-X1X4X#Xi.,.<.1.<.3.3.2.2.8.7.3.7.2.,.,.1.+.O.+.#.#.#.#.@.@.( / ( _ D Z n b v y y y e y r y y y y h h m y r a y y y p e 0 0 5 ",
"t e e e e e a m v m y e e e e e a y r e r y h b M n b n b b M b V F B n V Z C C Z Z Z V S ~ / ( o.o.O.+.,.<.4.a.D.u.d.a.5.i.+X].].+X/.oXW.6.<.,.#.,.2.2.3.3.9.3.3.9.<.+.1.#.#.O.O.1.#.o.@.@.[ ' @.X.F B n v v y y e e e e r y y y y r t a r y y y r t y e e u 5 ",
"y y e e e e j M N M m y y e e y y y r y y v b Z n b n b b b b V H D V V F F C C V B n V C ~ _ ( o.@.O.+.1.<.5.t.a.d.R.d.t.v.(.&X:XW.u.G.D.9.2.O.O.+.,.<.,.,.3.6.2.4.,.1.#.o.#.,.1.1.#.( ] o.@.>.( ) C N b h y y e e e e e e r r y y e e e e e e a a y e e u 0 5 ",
"e e r y y r y k M v y r r y y y y y y h v b B B B n M n b B C D ) F C D C C F F Z B B C C / / / ( @.o.,.4.,.<.4.3.t.i.G.F.v.=X1X/.d.5.D.8.3.2.1.+.,.4.1.,.,.2.<.,.+.+.%.] ( #.1.t.e.%.@.] $.;.@.~ F B M m y y y e e e e e i a e i a a e e e e a a y a i e 5 5 4 ",
"e e e r a h h M v y y y r r r r h m v v b B Z B n b b n V H F F ) F A F V C C C C S C ~ ~ / / / ' o.#.4.6.5.<.,.4.t.1.t.G.H. X2XI.0.9.a.5.3.3.4.,.O.,.1.+.#.o.o.%.+.o.@.' *.:.;.;.y.;.@.( ' ' ~ D V b v x y y p u e e 8 e u i u 0 i p e e e e e e e e i e 8 5 3 ",
"0 e e r y m M M h v k h h y y h v b b b b b b b v v v v b b B V F V V n n V C C S C ~ / / / / / ' o.O.1.r.d.,.4.a.3.,.6.D.d.M.U.S.8.<.3.a.3.0.r.,.,.,.,.#.@.@.' o.#.o.@.( ( ' ] $.@.' ( ' ' F F Z Z b r y y e e 0 e 8 8 0 5 u f 0 5 u u e e e 0 0 5 i u u f 0 3 ",
"e p m y j h v v h b M M k v b b M b b v v b b b v v v v b n V B V B B n B V F F C ~ ( ( ^ ( ' ( ] o.e.e.q.m.u.d.6.2.<.9.s.a.J.R.a.0.8.5.6.5.5.4.1.O.1.t.] ( =.' ] #...( ' @.( ' X./ _ / ~ F S A Z M v y a e 0 e e e 5 8 8 q q q 5 5 0 u 0 5 e 0 0 u q 8 8 5 5 3 ",
"p e y y y y y y r h k k v v v b v y y v k b k k k b v b b n n n n n n B C F ~ F F / ( / ^ @.@.@.#.+.u.1.1.E.E.i.t.2.,.a.a.5.a.R.A.A.3.<.3.3.5.5.,.,.4.,.( ~ ~ ' $.@.( ( =.( @.[ _ ' ' _ ) A B Z Z v h y a a e e 9 9 0 0 5 5 5 5 5 8 u u i u 8 5 0 q q 4 5 8 4 3 ",
"e e e e y y e e r y h h h y v v y r r r y j k k b b b b b b b b n n n B C F ~ F ) / / / ( o.#.+.1.1.O.#.#.H.E.r.5.,.3.9.3.3.3.0.a.5.3.3.9.0.9.4.+.+.,.+.] ~ C / ....^ _ ) / _ / / ) j.} S V n b b v k y e e e e 9 8 8 8 5 5 5 q 5 w w u u u f 0 u 5 4 4 4 4 3 ; ",
"e e e e a e e e r y h h r r r r y r r y y y k b N b b b b b b M n n V Z C ~ ~ ~ ) ^ ^ ] o.O.O.+.+.O.+.+.O.S.G.6.4.3.3.3.3.4.3.,.5.t.3.2.3.s.9.2.+.+.+.+.@./ ~ ~ / / ( ' ) ~ ~ ~ _ _ *.F V Z M n b b h r r r e e e 8 0 5 5 5 5 5 4 4 4 0 0 q e u 8 5 4 3 3 : - , ",
"e e e 5 e e y e e y r m r r y y y h y j h v b b b b v b v v b B V Z V V D ~ / F ~ ( O.O.o.+.+.#.O.+.O.O.,.a.4.9.5.3.<.3.2.<.3.3.<.5.4.2.2.D.0.3.2.4.2.#.@./ ~ F ~ ~ ' ' / / / ' @.$._ C C V Z Z N h r y y r e e e e 0 8 5 5 5 5 5 5 w 5 5 5 5 5 5 4 3 : ; , , < ",
"0 0 e 9 e e y e e e e y y y a h j j j h k b b M M M b v b b n A D C V C D ~ ( / ( o.O.+.+.O.4.4.+.O.O.+.1.d.a.3.2.2.4.4.,.,.3.5.<.<.2.2.t.6.3.3.2.,.4.#.../ ~ ~ F ` X.$...( _ =.:.=.F V V Z Z b k h h j y r y a e e q 5 4 5 5 5 5 w w 5 5 5 5 5 8 7 ; - ; ; , $ ",
"w 0 e e e e y y a y e y y y a j k h h v k v b b b M b v b b V V S V A C F ^ X...o.O.O.#.+.5.6.,.O.O.O.,.4.G.d.6.<.,.2.2.2.,.3.<.,.,.3.2.6.0.3.4.+.O.%.$...~ F F F H / o..._ / ^ ( F B G Z Z n b k h y y r r y e e e 0 0 q 5 5 5 4 4 4 5 8 4 q q 3 ; ; - - $ $ $ ",
"5 8 i e e y y y y r y r r y y y k k h k k b M n M b v v b b B S S C F F / ' @.o.O.#.o.%.r.d.1.O.+.O.O.,.4.m.d.5.,.,.,.,.,.,.4.<.<.<.3.3.3.8.5.1.#.o.@.' ( ~ D D D F F ' ~ ~ / ~ C G G V b n V b v j y y r e e e e i e 5 0 5 5 5 5 5 5 4 3 5 8 4 ; ; - - - + + + ",
"5 5 e e e e y y e e e r r y y r h h h k k v M Z b v v b n Z C C D C F / ' ..' ] ] o.o.#.+.1.1.O.O.O.+.,.r.F.5.,.,.<.,.4.,.,.<.,.3.<.5.a.9.8.2.1.#.o.' ( ~ F D C C V C ~ F ~ ~ ~ F Z Z V b n n b k h y r r r e e e 0 0 0 5 5 8 5 5 5 5 5 4 3 3 6 ; - $ $ > + O + ",
"5 5 0 e e e e e e e e r r r e r y y y h h v M b b b b V V V A C F F ~ ^ o...^ ] @.o.o.#.O.,.+.O.O.O.,.+.r.d.,.,.,.,.<.4.2.5.4.,.2.<.5.5.0.8.3.4.O.( ( / ~ F F C B n V H F D ~ ) H V b n b V Z b b h y r r e e e e 0 0 w 5 8 5 4 8 8 4 4 4 ; 6 ; % ; $ + + # # O ",
"5 8 0 e e e e a p e p e e e e y r y y h b b v v b n n B B B C F F / ~ ( o.( ( #.o.o.o.o.O.1.+.O.O.4.4.+.i.r.#.+.,.,.<.<.,.6.2.,.3.5.3.a.D.9.6.q.@.X./ ~ ~ ~ ~ F V n V ) H V F F H Z B V b M M v v j y r r e e e e e e p e e 5 4 4 4 5 3 3 ; ; ; , $ > + # @ @ o ",
"5 0 0 e e e a a e e e e e e e t t r y h b v h v b b B b n B C ~ F ~ / ( ^ ^ o.+.O.o.o.o.O.,.+.,.1.r.,.+.i.q.#.+.+.,.<.2.4.6.3.3.3.2.3.D.S.5.5.#.o.@./ ~ ~ ~ ~ F V V Z H F V B H B n n n M b v y y y r t t e e e e e e a e e 5 4 5 4 w 3 : ; % ; $ $ $ $ + > @ o ",
"4 4 5 5 e e e e e e i e e e e e t t r y v v k b b n B n B C ~ ~ ~ / / ( ( @.#.#.O.+.@.o.+.+.,.4.1.,.O.+.e.#.O.O.+.,.,.3.a.5.5.5.3.3.8.D.0.3.3.,.#.#.^ ~ ~ ~ ~ C B V Z H B V b b n b b b M v h y y e e t e e t e e t e e e 0 5 0 5 5 w 4 3 ; - % $ $ + + O O O o ",
"3 3 4 5 0 e y e e e e e e e e e e e y r y m v v b B V B C ~ ~ / ( ( / ..o.@.#.O.+.#.o.o.O.O.1.d.1.+.#.e.u.O.+.,.<.3.<.9.0.5.3.3.0.a.0.0.8.8.2.,.e.$.^ ~ ~ F ~ F B n B Z n V b k v M N v v v y y y y r y r t t t t t t t e 0 e e 5 8 5 5 4 6 6 ; $ + O O o o > # ",
"3 3 3 w 0 e p e 0 i a e e e p e e e r y h k v b n V G C D ~ / / / ~ ~ ..o.o.o.O.1.#.o.o.O.O.1.G.1.+.o.U.|.1.,.,.2.4.9.3.3.5.2.A.A.8.0.5.3.0.a.+.$.@.@./ F / _ F F V Z B B V b b b v h m m h y y e e y y r t t t r e e e e e e e 9 5 5 5 3 ; % $ $ O O o o o o o ",
"3 3 3 4 5 5 5 9 5 u a 0 0 e e e e e t y M k b n n V H F F ) ~ / / ~ / ( o.o.O.+.+.+.O.#.O.O.5.t.+.#.c.OX+Xi.6.t.4.4.a.3.0.2.5.S.<.8.3.4.5.<.5.%.' ^ ( ~ ~ / / ~ C F A V Z V b Z G Z m j j j y e y y y a t e e t y e e e e e e e e 5 5 4 ; ; ; $ $ + O o o o o o ",
"3 : : 3 4 4 e y e e e 0 e e e e r y r h b k b b b B C ) F F F ~ / ( ( o.+.,.,.,.+.,.+.+.O.+.5.5.e.c.~.2X:Xd.6.e.1.4.5.4.<.,.G.r.5.4.3.3.3.,.,.@.( / ~ ~ / / / / F ~ C H T B b Z A H V y y y e e y e c f 0 0 e e y e e e e i e 5 9 8 4 4 4 ; ; * $ + # O o o o o ",
": : 3 3 4 5 p m m y r r r y y y h m y h k b b b b B ~ ~ F D ~ / ( ( ( o.O.+.1.+.O.+.+.+.+.a.5.r.I.N.;XwX=XE.e.O.+.6.d.t.4.t.H.v.G.,.5.3.2.1.%.^ / / ~ / / / / / ( / ~ F ) ` ) D F _ H m m y y a e e e e 0 0 e e e a e e e e 5 5 8 8 5 3 : - * $ $ + + # O o o o ",
"3 3 3 4 5 0 e y v M b n v v m v v v h h b b b B C ) ( ~ ~ ~ / ' @...] o.o.O.1.1.O.O.+.,.,.i.r.J.Y.].wX1X-X|.u.t.d.D.3.,.v.).$X>XJ.,.i.4.4.#.' ~ ~ / / / / ~ ~ ~ ' ( / ~ ~ ~ F ) F @._ M m a y m a a e e e e e e e y y e e 9 e 5 5 4 3 : - - $ $ + + + + O # o o ",
"3 3 3 5 0 e r h b b B Z V n b b b k v b n n B A / ' / / / ( ....@.o.o.o.1.4.1.O.O.+.+.1.y.I.F.r.N.5XrX8XOX^.#XW.u.r.#.L.+X,X8X>XS.3.3.+.2.#.~ ~ C / ' ( / ~ ~ / ' _ / / ~ ~ C ~ ~ :.' b v y e a y y e r e e e e e y p e 0 0 5 4 4 4 3 : : ; $ $ + + + + o o o o ",
"3 3 4 5 e e r h b V H ) F C b b b b b n B C F / ' ' ^ ( ' @.@.( ( o.o.e.i.#.O.O.O.+.+.1.M.b.u.1./.7X7X2XoXU.P.m.m.J.M.$X,XrXyX.X6.0.<.O.,.%.( / ~ ~ ( / ~ ~ ~ / _ / / / / / ~ F ~ =.} V b m y e y a y r e e e e r r e e e 0 5 4 4 4 : : 3 % $ + + + + + o O # O ",
"3 3 4 8 e y h b G R ` _ ~ C B Z n b B A ~ / ( @.] ( o.;.@.o.] ] @.#.y.1.+.e.q.+.,.1.1.e.N.^.^.N.,X<X%X~././.~./. X+X,X*XeXuX=XG.0.5.4.%.O.%.X.' / F ~ ~ / F F ~ / ( / / ( / ~ ~ ~ @./ H b h y y r y a e e r e e e e e e e 0 5 4 4 3 : : ; $ $ + + + + + + + + + ",
"3 4 5 e r m M A ` D B H F B n n n B F / ( o.o.o.O.O.o.] ] o.@.y.%.1.1.O.O.e.r.O.1.r.d.i.P.[.}.,X7X<X&XoXOX,X5X*X%X1X9XeXwX2XXXS.a.4.+.O.O.+.( ~ ' / ~ ~ F C S D ~ ( / / ( / F ~ ~ X.~ H b h x K a y y j a e e e e e e e 0 5 4 4 4 3 3 : ; $ $ + + + + + + $ $ + ",
"5 e e r h M N M n Z Z V Z B B V C ~ ' q.1.+.,.4.#.o.o.o.#.;.H.m.i.r.+.O.O.O.r.e.,.4.t.5.v.(.5X0X0X5X2X`.{.eXpXqX0XpXpXrXOXU.G.r.,.+.+.1.+.1.' ` ` ~ ~ F C B B F F / / ^ ..( ~ / ( =.` H b m m a e y r r e e e e e e e e i 5 4 3 3 3 : ; - - $ $ $ $ $ $ $ $ $ + ",
"r y h v h h h h m M V n B V C C ~ @.#.#.%.#.1.#.o.o.%.4.%.e.v.t.i.1.O.+.,.,.1.2.<.5.d.4.c.}.aXiXqX8X=X~.&X7XeXaXpXpX7X*X:XJ.9.<.,.,.+.#.@.e.@./ / ~ / F V B n Z D F / / ..@.' ' ^ *.J B b v y y r e e y a e a y e a a e u 5 4 : : ; - $ - - $ $ $ $ $ $ $ $ $ $ ",
"h v N b y y y y h b M b B C C C / ..o.o.o.O.+.o.o.#.$.#.O.O.+.1.O.O.+.,.2.1.1.1.i.i.i.b.`.aXiXaXaX4XL.H..XoX+X=XoX).].3X-XF.A.f.a.a.+.@.^ @.@._ / ~ ~ A B n n V C ~ / / ' @.o.@.] X.F B n v y r e e a a y y t e e i e e 5 4 3 : 3 : - - - - $ $ - ; % $ $ $ $ $ ",
"M Z M y r e t r h b M b n V C C C / ( o.o.o.o.o.o.o.o.o.O.O.O.O.O.+.+.+.y.N.N.Y.T.~.B.!.,X9X9XwX@Xp.+.5.0.d.S.d.i.m. XwXwX@XK.R.R.m.@.( ( ..( ' / / C S n b V C F / ' ( ' @.o.+.e.-.*.A H Z v y r a m y t a p e e e e 5 4 4 3 : 3 : - - - - $ - : ; ; - - $ $ $ ",
"y v y r e e e r y k b b b B B C C ~ ( ..@.o.o.@.] o.o.o.o.O.O.O.O.,.1.n.[.8X5X}.{.*X1X3X=X@X.XH.1.,.3.6.5.3.3.3.3.6.v.=XyX.XW.W.v.@.( ( ..../ ~ F F C S n n V D ~ / ( ' @.( o.5.d.@.*.H H V m y y a r y a e p e e e 5 4 4 3 3 : : : ; - - - - $ - ; - - - - - - ",
"e y e e e e r r r h k b b n V C F ~ ' ] o.o.....^ ( @.o.o.+.#.#.O.+.i.oX-X5XqXqXuXwX XP.H.4.5.2.,.2.,.3.3.3.3.3.3.9.5.G.K.t.d.e.o.( ;.' ( ( ~ ~ C C D C Z S D F ~ ' / / ' ] O.5.i.$.) H B b v y y h r e y a e e 0 5 5 4 3 - : - - ; - ; ; ; % - - ; - - - - - ; ",
"w 0 0 0 e e r y y j k b b n V D F ~ ( @.@...( / ~ ( ( ' ..o.o.o.#.%.1.y.B.].7XwX=XL.1.4.,.,.,.O.+.,.,.<.6.3.2.t.<.,.S.W.u.,.,.&.( @.$.^ / / / ~ F A C C V C F F / ( / / ^ #.a.D.4.@.` { B b v h h y r e e e e e 5 0 w 3 : ; : : - ; - - ; ; ; ; % - ; - - ; ; % ",
"3 4 5 8 e y h y j j k v b n B D F ~ ( ..X./ F A ~ / / / / ^ ( o.o.O.+.,.1.v.L.b.y.+.1.%.,.,.O.+.+.O.,.4.<.,.4.a.a.3.XXm.O.@./ ( / / ( / ~ ~ ~ ~ ~ C C C D F F ~ ( / ~ / ( ,.6.A.,.' H H V b b k h h j x e i e e 9 e 5 : - ; ; ; : : : ; ; ; ; ; % ; ; ; ; ; ; - ",
"3 5 5 5 e r h h h k v v v b B C F F ~ ~ ) F C C D F ~ / / / ^ ( o.o.+.,.4.1.+.+.+.#.O.+.O.O.,.,.,.O.,.1.,.,.1.a.G.t.i.i.1.' ~ ~ / ~ ~ F F F F F F C F F F C C / / ~ F ~ ] ,.<.a.4.' C V V V b v k h y e e e e e e e 4 : - ; ; - - 3 3 3 3 : : 3 3 ; ; 3 : ; : : ",
"5 0 e e e e y h h h k k v b n V V C C C C C V V D D F / ^ ^ ' ..o.#.+.,.%.+.+.1.1.#.o.O.O.O.1.,.,.+.,.+.O.O.4.1.o.o.#.1.%.@.' _ F F F D C D D C F F D F C C ' @.( / ) / $.+.O.,.#.) V N b M v v v y e e e e e e e 0 w 3 ; ; ; - ; 4 3 3 8 8 : : 3 3 3 : 7 3 3 3 ",
"5 e e e e y y y k k k k k k b n V C C C V V D D D F ~ ( ] @.@.@.o.#.+.+.O.O.O.O.#.O.o.o.+.,.#.1.#.1.+.O.o.( @...( ~ ~ ~ ~ F ) F F D C C C D D D F A B n S A =.X./ / ' ' @.o.] #.$.F n M b n v v v r e e e e e 0 0 w 3 ; ; ; ; - 3 8 5 3 4 3 : : 4 4 4 3 d 7 6 3 ",
"0 p p e e e a m k b k k h k b b n C C D D C D D D D ~ ^ ' o.o.o.( ( o.+.#.O.O.o.o.o.O.O.O.+.+.+.+.,.+.#.@.' ( ( / F F A B V V S C C C C C D D D F C B b V ~ ^ / / ( @.X.@.o...%.o.B b b b b v m m y e e e 0 5 5 5 3 ; - - - ; - : 4 5 5 3 3 3 3 4 5 3 3 : 4 3 3 ",
"5 0 0 0 9 e y h h k k h k b b b b C D F D C C C D D D / ( ( ( ( ( ( ..o.#.O.o.o.o.#.+.+.O.O.O.o.O.O.o.#.@.( / ~ ~ F F C V V V A D F D C D C D C B n b b A / ~ ^ $.@.( ( ' ' ( o./ M v b v v h h m y y r e e 5 5 3 ; - - - $ : : : 3 4 4 4 4 3 3 4 4 7 4 4 3 3 3 ",
"5 5 5 0 e e r r y m b v v v b b b F F D D C C C C C D / _ _ / / @.^ ( o.o.o.@.@.o.#.o.o.] @.X.( ' ' / ( / F D D D F F ~ F C C V C D C B V V D Z N M b B ~ ( _ @.$.@.( / _ =...( F M b b k k h h h y h h z t 5 3 : - - $ $ $ - : 3 5 5 3 3 4 4 5 4 q 8 8 8 3 3 : ",
"0 0 5 e e y y r a v b N b v v v B C C C C C C D C S S C F ) ~ ( / / ..o.o.@.@.@.' @.( ^ ^ ( ' ^ ( ' / / ~ F F F ~ ) _ / ~ F C C C A C B B V B n n b b D ( o.$.' @.../ / ' @...J B M b k h k k k y y h y z t 4 : - - + $ $ - - : 4 4 5 5 4 4 4 5 5 u u u 5 4 3 : ",
"4 5 5 e y j j y y k k b v v v b S D D S B C C F C C C S V C F ~ F / ( o.o.( o.o.[ ( ( ( / / / / / ^ ^ / ~ F ~ ~ ~ ) _ ( ~ F C C C A D C C C S b b C D / o.+.o.$.$.^ ~ ~ / / F Z N n v v v k k m h y y r e e e e 5 3 ; $ $ - - - 3 4 5 0 4 4 4 4 q u u e q 8 3 3 ",
"4 8 0 a a y y y y j y h v v v n C D ~ D V S F F / ~ C S V F D C C ~ ( @.@.( ] o.] ] ( ^ ( / / ^ / ( ^ ( _ ~ ~ F ~ ~ / ( / F D F F F F C C V V Z C F ~ ' ( @.( ' ' / / ~ F F B k.&Xb M v b v M b h h h y y e y m y e 0 : - $ $ - 3 5 0 5 w 0 5 4 8 0 e e p w 4 4 ",
"4 0 0 a y e a y y y y y y y y v b b B F D A / ( ~ C C B B V D C C C ~ ^ ( ^ ^ ' ( ' ( / ( ( / / / ( / / / / / ~ ~ ~ ~ ~ ) A F F F D D C B n V M n C ~ ( ( X./ / ( / / _ F V V T E b b v v v v k b v y y y e y a e e 0 4 3 - - : 3 8 e 5 5 w u 0 5 e p e e e 0 0 ",
"4 4 5 e e e a i e e y r r r r r y h b B Z Z ~ / C n n n n V V F ~ F ~ ( ( / ^ ( ~ / / / ^ / ~ / ( ( / / ~ / ( ( / / F F C S C C C V B b b v v b M B D / ( @./ ~ / ~ / ' F B V b v b v v v v b b b j y r e e e e 0 5 5 0 5 4 : ; : 5 0 4 0 0 q 0 0 e y y e e 0 0 "
};
