/* XPM */
static const char *conhecimento_EA[] = {
/* columns rows colors chars-per-pixel */
"128 128 225 2 ",
"   c #0E0F0B",
".  c #140D07",
"X  c #180F07",
"o  c #150E0A",
"O  c #180F0B",
"+  c #171107",
"@  c #1B1107",
"#  c #16110C",
"$  c #1C130C",
"%  c #1F180E",
"&  c #1C1510",
"*  c #1F1810",
"=  c #171610",
"-  c #231406",
";  c #251806",
":  c #2C1B06",
">  c #22160D",
",  c #29170B",
"<  c #24190E",
"1  c #2D1E09",
"2  c #281B0D",
"3  c #291C0D",
"4  c #2A1D0C",
"5  c #2B1E0E",
"6  c #2A1D0D",
"7  c #2C1E0E",
"8  c #2D1E0D",
"9  c #2B1B0D",
"0  c #331D06",
"q  c #3A1F06",
"w  c #331D0C",
"e  c #391E0C",
"r  c #221710",
"t  c #261A10",
"y  c #241910",
"u  c #2A1C11",
"i  c #2B1B11",
"p  c #331D10",
"a  c #381D10",
"s  c #2E210E",
"d  c #2E210D",
"f  c #2D2207",
"g  c #352106",
"h  c #3D2206",
"j  c #32250B",
"k  c #31260D",
"l  c #35260E",
"z  c #33220C",
"x  c #3C220B",
"c  c #36290E",
"v  c #3C2A0D",
"b  c #392906",
"n  c #2F2210",
"m  c #2E2012",
"M  c #2D2111",
"N  c #322511",
"B  c #352610",
"V  c #332412",
"C  c #3A2311",
"Z  c #362911",
"A  c #362912",
"S  c #392A10",
"D  c #3A2B13",
"F  c #392B1A",
"G  c #352A1C",
"H  c #432506",
"J  c #492704",
"K  c #462906",
"L  c #4B2C06",
"P  c #42250A",
"I  c #49270A",
"U  c #442A0B",
"Y  c #4B2C0A",
"T  c #502F06",
"R  c #502F09",
"E  c #4E3106",
"W  c #44310B",
"Q  c #4D320B",
"!  c #453207",
"~  c #533306",
"^  c #593605",
"/  c #563805",
"(  c #5C3C06",
")  c #54340A",
"_  c #59360A",
"`  c #553A0C",
"'  c #5C3C0A",
"]  c #402710",
"[  c #442C11",
"{  c #492C12",
"}  c #423116",
"|  c #4C3411",
" . c #4E3911",
".. c #44341D",
"X. c #48361D",
"o. c #48381B",
"O. c #513612",
"+. c #563B11",
"@. c #5B3E12",
"#. c #623E06",
"$. c #613E0A",
"%. c #463520",
"&. c #5E410B",
"*. c #5C4006",
"=. c #5C4312",
"-. c #634306",
";. c #6A4606",
":. c #664907",
">. c #6C4B05",
",. c #63430B",
"<. c #6A450B",
"1. c #64480A",
"2. c #6C4B0B",
"3. c #734D06",
"4. c #724D0B",
"5. c #794F0A",
"6. c #6D5104",
"7. c #6E510C",
"8. c #735306",
"9. c #7B5406",
"0. c #7C5A06",
"q. c #74530B",
"w. c #7A550C",
"e. c #76590C",
"r. c #7C5B0B",
"t. c #624411",
"y. c #654A13",
"u. c #6C4D11",
"i. c #684E18",
"p. c #684712",
"a. c #704F10",
"s. c #6E5114",
"d. c #745412",
"f. c #7A5511",
"g. c #765913",
"h. c #7C5B12",
"j. c #765819",
"k. c #7E600D",
"l. c #7F6113",
"z. c #825B05",
"x. c #885F05",
"c. c #825C0B",
"v. c #8B5F0B",
"b. c #805704",
"n. c #825D12",
"m. c #815712",
"M. c #856107",
"N. c #8C6305",
"B. c #8D6906",
"V. c #85620B",
"C. c #8B650B",
"Z. c #876809",
"A. c #8D6A0C",
"S. c #906606",
"D. c #946B06",
"F. c #916709",
"G. c #936C0C",
"H. c #986F0B",
"J. c #996E07",
"K. c #9C7205",
"L. c #95710C",
"P. c #9B730C",
"I. c #9F780C",
"U. c #846313",
"Y. c #896412",
"T. c #8D6913",
"R. c #8F6A1A",
"E. c #87661B",
"W. c #926C13",
"Q. c #986D10",
"!. c #976E19",
"~. c #967114",
"^. c #9C7412",
"/. c #9D7814",
"(. c #95731B",
"). c #987618",
"_. c #9C781D",
"`. c #A17505",
"'. c #A67A03",
"]. c #AC7E05",
"[. c #A1750C",
"{. c #A47A0B",
"}. c #AA7E0C",
"|. c #A17612",
" X c #A57B12",
".X c #AB7D12",
"XX c #A87D18",
"oX c #A47D1B",
"OX c #AC820B",
"+X c #B48405",
"@X c #BE8904",
"#X c #B4850D",
"$X c #B8860C",
"%X c #B7880D",
"&X c #BD8B0C",
"*X c #B98906",
"=X c #AC8112",
"-X c #A9811B",
";X c #B28513",
":X c #BB8B13",
">X c #B78C1C",
",X c #BE9010",
"<X c #C28D05",
"1X c #C18D0A",
"2X c #CA9305",
"3X c #C6920C",
"4X c #CB950B",
"5X c #CC980C",
"6X c #C79102",
"7X c #D19904",
"8X c #D29B0C",
"9X c #DA9F09",
"0X c #C08C10",
"qX c #C99513",
"wX c #C69814",
"eX c #CE9B12",
"rX c #C49115",
"tX c #D29B11",
"yX c #DCA40D",
"uX c #DAA005",
"iX c #DCA512",
"pX c #DFA811",
"aX c #D6A01D",
"sX c #E0A712",
"dX c #E0A911",
/* pixels */
"j j j j j c A 7 - - - 2 2 2 2 m 7 2 2 7 s f B Z 2 > t t > @ $ $ $ $ $ $ $ $ O $ $ O O $ $ @ > $ $ @ $ $ $ * X $ @ $ t 2 7 2 2 2 2 2 2 7 V c f k N 4 m 2 > u 2 > 4 N s s 7 > @ > @ > i > @ X # X o o . o o o o o o X @ $ $ $ $ @ 2 B D v j 1 7 2 @ X # # X o # # ",
"f f j c c s > @ 2 u u 7 2 - - 2 4 7 7 s f s B 7 3 > @ $ @ @ $ $ $ y > @ $ O O O O $ O $ X > t $ $ $ & O $ $ @ * $ O - 2 u 2 2 2 2 2 2 7 m D 1 1 s s 7 2 u i > 2 s s j 7 7 @ $ $ > 7 > @ X o # o o o o o o o o o o # @ > u $ $ @ $ 7 D D j 1 1 1 2 @ # X # # # # ",
"j Z Z j < @ > 2 7 7 7 2 7 7 7 7 2 2 2 7 s k j 7 7 $ $ $ $ O O @ > r @ @ # # O O $ $ O $ X > 2 $ $ $ # O $ $ # X # # O $ $ > > > > > > 2 s A 7 7 7 4 7 m 2 - 7 N N d m 7 2 $ > 3 s < $ o o o # o o o o o o . . o o X @ $ > $ $ @ $ - j [ j j 9 2 7 t $ @ X X O $ ",
"Z N 4 $ O @ t i 2 2 - 2 2 2 2 2 2 2 2 7 j f B s 2 $ $ $ # # # $ * O @ # X O $ * $ O $ @ $ 2 2 * O $ O $ $ # # o O $ O O O $ $ $ $ > > 2 m A 7 2 7 7 7 2 2 m N k s 7 2 2 @ > 2 7 2 $ O o o o o o o o o o o . o o o # @ @ @ > > > $ 2 k D c j k 7 2 > > > > $ $ $ ",
"2 > O @ $ > > 2 > > > > - 2 t > > - - 7 s f k k A 2 @ $ @ > @ @ @ @ $ $ O O # $ $ * $ $ t 2 - $ $ $ $ $ $ # & $ # & O $ # # @ @ > > - 2 7 N 2 2 m m 2 7 V m s 7 2 2 2 @ > 2 7 2 @ o o o o o o o o o o o o o o o o $ @ @ @ > 2 > > > 7 c D j k f 7 > - - > > > > ",
"@ $ $ @ $ @ > > > $ $ $ > > > u > > 2 2 7 s k N V 3 2 2 2 u 7 < @ $ $ $ $ O X @ @ $ r $ @ > $ $ $ $ $ $ $ $ $ $ @ O $ $ @ @ @ $ > > - 7 m N 2 s m 7 7 s 7 u 2 > > @ @ > t 2 7 $ o o o o o o o o o # o o o o o o # # @ > > > 2 > > > 2 1 B D j f 4 2 > - - - > > ",
"$ $ $ $ $ @ > $ @ @ @ $ > > @ 2 > > > 2 7 4 k D 2 @ > 7 m 7 7 3 @ $ O O O # # @ @ @ > > @ > $ $ $ $ $ $ $ @ $ @ @ $ $ $ @ $ $ > > > 2 2 N A s 7 4 7 m 7 2 > $ @ @ > t 2 - u $ # o o . o o o o o & # o o o o o o X # @ 2 u 2 2 > > > 2 2 2 k D c d 7 2 > > > > > ",
"$ $ $ @ $ $ $ $ $ @ $ $ $ @ $ > t > > > 2 7 s j > t > @ u u 2 > > 2 > $ $ * @ $ y @ 2 2 7 > @ > $ $ $ $ > $ $ $ @ > @ > > > > > 2 9 7 7 D N 7 7 s m u > @ $ @ $ 2 u 2 > 2 > X $ X . . o o o o X # o # # # X X # O O $ > 2 2 > > > 2 k 2 > - 7 j s 2 > > > > > > ",
"$ $ $ @ $ $ $ $ @ @ @ @ $ $ $ $ > > > 2 7 7 7 7 X > $ O @ > $ 2 i i 2 > > @ - 2 m > > > 2 > > > > > > > 2 2 > > > 2 2 2 2 2 2 2 1 j j B k 4 m N u > @ # # $ $ t 2 $ > - @ X X # . . o o o o o & # O O $ X > y @ $ $ $ @ $ > > - - - 2 2 > @ @ > 2 $ $ $ $ $ $ $ ",
"X X $ $ @ O O $ $ $ $ @ @ @ $ @ @ $ > > 7 7 7 u > @ * $ $ @ @ @ $ > @ @ @ $ $ @ X @ @ > $ $ > > > t > 7 7 u u 2 7 7 7 s k f k k j j c f s j s 2 @ X $ @ @ > > > @ > 9 C @ o # X . o X X o o # * # O O $ X y > # O $ $ @ @ > > - > > > 2 7 > @ # # # # O O @ @ $ ",
"@ $ $ @ $ # O O $ $ $ t r $ $ $ @ $ $ > 2 7 7 2 2 > * $ $ $ @ @ $ $ $ * $ $ $ $ $ X @ > @ $ > @ $ > - > 2 2 2 2 7 k j k j f k j c j V N m > @ O # # $ $ > > @ @ > > > > X O $ X o o o X X X O O X # # $ $ o o X O O $ $ @ $ > > > > > > > 2 2 $ O # O X O $ $ $ ",
"# * # # $ $ $ O $ $ @ @ @ $ @ $ @ @ $ > > 2 7 2 2 u > @ O O @ $ > > r $ @ $ @ @ @ > 2 2 2 > $ $ @ $ $ @ @ > > 2 2 D j f j k k c D N 2 $ O $ $ $ $ $ & > @ @ @ $ 2 > @ o # $ O o o o o X O O O O X # # $ & X # O O O # # @ $ $ 2 2 2 2 2 > > > 2 $ X X X X O $ $ ",
"# $ # $ $ $ $ O O $ $ @ @ $ $ $ $ $ @ > @ > 7 7 2 2 7 2 @ @ $ > $ $ $ $ $ $ @ > 3 7 2 7 s V 2 > @ > > > > > > 2 2 j D f k j D D u @ X $ $ $ $ $ $ $ $ @ $ @ @ 2 > > @ $ $ $ O X o o . X X X O O O & $ $ $ @ X @ $ $ O # # $ @ > 2 2 > > > > > - t > O X X O $ O ",
"@ @ # # $ & $ O O X # $ $ $ & $ @ $ @ $ @ - 2 7 7 2 > > 2 > > > @ $ & $ O $ > i 2 2 > 2 2 f s > @ > @ $ @ > 2 > 2 s j k j D B i @ $ 2 @ $ @ $ $ $ $ # @ $ @ 2 $ $ m < @ @ $ X X o . . o X O $ # # $ & $ @ $ X $ $ @ X # # $ $ $ > > > > t > > > @ > $ X X O $ @ ",
"y @ # X O $ # O O X @ X $ $ $ O @ @ @ @ $ > > 2 7 7 2 - > - 2 - - @ $ > > > 2 > > > 2 > 4 j s 2 > @ O $ $ $ > $ > 2 j j D V 7 - @ $ > @ $ $ @ $ # # $ @ @ $ $ $ # $ @ @ @ X X o o o . o X X # O $ m $ $ @ > @ $ $ # $ $ $ $ $ $ $ > > > > > > @ $ $ > @ X X @ @ ",
"$ @ # # $ $ # # $ $ @ $ # $ O O # # # @ $ > > 2 2 7 s 7 2 2 2 2 7 2 2 7 7 m m 2 > > > 2 s c j 7 t > > $ $ $ $ @ > - k Z V 7 > @ t t @ > > $ @ $ X $ $ $ @ $ $ $ @ $ * $ # X X o o . o X o X $ $ > A @ $ $ 2 $ # $ $ # $ $ $ & $ @ > > > > > > @ O $ > t @ @ @ @ ",
"$ $ # O # $ @ X O O $ $ O O O O O O $ $ $ $ $ > 2 < 3 7 u 7 7 7 7 7 4 2 2 4 7 s m 7 2 2 u k k 7 u u > $ $ @ @ $ > 2 N j 7 2 - > t > > > $ $ $ @ $ $ # $ # @ > > $ > @ # # X o . o o o O o O $ $ $ @ $ $ @ u $ $ $ $ $ $ $ $ $ $ $ $ @ > > > - $ $ @ $ 7 2 > @ @ ",
"$ * @ $ O # @ # O O o O O X X X O $ $ $ $ $ $ $ > $ 2 2 2 7 7 7 s 7 2 2 4 V B N j c B p 2 2 7 7 2 2 2 @ @ > > > 2 7 A 4 7 @ 2 2 > > > $ $ $ $ $ * $ # # $ > a > $ > 2 # # X . . o o o O o # X X $ @ # # t t O $ $ $ $ @ $ $ $ $ $ $ @ @ @ > @ $ $ @ > 2 7 > > $ ",
"@ $ $ $ O $ $ $ O O # # o o O O O O $ $ $ $ $ > > > > 2 A V V 7 u u m u u 2 7 7 7 V N F B V k f 7 2 2 > - - > 2 > V s 7 > @ i t > > > @ $ $ $ & $ $ @ $ $ @ 2 @ # @ u @ o X X . o O # o o O o # @ @ > $ t @ $ $ $ $ $ $ $ $ $ $ $ > > @ O $ $ $ $ @ @ > s 7 > > ",
"$ $ $ $ $ O $ $ X O O O X o O O X O # # @ $ $ $ > > 2 F V 7 2 7 7 7 2 > $ @ @ @ @ @ @ > A D B k j 7 7 7 2 2 2 2 7 B s u @ > 2 > $ $ $ $ $ $ @ $ $ $ $ $ $ $ 2 @ $ # X X o o o . X # # o # O O $ $ @ V 9 > @ $ $ $ $ $ $ $ O $ # $ $ y $ $ $ $ $ $ $ $ > 4 k 2 7 ",
"$ O # & $ O O O X X X O X X O O O $ $ # $ $ $ > $ $ B D 4 7 m 7 2 > $ $ @ $ $ $ $ @ @ O @ u V k j j V m s 7 7 7 N k N $ $ r t @ $ @ $ $ @ @ @ $ $ $ $ r $ > V - O O X X O o o o X $ O O O O O $ $ @ - 2 @ > > > $ # # O O O O O O X X $ & $ O $ $ $ $ $ 2 f s 1 ",
"$ O $ O O O O X O O $ O O o O O $ $ $ # $ $ @ $ > 7 ..} Z s 2 > > > 2 2 7 7 s 7 7 3 > $ $ O m V 1 k m 7 7 7 s m 7 s 2 # $ y $ @ $ # $ $ * $ @ $ @ $ $ $ $ $ V 2 O X X $ # # o X $ $ X O X $ $ O $ $ > > > - > $ @ # # # # # X X X o X $ $ $ O $ $ $ $ $ > 7 N f ",
"X O # O # O O X $ O $ $ O $ O # $ $ $ @ @ $ @ $ > D X.D B 4 - > u 7 m N m s n m > > > $ $ X @ m V 7 7 k 4 2 7 m 7 2 @ # $ % X # # # # @ $ $ $ > @ @ # $ & @ 2 - @ X $ $ # o o # O O X X O $ O $ & $ @ - > > > $ X $ # # # # X X o o o O $ O O X $ $ $ > > 2 s j ",
"O O # O O O $ X X X O O O & O # # $ $ $ $ $ $ - V X...Z 7 2 7 4 s j N m 2 @ $ 2 2 > t t > $ X O m N V k k V V 7 7 @ @ # - 7 j $ # # # @ $ > $ @ @ $ @ @ $ > s 9 > X O O O @ # # O O O X $ $ # $ & $ @ @ > @ $ $ O $ # O o o # o o o o o O O O O $ @ $ > > 2 7 s ",
"O O $ $ O $ $ o X X O O O O O $ @ @ $ $ O - 2 F X...D k 7 m s j j N 3 $ @ $ $ $ $ > > > % > 2 X . t N N N V 7 7 @ $ $ X 4 k [ 4 X @ # $ $ > $ @ t > $ $ # 2 Z 1 @ O X O $ # # # O O O O $ $ $ $ $ > @ $ * $ $ $ O # X o o o o o o o o o O $ $ $ @ @ $ > > 2 2 s ",
"O O # O O O O O O X O O $ $ @ $ $ @ $ > 7 D } X.X.D k s s s j j j 2 X # $ $ @ X O X 2 2 @ @ t m > @ @ 2 2 2 2 @ @ $ @ > 7 @ > O # # $ $ $ > @ $ $ $ $ @ $ @ 7 1 @ # O O $ @ # O O O $ $ $ $ $ # $ $ # $ & O O O O O X o o o o o O O O o X # $ @ $ $ > > 2 i 2 7 ",
"$ O O O O O O O $ X # @ $ * @ @ > t m N D D D } } c j s k Z j j 2 X @ $ $ X $ @ $ > - @ @ @ @ > m m 7 2 7 3 @ @ # # @ 2 > $ $ $ # @ @ @ y > @ $ @ $ $ @ @ * 2 2 $ X O O $ # # # O $ $ # O O O # $ O $ $ $ O O O O O X o o o . X O O $ O X # @ @ $ @ > > > 2 2 7 ",
"$ O O O O O $ # O O # X @ > 2 m m s f f j j B D j j j j D Z M $ @ $ > > > $ $ > 7 s < > $ $ $ $ @ @ 2 t $ @ @ @ @ & @ 2 @ $ & @ $ $ @ @ 2 > > $ @ $ $ @ @ @ @ O $ $ O X $ # # $ $ O O # O O O $ O O O X $ O X X & $ X o o o X X X X O # $ $ @ $ $ @ $ > 2 2 2 2 ",
"# O O $ $ $ $ & O X $ t u u 7 7 7 7 1 f f j Z j j j j D D 7 @ + $ $ $ $ $ @ @ $ $ $ $ O $ r r $ $ @ X @ - @ $ $ $ $ > - @ $ $ 1  .2 @ - , > 2 $ $ y $ @ $ @ @ $ $ $ # X $ @ $ $ $ X $ * # X # O X O O o O O X X O O o o o O O $ O o X $ $ $ $ $ $ > > > 2 2 2 2 ",
"O O O $ $ $ @ @ $ y t t t 2 2 7 7 7 7 7 j j j k k f Z A 2 > $ $ # # X O X X X O O O o O @ @ $ r > $ $ $ > > @ $ @ $ > > > @ w ` ' Y , w z > t > > > $ > > t > $ $ @ @ $ > $ = $ $ $ $ @ # # $ O X O X o O O O O o # o o o # & $ O # # $ $ $ $ $ $ > > > i 2 2 2 ",
"$ @ > * $ $ @ > 2 > > > > 2 2 2 7 7 f j j s 7 1 k Z N 2 > $ # X O X O O O O X X O X X O # $ $ @ @ > $ $ @ > > @ $ $ 2 - > : =.;.<.` 0 w w , 9 - 2 B 2 > 2 > > > $ $ > $ > $ @ X @ $ @ @ # @ $ X X O X . O O O O o o O o o o X O # # # $ $ $ > $ > > t > 2 2 2 2 ",
"$ > > $ $ $ t t > > > @ > > > 2 7 7 f f 4 4 7 k D j - u r $ o X O o O O O X O O O # O O # $ $ X $ t @ @ @ @ < $ $ > 1 - - ` 2.q.d.&.h 0 w w 9 g Q O.V - 2 > > > $ $ y @ i $ @ i @ $ @ # $ $ X o O X o . O # O O O O o o o o X X # # O $ $ $ > > > t t > > > > 2 ",
"> @ @ $ > > > - @ @ @ $ $ $ > 2 2 2 2 2 2 7 N N j ; 7 > $ $ # # O X X O O X o # # O X O # # $ # @ @ @ @ $ @ @ 2 > > z - ] g.0.M.e.2.Y 0 x w P @._ _ x @ $ $ $ $ - @ $ > > # # $ * $ # # t $ o o # o o o # # # X O X o o o o X O X # $ $ $ $ $ > > > > > > > > 2 ",
"@ @ $ y y $ @ @ @ @ $ $ $ > t 2 > > 2 7 7 m 2 7 2 m t @ @ @ # X X # O X O X o o O X X O # # $ @ @ @ $ $ $ > w : 7 , z 9 =.h.r.U.q.1.~ h h K =.,._ _ P > > > $ 2 w @ > > @ # $ $ # # $ X X X # # o o o o # # # $ X X X o X O O $ @ # @ $ $ $ $ > > - > > > > > 2 ",
"> > t > @ @ @ $ $ $ $ $ > > > > > 2 t 2 > > - u > 7 $ $ @ @ o X # O X X X o o o X O O $ # X $ > @ @ $ > $ k y.` U w v w ,.V.r.7.>.:.~ h Y :.<.' ' ' U > > > @ 2 S O 2 > # # $ @ # $ # o o # o o o o o o # # r * X X X o o # $ @ @ $ $ > $ > > > > > > $ > > > 7 ",
"t y $ $ @ $ $ $ $ @ $ $ > > > > > > $ $ $ @ 2 2 > > @ $ $ $ # O # # o o o # @ X X # # # @ > t @ $ $ > > - v >.q.u.K h h 2.r.0.-.:.2.) ~ 1.q.:.' ,.,.h 2 2 > $ @ s - 7 $ # # @ > & O o # o o o o $ # o # O $ t O O O X X O $ @ @ @ $ > > > > > > > @ $ $ > > 2 7 ",
"> @ @ $ $ $ $ @ $ $ $ > $ > > $ @ @ @ $ @ $ > > > t > @ $ O # # X o o o . $ @ o X X # # @ > 2 $ $ > 2 2 , U q.e.h.s.Y Y e.q.:.>.>.2.( 1.2.e.-.2.d.,.w 2 , > $ $ 9 2 2 X # > ..A . O # # o o o o $ # # # # $ # X X X X O X # $ $ $ $ $ $ 2 2 2 > $ @ $ $ > > 2 7 ",
"@ @ @ $ $ $ $ @ > > @ $ > 2 > $ @ $ $ $ $ > > $ $ i > X $ $ # # o o o o o o o # > 2 > t $ $ 2 $ $ - - 2 w U q.e.q.q.u./ e.8.e.r.>.2.,.:.>.q.3.q.7.*.` ` U 2 $ > 9 s - @ & 2 D t O @ $ o o o o @ @ o o # $ # # O O O O O X # # # $ $ $ $ 2 2 > > $ @ $ $ > t 2 7 ",
"@ $ $ $ $ $ @ $ @ @ r t > - $ $ @ $ @ @ y t $ $ $ 7 > X X # @ # o o o o o o $ y t > @ > > 2 2 1 K ) U x w U 8.0.:.-.e.d.u.r.P.L.e.q.-.>.r.q.7.>.>.8.8.7.` 2 $ > z 2 @ $ $ u A m @ @ # X X O O & $ X # # # # o O O $ # # # # # $ $ @ > u 2 2 > $ $ > > > 2 i 2 w ",
"@ @ $ $ @ @ $ @ @ > 2 - > @ X $ # $ $ $ $ y @ @ @ u V - $ $ z @ o o o o X > 2 # # X X @ @ > 2 j ` ,.,.,.) K >.0.>.:.>.r.q.A.I.[.A.7.q.V.A.r.>.6.c.Z.0.U.Q > $ 1 c - > @ > A V $ > # X X X O $ X X # # # # # o O O O $ # # $ @ $ $ $ > > 2 7 > @ $ > > 2 w w 7 z ",
"@ @ r @ @ @ $ $ $ > > > @ $ X X # $ $ $ y > O @ $ > u u y u u @ @ @ @ $ $ t @ # # # $ $ $ @ > : P ,.2.7.q.q.q.8.>.2.7.q.0.D.K.OXP.0.W.J.A.h.8.V.B.D.A.q.0 > , v 9 $ $ @ > > O $ $ @ # O O O O O O # # O # O o # $ $ & $ @ $ $ $ $ $ > > > > > $ $ > 9 w e P P P ",
"@ y $ @ @ $ @ $ $ $ @ @ $ X # $ * O @ > y O $ $ $ @ @ 2 O @ $ O $ $ $ $ o $ > # # $ @ @ > - > : 0 E 7.q.r.0.e.r.8.e.8.e.V.K.I.OX^.A. X[.P.M.M.Z.G.K.R.Q : w v 1 @ @ @ > 2 $ $ $ # $ @ $ $ O O $ $ X # o # # # $ @ $ $ $ $ $ $ $ $ $ $ $ > $ > 2 > 9 w e I ) T Y ",
"> > @ $ @ @ $ @ @ @ @ @ $ X X $ > @ > > @ $ $ $ $ + > G $ @ $ X O # O o o X @ @ # @ @ 4 w x h Y Q K &.l.M.z.q.q.8.Y.V.e.B.{.OX=X/.P.}. X XV.Z.Z.G.P.2.h v x w @ $ - 2 2 @ # @ @ @ y > $ O O $ $ O O # O # $ $ $ $ $ $ $ $ $ $ $ $ $ $ $ > $ 2 7 , w q I ^ <.<.#.",
"> @ $ $ @ $ & # # # # # # @ @ @ > $ > @ $ $ $ $ @ # @ $ # # @ $ O O O o o X X # # + 2 U U Y ) ' &.1.( 2.V.V.q.6.8.L.^.G.N.{.OX{.I.P. X[.L.M.V.W.~.h.~ U P v 2 > > > 2 @ @ @ @ $ @ @ $ $ $ $ $ O X O # # @ $ $ $ $ @ $ $ $ $ $ $ $ $ $ $ * $ 7 7 , w P R <.f.w.3.",
"@ $ $ @ @ @ X # # # # o $ y $ $ $ y @ @ $ $ # $ $ @ $ # o o o O O . X o o o # O X $ @ 0 Q Q _ ' ( ,.-.-.q.V.0.e.r.P.K. XL.P.[.I.D.P.I.L.V.r.A.~.e.~ E K U w 9 7 7 9 - > $ t > @ @ # # $ $ $ $ $ $ $ @ $ > > > $ $ $ $ $ $ $ $ $ $ $ $ $ * > u 9 9 e I ) 4.m.w.4.",
"$ $ $ @ $ $ $ # # # # # @ @ $ $ $ > @ @ $ @ @ $ $ @ $ # # O o o X # O o o O O O O $ $ - c +.' ,.&.( ,.,.-.8.V.V.r.Z.P.P./.A.L.L.B.P.L.V.0.C.T.8.( 2.2.y.@.` x 1 2 > - > @ > t $ $ $ # $ $ & $ $ $ $ $ $ t > > $ $ $ $ $ $ $ $ $ $ @ @ $ $ 2 u 2 p e J _ w.m.5.<.",
"$ @ @ > $ $ @ @ @ $ $ @ $ @ @ $ y $ @ > $ @ $ > @ @ # # # o o o X O # @ # X X X # $ @ @ > w Q ' &.( -.q.V.Z.V.V.V.0.A.G.G.A.M.U.V.V.k.0.k.k.q.q.Z.B.Z.C.T.Z.q.c $ $ $ > $ $ $ $ > $ $ & $ $ & $ $ $ $ $ @ @ $ $ $ $ $ $ $ $ $ $ $ @ $ 2 2 w p 2 w e J $.5.w.4.<.",
"$ > 2 > > > > > 2 2 2 i y $ $ $ @ $ > > > 2 t y i @ # # # o o o X o o X # # $ @ @ @ @ $ 2 2 w U ` 1.e.W.G.G.G.V.z.k.q.0.r.M.0.8.0.8.q.e.q.q.e.V.Z.A.G.P.^.G.V.y.- @ > > > $ $ $ $ * $ $ # # $ $ & $ $ $ $ $ $ $ # # # $ $ $ $ $ $ > , x K Y 0 9 w P R $.4.4.<.<.",
"2 7 m u 7 7 u 2 2 2 2 2 > t 2 @ @ > 7 7 u u > > U m $ # # o o o o o o o o o X # @ @ $ > 2 2 9 9 9 Y q.Z.G.G.G.A.Z.V.V.M.r.q.6.6.e.e.7.2.r.U.T.B.A.P.P.L.A.h.q.d.B # @ @ $ $ $ $ # & # # # # $ $ $ $ $ & $ $ $ # # # $ $ $ > > > > > e Y <.,.P w x P ) $.4.4.<.,.",
"2 k 7 > t $ t t @ @ > > @ @ $ $ $ t u 2 > $ $ - } o.2 X # o o o o o o o X o o o # # @ @ @ $ - , 7 k Y ( ,.8.r.r.n.U.c.r.0.8.8.q.0.0.0.>.( 1.h.T.A.r.s.` U w 2 z 2 $ $ $ $ $ * $ # # # # # # $ $ $ $ $ $ $ $ $ $ # $ y $ $ > i 2 2 9 h ' w.2._ K Y R ' $.<.<.;.<.",
"u m > $ $ $ @ > t $ > @ $ $ @ $ > @ @ $ $ > > u s z k $ X # X o # # # o o o o # # @ @ @ @ @ > 7 7 1 7 w q U Y ( q.2.q.r.r.0.q.r.0.0.z.T.<.E J H U z z z 2 2 > $ & $ t $ @ @ $ $ # $ # # $ # $ $ $ $ # $ $ $ $ $ & $ $ @ @ > u 9 9 w P ^ q.q.<.$.$.$.,.<.4.<.<.<.",
"2 2 @ @ @ $ @ $ $ > 2 $ * > > $ @ @ $ r r r $ > 2 2 7 > $ O X O # # o o o # # # # @ @ # @ $ 2 - > 2 w h Y Y / e.r.6.q.r.r.:.&.Z.r.r.V.T.q.Y Y x 9 7 2 k 7 $ $ * # # @ $ $ $ $ $ O $ & * $ $ $ @ > # # # # $ $ $ $ $ $ @ @ > 7 9 w v K / 3.q.2.>.>.3.4.4.3.3.3.4.",
"> 2 @ $ $ # > u O @ > 3 2 > $ @ > > > > $ $ $ y $ $ $ # $ $ O O # o o o # # # # # $ # # @ 2 - > - z | U x K 7.0.8.e.0.h.y.U U d.T.M.T.G.Y.Q w Z w 2 > - 2 @ $ $ # # > $ @ @ @ $ & $ & $ $ $ $ $ # # # # # # $ * * $ $ @ @ > > , w v K ~ 1.2.q.4.4.w.w.c.9.8.9.w.",
"@ > @ $ # # $ t @ @ > > @ $ > $ > > > $ @ $ $ $ $ # # # O X # # # # X O O X # # $ @ # $ > 2 > 9 1 w z 2 w ' q.r.Z.V.l.y.x x x Y g.Y.Z.Z.U.Q - 2 9 2 u > > $ $ $ $ $ Z > @ @ $ $ & & $ * * $ # # # # # & $ $ $ $ $ $ $ $ > t > , w x I T ( 1.4.w.w.c.v.Y.w.9.w.q.",
"@ > $ & O # X @ @ $ > > t > $ $ $ $ $ @ $ $ $ $ $ # # # # O o O $ $ X O O @ $ $ $ > $ $ 1 9 2 7 2 - - 9 H q.2.e.c.e.=.z w k 1 z h t.0.r.e.Q - > > 2 u > $ > # $ @ > $ # # @ $ $ $ $ $ $ $ $ # # # $ $ & & & $ $ @ $ $ $ > 2 9 w w P R ^ $.,.2.4.9.c.c.Y.c.c.w.q.",
"$ $ # $ O # # o X $ @ @ $ $ $ @ @ @ @ $ $ $ $ O O # # # # # # # O X X o o $ $ $ $ $ @ @ w 7 > $ $ > 2 2 Y q.:.2.' K : , k 7 - 4 9 w U ' s.U > 2 y 2 2 $ $ > $ $ $ $ # $ = $ $ $ $ $ $ @ $ $ # # = # & & & $ $ $ $ $ $ $ > 2 w h K _ ,.<.2.4.4.4.w.r.c.U.U.c.w.4.",
"$ # # $ # # O X $ > @ $ @ $ @ + + # $ $ $ $ O O # # # # # # # # O X X o # # # # $ $ $ $ 2 2 @ $ $ > > , Y g.t.z - 2 2 2 7 7 - 2 > t > - k - & $ $ > > * $ > $ * > @ $ $ $ 2 2 $ $ $ $ $ $ @ & = # $ & & $ $ $ $ $ $ $ $ > 9 h K ' 2.e.e.w.w.w.9.q.q.9.w.h.r.q.4.",
"# # @ $ # # # @ > $ $ @ $ > @ @ @ > $ # # # # # # # # # # # # # # o o # # # $ @ $ $ $ $ $ 2 $ @ - > > > z t.j $ 2 > $ > < @ $ > > > > $ $ 2 $ $ @ $ $ $ $ > $ $ @ @ $ $ > w w $ $ @ # $ $ $ $ # @ $ $ $ $ $ # # $ $ $ $ 2 w Y ' -.8.0.r.0.q.w.g.w.4.4.4.4.q.2.<.",
"# # $ $ # $ @ > > $ @ # @ @ $ $ % @ X # # # # X # # # # X # # # # o o # # # # # # # # # # @ > 2 j j $ $ > 2 $ $ > $ $ > $ $ $ $ 2 > $ $ $ > > $ $ $ $ $ > > $ $ @ @ $ $ 9 w 9 $ $ @ $ $ @ $ @ @ $ $ $ * $ $ # # $ $ $ > w h Q $.<.2.q.e.q.2.4.4.q.w.q.4.2.<.,.,.",
"# @ $ # @ $ $ $ $ $ # # # $ @ @ @ X O O # # # X o # # # # # # # o # # # # # # # # # # # # # @ $ > $ $ $ * * & @ $ $ $ $ @ $ $ $ > $ $ $ $ $ > $ $ $ $ > w w > $ @ > $ > e w 2 $ $ > 2 2 @ $ $ $ $ $ $ * $ $ $ # & & & $ 2 w x K ) ' $.,.,.,.,.1.<.2.2.:.,.' ) ~ ",
"# $ $ @ $ $ $ $ $ # # o X @ $ $ X O X O O O X @ # # # # o o o # $ X # # # O O $ $ O # # # # # # # # $ $ * $ $ $ $ $ $ > $ $ $ # $ $ $ $ $ @ $ $ $ $ $ 7 h x w > $ > 2 2 7 - > @ $ , 9 9 @ $ $ & & $ $ * $ $ $ $ $ $ $ $ r t i w h I K K ~ _ ( ,.,.$.$.' _ K P I ",
"@ $ @ > > > @ @ # # # o # @ @ # O X O $ O O @ $ # # # X o o o X # X X O # O $ $ $ $ $ O # # # & & $ $ $ $ $ $ $ $ $ $ > @ @ @ # $ $ $ $ $ $ $ > $ > > w P h I w - 2 w 9 2 > > $ 2 w w 9 $ $ $ $ $ $ $ $ $ r r $ $ $ $ $ * $ > 2 9 w z h K / ( ,.$.' _ ) K x w w ",
"$ @ > $ @ @ # # # # o o # # X # $ # $ # O # # @ @ # # O o # o O O X o o # # $ $ $ $ $ $ # # # # # # $ $ $ $ $ $ $ r $ $ # # # # $ $ $ $ $ $ $ > > 2 $ 7 P P K P w w w w w w > > 9 w w 7 $ $ $ $ @ $ $ $ $ $ > > $ @ $ $ $ > > > 2 2 w e K / ' ,.' ' _ K h w w w ",
"@ $ > # # # # # # o X O # # # # $ # # # # # # # # O O # o o o # # # # # # # # # # # # # # # # # # # # # # $ # & * $ @ $ # # $ # @ $ @ # $ $ $ > > > $ - w h K h h 0 w w h P 2 2 p w w 2 $ 2 2 t $ @ $ $ @ $ $ > > > > > > > , 2 i 2 w x Y _ ,.,.&._ ~ K P x e w ",
"* $ # X O X o o o X X O # # # @ @ # # # # # # O O X O # o # # # # # # # # # # # # # # # # # # # # # & # # # # & $ $ @ > @ # # # @ $ $ # $ $ $ $ $ $ $ > 9 H I h q w 9 w I P w 9 w w w > 9 w 9 > $ $ $ $ $ $ $ $ $ $ > > > 2 2 2 > 2 w P ) ' <.,._ _ Y U Y P h x ",
"$ o o O X . o o o # $ X # @ $ $ @ # # # # # # # O O O O # # # # # # # # # # # # # # # # # # # # # $ $ # # # # # $ $ @ 2 u @ $ $ $ @ $ # $ > i $ $ > > - 1 H I q 0 w w U L Y w 2 9 w w w v w w > $ $ $ $ $ $ @ $ $ $ $ > > > i > > i x Y _ ' ' ` Y U P I Y K P x ",
"X o o o o o o X # # # @ @ @ > $ $ # # $ # $ # # # # $ $ $ # # # # # # # # # # # # # # # # # # # $ # # # # # & $ @ @ $ @ $ 2 t # # $ $ $ @ $ $ @ 1 x x z w q h 0 w w x K L H w , w w q I P e w > $ $ $ $ * & $ $ $ $ $ $ $ r > $ y i x L _ _ T L h e w x I K P x ",
"# o o o o o X O O # @ @ > > @ $ $ $ # O O $ # # # # $ $ # # # # # # # # # # # # # # # # # # $ # # # # # # $ $ $ $ @ $ $ $ $ $ = # # $ $ @ # # > w H U K Y h q x w w P K H q w 2 w z H I q e 9 $ $ $ $ > * * $ $ $ $ $ $ * * @ $ y 2 w P K I P h w 9 w w P H P w ",
"o o o o o o O O X $ @ - 2 , - @ @ $ # O $ $ # # # # $ $ # # # # # # # # # # # # # # # # # & & # # # # # # $ $ $ $ $ # # # $ # & # # $ $ $ # @ 7 7 9 P ~ _ ) h P 0 w q P h q w , w h P h w 9 > $ $ $ $ $ $ $ $ $ $ $ $ $ $ $ $ $ > > 2 w e w w 9 t 2 2 w x P x 9 ",
"o o o o o # # @ @ $ > , 9 , > @ $ $ @ $ $ $ $ # # # $ $ # # # # # # # # # # # # # # # # # # # # # # # # # $ $ # # # # # * $ $ & # & $ * * $ $ $ $ $ 2 v ~ ^ U h v w q h x 0 9 2 w x x w 2 > > > $ $ $ $ $ & $ $ * $ $ & $ $ * y $ $ > 2 9 9 9 > > 2 2 9 a a w i ",
"o o O # # @ $ @ @ @ > 9 w 9 2 > $ $ - > $ $ $ $ # $ $ $ @ # # # # # # O $ & # # # # # # # # $ # # # # # # # # # # # # * $ $ $ # & & $ * * $ $ $ $ > > 2 U _ Y 0 x w w q w w 9 9 w 9 2 2 , 2 2 t > $ $ & & & $ $ $ $ & $ $ & * $ $ $ $ , p i 2 > > > > 2 9 2 > > ",
"o # # # @ > , - - - 9 h H 0 9 - > @ : w 2 > $ $ $ $ @ @ $ $ $ # # # # O $ $ # # # # # # # # @ $ & & # # # # & # $ $ * * $ $ $ # # # # $ * $ $ * > 2 2 w w v P x w 9 w q w , 2 2 2 , - > 2 > > $ $ $ $ * & $ $ > $ $ & $ & & $ $ $ $ $ i p t $ $ $ $ $ r 2 > > > ",
"# # # # - 0 q w , , w K K h 0 9 - - w I w - $ $ @ @ @ @ $ $ $ # # # # $ # # # # # # # # # $ $ $ = $ $ # $ $ $ $ $ $ $ $ $ $ $ & & $ $ $ $ $ $ $ > 9 w a w 2 2 1 2 > 9 9 2 , 9 9 w w 9 , > $ > $ $ $ $ $ $ > > > $ $ $ * * * $ $ $ $ $ 2 t > > y * * * $ $ $ * $ ",
"# # # @ , q I q : 9 x Y Y I h w 9 w P Y h , > > > $ @ $ $ > $ # # # # & # # # # # # # # $ $ $ $ # $ $ @ 1 7 $ > @ $ @ $ $ $ $ $ $ $ $ $ $ * $ $ > u w x x w 2 > > 2 u 2 > - 2 9 w w a u 2 2 > > $ > > $ $ $ $ $ $ $ $ $ * * $ $ $ > > 2 2 > > * $ $ $ > > $ $ $ ",
"@ @ @ @ : h I q 0 w h K Y H H H h x K ~ H 9 2 > 2 > > $ > > @ # # # # # # # # # # # # # $ $ $ @ $ $ $ ; U h - > 2 a > # $ $ $ $ $ $ * * $ $ $ $ $ > 2 w x w > $ > 2 i t > > > > , > > > > $ $ $ $ $ $ $ $ $ $ $ $ * * * $ $ * $ $ > 2 2 > > $ > > $ > > y > $ $ ",
"@ - > > 9 h K H q q h J L K K L H P K T H w 2 , 2 2 > $ > t $ @ $ $ # # # # # & & $ $ $ $ $ $ > 7 , $ w Q Y w 9 v U 2 $ $ $ $ * $ $ $ & & $ $ $ $ $ $ @ > $ $ $ > , > $ 2 9 , , , > $ $ $ $ $ $ $ $ $ $ $ $ $ $ $ $ $ $ $ $ $ > t 2 2 2 > > > > t > > > > $ $ r ",
"- > > - w P L J H H H K L L L L J K Y K h 0 w 9 9 2 > > > > $ $ $ $ $ # # $ $ # $ & $ $ $ $ $ 2 h v w x ~ K q P K U 2 $ $ $ $ & $ $ * $ # * * * * * $ $ * $ $ $ $ $ $ $ > 7 2 2 i , > $ $ > $ * $ $ $ $ $ $ > > > > $ $ $ > 2 2 t > 2 i > > > > t t t t 2 t > > ",
"- - - 2 0 H L T K H H J L L ~ ~ L K K J h 0 w w w 9 , > > $ > $ $ > $ $ $ $ $ $ $ & $ # $ $ $ < x U K K Q K H U L U - > 2 2 $ $ $ * * $ # * * $ * * $ $ * $ $ $ $ $ $ $ $ 2 i 2 i i > $ $ $ t r * $ > > $ > > > > > > > > 2 2 2 2 t i 2 > > > > > , i 9 2 2 > > ",
"2 2 , 9 q J T L L I H J T ~ ( ' ~ J J K H h h h h w 9 > > > > > > t > $ @ $ $ $ $ $ & # $ $ $ > z Y K Y ~ K U L _ K g x x z > $ $ $ $ $ $ & $ $ $ * $ $ $ $ $ $ $ $ $ $ $ $ t i 2 2 > $ $ > t > $ > y > > 2 2 2 > > 2 2 i 2 9 9 2 2 2 9 2 i 2 2 i 2 p w w 2 2 2 ",
"w 9 9 w h J L L K K H L _ _ ,.<._ J J L E L ~ ~ L U w 2 > > 2 2 > > > $ $ $ $ $ $ $ $ $ & $ > > , U Y K ~ Y K _ +.P H P P 7 % @ > t $ @ & & & $ $ $ $ $ $ $ $ $ $ $ $ * $ $ $ > r > > $ t > > > > 2 i > 2 1 w 9 i t 2 7 2 w w 9 2 > t i 2 9 9 9 9 p a w a w w 9 ",
"q q 0 h H K L K K K J ~ ' ,.1.<._ T L / _ ' ' ' ( ~ h 2 2 , 2 , > > > $ $ $ $ $ $ $ $ $ $ 2 w w 7 w Y Y Y R K Q H h U h 1 2 $ > > u 2 $ $ $ $ $ $ $ * $ * * $ $ $ $ $ * * $ $ > > > > r > > i i i p 9 9 w x w w w 7 w i 9 w w 2 2 2 2 w 9 9 w 9 w x x e e w e w ",
"H H h h H Y ~ L T ~ ~ / ( -.-.,.( ~ _ ,.,.,.( ( ( ~ h 9 9 9 2 2 > > > > > > * $ $ $ $ $ $ > z h v U P P h U h h q x z 2 $ $ > 2 2 7 9 2 > $ $ $ $ $ $ * $ $ $ $ $ $ $ $ $ $ $ y > > $ > > t i i w w w w q h x q e e e 2 2 9 9 t y 2 7 w 9 9 9 7 w x x x q e a w ",
"P H H H K ~ _ / ~ / / ( $.( ( ( ^ ( ' <.( ( ' ( ( ~ H w w w w w 9 i 2 2 2 > $ $ $ $ $ $ > > - w x U U h w z w 9 w x x w w 2 > > 2 w w 2 2 > $ $ $ $ $ $ $ $ > > $ $ $ $ $ $ * * > > $ $ > > 2 9 w e q x I K K I h e w 2 > 2 , > > > a w 9 9 9 9 w q e x q a e w ",
"H I H H K ~ ( _ / ( / ( ( ( ( ( ^ ( ,.,.( ( ( ( ' _ K h h P v x w w w 9 2 > $ $ $ $ $ $ > 2 > t , x h x w 2 w 7 9 z z w x 2 > > - 9 9 2 2 > $ $ $ > $ $ $ $ y > $ > $ > $ $ $ $ $ $ $ $ > > 9 w e x [ U K ) ) Y P e w , > > > > > 2 w w 9 9 2 9 w w w w w w w C ",
"H I H H K ~ ' ( _ ' ( -.1.<.( / ( ( -.' ' $.,.' ' / ~ L K K I h P x e w 2 > > > > 2 > > - i > $ - 7 V 2 $ $ 9 7 @ $ $ > $ $ > y > 2 > 2 > > > > > > > > > > t > > > > > > $ $ > $ $ $ r > i 9 w e P I J R ) ~ Y P e p > > $ $ > > 2 w w 9 2 2 2 9 9 2 2 a a w e ",
"H H H I H ~ _ _ _ ' #.:.2.4.,./ ' ,.,.,.( -.-.( ( / _ ' ~ Y K H U Y h w 9 2 > > 2 9 9 i 2 2 > > > $ $ $ $ $ > $ $ $ $ $ $ > > > > > > > > % * > > > 2 > > > i > > > 2 > > > > > $ $ > y 2 9 9 w e P I K Y K K P h e i t > $ > t i 9 w w i 9 i 2 2 > 2 2 9 9 w x ",
"h H H H H ~ _ ' / ( -.4.q.4.<.( ,.1.:.2.<.-.,.( / _ ,.,._ ~ K K Q Y h w 9 > 2 2 9 w 9 2 , t > > > $ @ $ $ $ $ $ $ $ * $ $ r $ $ > > > > $ $ $ $ > 2 > > > > i > > > t > > > 2 2 > > y > 2 p a w x P K K I P P q w w 2 t > > 2 2 9 e q w w x w 9 2 > > 2 > 2 2 9 ",
"q P H H J L _ _ / ( >.>.q.4.1.' -.2.2.2.2.' ( / / ' ,.' _ T L T Y P x 9 2 > > > 2 9 9 2 , t > > $ $ $ $ $ $ $ $ $ $ $ $ @ $ $ $ $ $ $ $ $ $ $ r 9 7 2 2 2 > i 2 > t i y > > 2 2 i i i 2 2 p a w P Y I H U K P q e a w , t i 9 w e h P x h I h w i t > > > > > 2 ",
"w x U Y L L L / / -.3.>.4.2.<.,.1.q.2.:.,.( / _ _ ` _ _ ~ ) T L P x w 2 2 2 > > 2 2 2 2 i 2 > $ $ $ $ $ $ $ $ $ $ $ $ $ $ $ $ $ $ $ $ $ $ % % > w e 9 , i 7 w 2 > t t > > > 2 u i i > 2 2 9 e x P U P I H I x x x e a w i p e x v K Y K K T L x w i y > > > y y ",
"0 I J L / ~ J L ~ ;.r.c.e.>.<.1.-.2.1.' / / _ ~ ~ ~ Y K L ~ L K h x w i i > , > > t > > i > $ $ $ $ * $ $ $ $ $ $ $ $ $ $ $ $ $ $ $ $ t > % % 2 x P e 2 9 v x 2 2 t > > > > t u 9 2 > > 2 w x P I U U I P x q q e w p 9 p e x h U R ~ R ~ _ ~ I w i i > > > $ $ ",
"h ) _ E ~ / Y K L -.V.J.M.w.( ^ ' ,._ _ ~ _ Y K Y K H h U K K K P x w w 9 w w 9 > > > > $ $ $ $ $ $ $ $ $ $ $ $ & $ $ $ $ > > $ $ $ $ 7 2 > $ 2 h I x 1 q P x 7 - 2 > 2 2 > > 2 2 2 2 t 2 x U K Y Y ~ Y P q w w w 7 9 i w e x h U _ _ ) ) _ T K h w w 9 t r > > ",
"H _ ^ $./ L K K ~ ,.Y.{.P.G.,.K _ ~ E Y Y K H K K H H h H U K H P P P x w e w 9 > > $ $ $ * $ $ $ $ $ $ $ $ $ $ $ $ * $ $ y $ $ $ $ $ 2 2 > > 2 x P x z P P x 9 2 p 9 u y $ > > > 2 > t 9 P Y L ) _ ) Y h w w 7 i i i i u w x P Y _ _ ) ) ) R Y P x x a i t > > ",
"K ' $.<.<._ h H _ ,.c.P.H.G.d.H L K K K Y H H K R Y P h H U P h H H P h x h w 2 > > $ $ * $ $ $ $ $ $ $ $ $ > $ $ $ * $ $ $ $ > > > > > 7 2 2 2 z P w x U h a w a w w i $ $ $ y > > > > 9 h K Y ~ _ ~ U q w 7 i t t t t 2 e x P L ~ ~ ~ R R ) Y P x x w 2 t > y ",
"~ 2.;.;.4.4.R 0 Y 2.g.q.^.{.r.P Y H R ,.4.E H Y Y Y U h h x w w w x q e x x 7 2 t > $ $ & $ $ $ $ $ $ $ $ $ $ $ $ * $ $ $ r > > > 2 9 9 9 7 w 9 w x w v U x a e w a u t > $ $ $ > > > > 9 x P U K Y P x z 7 i i > y y r 2 w ] { I Y ) K I K Y I x p u 2 > y > > ",
"L 4.9.<.4.c.4.J K d.1.( A.P.c.K K L h.Y.w._ q U K K P h c w , i i 9 p i u 9 2 2 2 > $ $ $ $ > > > t 2 > $ $ % y $ $ $ $ $ $ > > 9 w w w 9 2 7 a w w w P P w w C w w 2 > > $ $ $ > > > 2 2 w w h h h q w p 2 2 i > > > > 2 9 w x x I I h h h h x w 9 > $ > > > y ",
"q >.G.w.>.Z.9.2.~ a.-.1.1.n.W.L ) n.G.G.c.Q 2 w x w w 9 7 2 > > > > t > > > > > > > $ $ > > 2 9 i 2 1 7 > > > t $ $ $ $ $ $ > 7 w e q w 7 2 2 7 p p w q w w w p 7 2 > t r > y > > t i 2 i i i p w w 9 9 2 2 2 t > > > > > t i 2 p p w w w w p w 7 2 > > > $ > y ",
"' $.c.T.9.r.4.2.,.u.-.Y.c.e.R.( g.c.r.W.G.U $ 2 2 9 > r 2 > > > $ > $ % $ $ $ $ > $ $ $ > > i p w w x w 2 > > i > $ $ $ $ $ > 7 w e e V 7 2 2 2 2 2 2 2 2 2 2 2 2 i i 2 t > t > i i 2 i i 2 2 i i i 2 > > > > $ $ > > > y > $ > t i i i i i t 2 2 > > > > > > > ",
"U.h.2.e.e.c.W.4.( d.r.:X8XP.q.n.Y.-.>.!.W.w O 2 v ) Y 4 2 t > $ $ $ $ $ > $ $ $ $ $ $ * > > 2 9 9 z C w 2 > 2 i > $ $ $ $ $ > i 9 a w p 7 2 2 > 2 > % > $ > 2 u 7 2 2 t 2 > > t i i 2 2 t 2 2 i t 2 > > y < $ $ $ > > y % $ > > t t > 2 2 > > $ $ > > > > t > > ",
"L.=X^.w.7.U. X Xe.1./.8X7X;X7.W.:.,.4.G.d.0 ! &.,.,.` 7 2 > * $ $ $ $ $ > > $ r $ $ y r > > 2 2 9 a a w 9 > t i > $ * * $ $ > t 2 9 i i 2 y > > > > > > > > y y $ > t > > > > 2 2 i 2 t > 2 t 2 2 2 > > > $ > z > $ > * $ $ > y y r $ > r $ % $ * * > 2 t i 2 2 ",
"+X,X#X|.w.Y..X%X>Xr.:XsX3X&XV.w.-.:.q.M.r.g.M.c.e.s.U > $ $ $ $ r * $ > > > * r $ $ $ > t t > i 2 7 7 u i > > t > $ $ $ $ $ > > > 2 > > > > > > > > > > > > $ y > > > t t > > > t 2 > > > > > > > 2 > > > > z ) c $ > $ % $ $ y r * $ y y $ $ $ r > > t > 2 2 2 ",
";X4X:XOXP.W.rX8XtX=X3XyXeX5X~.7.1.q.q.~.A.G.L.B.c. .@ $ $ @ > $ * r > > 2 2 $ * > $ > > > > > y 2 2 t t > > $ t > $ & $ $ $ > > y > > $ > > > > t > y > $ $ > t > t > t y y 2 > > t > $ $ > 2 > > 2 > > > 2 ) _ ) z $ $ $ * $ > r $ $ $ r $ $ > * r > > > 2 u a ",
"i.5X&X{.OXW.8XyXyX3X5XpXpXyX Xq.~. X7.e.q.L.K.^.t.j | [ z j w 9 2 > 2 2 7 2 > t > $ $ $ > > $ $ > t > > $ % $ > $ * * * $ > y $ > $ > > > 2 2 t t > y > > > $ > > > y > t t 2 > > y > y > > 2 y > 2 2 2 - ] ' / ,.@.2 * y $ $ $ $ > u > > $ $ $ $ r > 2 2 9 V a ",
"j h.eX*X{.P.#XuX9X5XeXiXpXdX|..XqX:Xq.2.:.^.{.s.| y.&.' Q U P U w 2 w w w 9 2 2 2 > $ $ > $ $ > r $ $ $ $ > % > $ $ $ $ $ > > > > > > 2 t 2 2 i 2 > > $ > > $ t > > y > > > 2 > > > > 2 2 w 7 > t 2 2 i , @.4.4.4.u.U & > $ $ $ 2 j x 2 > > > r * r y t 2 9 u w ",
"j - 7.wX;XG.~.3X8XeX1X4X9X5X=XaX&X:XU.0.r._.s.U Q / / _ ` L Y h w w q q e w 9 9 7 2 $ * * * * * $ $ $ $ & $ $ t $ $ $ $ $ $ > > > t 2 2 i t 2 2 > > > > > $ $ 2 > y y > > t t > y > > u 2 U | c - 2 7 2 z r.r.c.c.q.t.> $ y $ s U H Y 2 $ > $ $ $ > > > t 2 9 p ",
"s.y.v ' -X XC.P.&X3X*X3X3X&XeX3XwX^.C.).W.1.! b W U ` ,.' ` x w e w q e e e w 7 u > > t > $ $ r $ $ = & & $ $ y $ $ $ * y t > > > i w w i 2 2 2 > t 2 t > % % y > y > 2 2 t y > > > i u 2 Y $.u.Q ; 7 > Q c.0.c.9.3.4.k & @ v u.Y Y ) 2 $ > $ > $ $ > t t 2 2 t ",
";X=XoXU.d.T.T.C.A.OX+X X{.%X#X%X Xr.[.~.~./.(.u.Y ! ` &.Q w , w a z w q q q w 9 2 2 2 i > $ $ > $ $ # $ * $ $ * * * * $ > 2 2 2 9 p a w w p 7 2 2 t t t 2 2 2 t 2 2 t 2 2 t t y > 2 i t 2 Y <.f.w.&.3 > ` c.9.c.b.9.9.W & 9 h.r.&.' ` 2 $ > $ > r > y > > y > y ",
"&X#XP.W.T.h.e.U.g.g.U.c.A.P.W.V.0.A.C.G.}.K.P./.n.,.` h 0 2 2 9 p w w x P q 9 9 7 7 2 2 > $ $ $ $ $ < $ & $ > y * * $ $ $ > 2 2 9 w z w C C w 2 i u > 2 7 2 2 2 2 2 2 > 2 t y y > 2 2 > > ) ,.w.x.Y.t.- ' w.z.b.c.0.r._ ; g.C.c.r.2.' 7 $ > $ $ $ $ $ > y y > > ",
"3X3X+X{.}.XXY.y.2.n.Y.0.q.c.T.~./.P.{.{.}.=X-X~.k.U @ 2 w w 9 w w 9 9 z x w 2 9 9 2 2 > > > $ r * > j $ $ $ > y * * * $ $ > 2 2 w x h e V e a 9 u u > 2 2 u 2 2 2 2 > 2 7 2 2 y y 2 i y < +.w.c.M.N.!.+.,.r.z.x.x.c.w._ &.^.C.A.z.3.,.2 $ > $ $ 2 1 h z * y t > ",
"g.W.=X=XU.+.g *.G.P.L.c.q.r.V.T.R.~.~.T.W.U.=.| S 2 % > 2 7 9 w w 2 9 i w 7 2 2 2 i 2 2 > > > t > 1 9 & $ $ > > * * $ $ $ > 2 w C { P x w w w 7 7 t 2 7 2 7 2 2 2 2 y 2 2 w Y v 7 > y t > ` r.z.F.B.J.W.4.4.b.c.V.c.q.1.T.P.P.B.M.w.,.< $ $ 2 0 U ~ Q 7 * t u > ",
"@ @ < $ X 4 +.OX`.B.A.~.U.Y.G.(.h.:.j.Y 1 > o # $ > 3 7 2 2 2 9 2 i 2 i > > 2 2 2 2 2 > > > > 2 2 Y x $ $ $ > > * $ $ $ $ $ 2 w x P x x 9 w 9 9 p i 2 w V 7 u 9 7 2 > 2 2 2 ~ ' _ Q g 2 > Q c.x.P.[.J.I.V.3.9.F.D.0.r.w.P.P.D.c.c.c.<.@ < j Y K K ~ h * * > > $ ",
"# #   $ s j j.OX}.L.!.oX' t.W.~.M.q.A.T.Q w V 2 @ $ $ $ > > > 2 2 2 > > > $ $ > 2 t > > > > > $ j ) ) j @ $ r $ $ $ $ $ $ > 2 7 w e z 7 2 9 7 9 p 7 w w V w u 2 u 2 2 2 2 2 Y ' ,.:.;.<.j Y G.B.P.P.B.H.W.8.v.1X&XN.q.Y.P.F.b.9.c.c.$.w Q Q ~ ~ T L w $ * > > y ",
"# # $ u # j ).#X#XI..XE.1 0 u.G.A.c.c.c.g.z 2 c } 3 $ $ > 2 > 2 t y $ $ $ $ $ $ > * > $ % % * $  .<.<.=.$ $ $ & $ 1 < $ $ > 2 7 a a w u i 2 2 2 p 9 p C w p w 2 i 2 2 2 7 > w ) #.w.w.h.d.' C.D.D.F.M.B.P.r.;X1X1X.Xc.T.B.M.c.b.9.c.' ' $.' L ~ ) Q > $ y y > % ",
"> @ $ $ o W {.}.{.}.T.j - z 9 2.!.[.[.A.q.' 9 > 7 2 > t r 2 2 > > $ $ $ $ * * * % $ D Y > $ & 2 w.b.w.q.c # $ 2 v U j $ $ $ > 2 2 2 t u t 2 2 2 u 7 7 w w w w 2 i 2 2 2 9 u > Q <.4.r.w.4.9.c.P.P.B.M.M.z.W.qX<X3XqX|.c.N.M.C.b.r.c._ #.;.,.) Q ' c $ y > > $ $ ",
"$ # # $ O W Z.W.C.2.1 2 2 w w 0 p.A.P.V.:.q.P , > > > t > 2 2 > > $ $ $ * * $ $ * $ U u.,.s # v c.z.9.9.` # 7 s./ _ j $ $ $ > > > > y y y y t t i 2 2 7 9 7 7 2 2 9 i u i 2 > j u.2.-.w.0.w.c.[.`.G.x.c.9.;X4X6X2X3X0Xv.x.M.x.9.N.h._ -.3.<._ ' ) - * > > > > $ ",
"# # # $ o j h.&.v $ > 2 2 w x q x ) 4.q.-.w.Y 2 2 t > $ $ 2 7 $ $ $ $ $ & * * $ * $ U u.c.g.4 Y c.b.c.c.<.; 2.C.q.<.j # $ $ $ $ > > > y y > > 2 t y t t 2 2 9 2 7 i t 2 > > t $ v r.q.:.9.9.9.I.'.}.H.9.c.<X3X8X7X4XtX[.z.z.M.G.H.2.~ 4.<.( $.@.7 * $ > > > $ $ ",
"# # # $ $ @ : @ $ > t > 2 w x h P P H ~ _ <.Q , 2 2 2 $ $ y 2 * * $ * & % > $ $ * $ ) m.V.W.g.` r.c.x.n.,.&.P.N.c.4.j # $ @ : x z y $ > $ $ > t t 2 2 > 2 2 9 2 2 i t > > y > > $ | U.w.<.9.9.C.}.`.#XC.c.1X@X2X8X6X2X].z.S.{.K.J.( E ( ~ $.t.w > y $ $ > > $ $ ",
"# # # # # & # & $ > > 2 2 w q P h P P P h P c 2 2 7 2 $ > y $ * * $ & & 3 Y U 7 @ $  .z.G.G.P.c.4.c.N.b.2.Y.~.G.c.w.k X 2 x Y ) 1 $ $ > $ $ > t 2 i i 2 2 2 7 2 > > > > > y > > > > O.n.4.,.>.3.P.'.].P.Y.&X*X6X6X@X<X}.B. X[.P.V.E Y ~ ' $.h > > > $ > y > $ * ",
"# $ # # # # $ $ $ $ > i i 9 q P x q x x w w w w w v Z 2 2 > $ * * * & & $ E ,.,.+.z Q F.H.P.D.G.3.^.;Xr.r.P.G.b.b.w.x c Q Q Y U $ % % % % > > t 2 3 7 2 2 > > > > y $ $ > > > y > > $ Q q.4.,./ 1.P.I.D.C.;X#X1X@X].#X}.J.[.D.W.,.H ~ <.' j > 2 > > % y y y $ $ ",
"& & & # # # $ $ * $ > > i 2 w x w w w w w w e e w 2 2 > $ * $ $ $ $ $ $ $ j _ q.n.d.-.A.J.S.N.G.C.0X6X[.c.G.M.0.0.4.` ,._ Y ) c @ $ % % $ > > t > 2 2 > > % $ $ > * $ $ y $ $ $ $ % $ @ z ,.4.-.~ 7.T.M.N.].`.}.OX{.}.^.V.G.C.2.T _ t.) : > 7 2 2 > > y y y $ $ ",
"# # # # # # $ $ $ $ > > i 2 w w 9 9 w w 9 9 w 7 2 < $ $ * * % $ $ $ $ $ $ > @.4.q.w.9.F.[.B.x.b..X4X6X3XG.c.N.b.c.4.' 2.' _ O.> % $ $ > % $ > y $ $ > > y $ $ $ $ $ $ $ * * $ > t 1 g h h K E / ' ~ 4.b.9.H.G.D.`.K.P.c.9.C.2./ ( Y w 2 w h z x w 9 2 > > > $ * ",
"# # # # # # $ $ $ $ > > > 2 > 9 2 2 2 2 > 2 9 2 2 2 $ $ $ $ $ $ $ * $ $ * & j d.2.q.9.N.'.{.V.r.&X4X7X5X;Xb.z.N.Q.,.#.<.' @.1 $ > % $ % % % > $ $ * % % $ $ $ $ $ $ $ $ $ 2 u 4 z H K ~ ~ ~ ~ ~ Y L K ' 2.w.C.x.N.M.Y.2.4.,.K U w 2 1 z x P h h x 1 2 - t y $ * ",
"# # # # # # $ $ > $ $ $ > > 2 2 - > > > > > 2 i t > $ $ $ $ $ $ $ $ $ $ * $ $ [ n.4.4.w.P.}.P.c.&X1XtXqX:XM.H.{.F./ ~ _ ,.x $ $ $ % y % % % % $ $ y $ $ $ $ $ $ $ $ $ $ > 2 1 0 0 H ) ' L Y Q ) ) ~ Y h K / 4.w.w.d.' Y U 0 : 9 9 1 x x c x h h x 9 2 2 > > r y ",
"# $ $ # # & $ $ $ > $ $ * $ > i 2 > $ $ $ > 2 2 > $ $ $ $ $ $ $ * * $ $ $ $ & @ U d.2.#.q. X[.C.$X<X1X#X;XP.[.K.4.H _ &.z $ * $ $ > y $ % $ % > $ $ $ $ $ $ $ $ $ $ $ > $ $ - j v Y ~ L Y Y H U Y ~ ~ Q P h Y ~ _ K 0 : 1 w h x q z w z z x U U x 2 > $ $ * * * ",
"# # # # # $ & $ $ > $ * $ $ $ > t > $ $ $ > > > $ $ $ > > > $ * * $ & $ $ $ # $ @ j t.<./ w.F.N..X].#X}. XB.D.h.~ ` +.w $ > > $ > y > $ $ $ y y * $ * $ $ $ % $ $ * $ % $ $ $ $ 2 w x x U Y K Y R Y K h q P U H q h I h x w h 0 z j 7 1 1 z v 1 2 $ $ * y $ $ $ ",
"@ $ $ # # $ = $ > > * $ $ $ * $ > $ * $ $ $ $ $ $ $ $ $ > * & * * * & $ $ > 2 w x H H Q _ ~ 2.9.F.D.H.P.C.w.g.) Y x : w x x w 7 2 > $ $ $ * y * $ $ $ $ % $ $ $ * * $ $ * $ * * $ $ > 2 2 1 1 w w w w h P P H K q h I H q x 0 0 w 2 $ > > > $ $ $ $ $ $ y % $ $ ",
"> > > $ # $ $ $ $ $ $ $ $ & & $ * * & $ $ $ $ & & $ $ $ * $ & & * * $ $ > 7 0 P ) ) Q Q Q Y U ) <.h.r.0.1._ H 0 : 2 z x x h c 7 2 > $ $ $ * * $ $ $ $ $ $ % $ $ $ y $ % y $ % % % > t 2 i 2 u u 7 x h h q h H h - 9 P h w w x z 0 2 > $ $ $ * $ $ $ $ $ % * % > ",
"> $ $ $ $ # $ $ $ $ & # # & & $ * * $ $ $ $ & * * * * * & & & * * & & $ $ 2 z Y O.Q Y H L ~ Y h H ~ _ K 0 0 0 z z w j 0 h U z - > * $ $ $ $ % * $ $ $ $ $ * * * * * * % % % % * % t i 7 u w w v x P P q q P h 4 > > 9 U P q 0 0 0 2 2 > > > > $ % $ $ $ % y > $ ",
"@ $ $ $ $ # $ & & & & # # # # & * $ $ * $ * * & * & * * * & & & * & & * $ $ > 2 1 z x h P P h h H H q h h q z 0 0 7 7 2 k 1 - $ $ * $ $ $ $ * % $ % * * * * y y * % * * y > > > > t u V p p ] { { I I h h v 7 > 2 2 > > z U P 0 w 2 > $ > > > % $ $ $ % % $ y > "
};
