/* XPM */
static const char *conhecimento_SO[] = {
/* columns rows colors chars-per-pixel */
"128 128 221 2 ",
"   c #060402",
".  c #080703",
"X  c #0D0B06",
"o  c #0F0D08",
"O  c #120D06",
"+  c #130E08",
"@  c #151007",
"#  c #191207",
"$  c #161109",
"%  c #1B140B",
"&  c #1E190C",
"*  c #1E1811",
"=  c #21170C",
"-  c #231C0E",
";  c #291E0E",
":  c #251D11",
">  c #281E11",
",  c #27200F",
"<  c #29210F",
"1  c #32260E",
"2  c #272011",
"3  c #2C2312",
"4  c #2F2814",
"5  c #312614",
"6  c #342A15",
"7  c #3A2D16",
"8  c #322718",
"9  c #352B18",
"0  c #3A2E19",
"q  c #3D3117",
"w  c #3D311A",
"e  c #3E3220",
"r  c #412E16",
"t  c #433316",
"y  c #4B3A16",
"u  c #43351B",
"i  c #48371C",
"p  c #46381D",
"a  c #4B3B1E",
"s  c #4B3615",
"d  c #513E1D",
"f  c #523C16",
"g  c #46320E",
"h  c #443620",
"j  c #473920",
"k  c #4D3D21",
"l  c #483721",
"z  c #503F21",
"x  c #53411E",
"c  c #5A441D",
"v  c #5F481D",
"b  c #4E401E",
"n  c #4F4021",
"m  c #534223",
"M  c #594624",
"N  c #574824",
"B  c #5C4925",
"V  c #5D4A28",
"C  c #5B4629",
"Z  c #624D26",
"A  c #624D29",
"S  c #655127",
"D  c #695326",
"F  c #65512A",
"G  c #6B542B",
"H  c #6E582D",
"J  c #735B2E",
"K  c #755B2C",
"L  c #6C5631",
"P  c #6E5932",
"I  c #675230",
"U  c #735C32",
"Y  c #795F32",
"T  c #705730",
"R  c #7C622E",
"E  c #766033",
"W  c #7C6333",
"Q  c #7C643B",
"!  c #7E683C",
"~  c #786439",
"^  c #664E1D",
"/  c #7F6840",
"(  c #816634",
")  c #846936",
"_  c #8A6D36",
"`  c #856B3B",
"'  c #8A6E3A",
"]  c #81673A",
"[  c #8D723C",
"{  c #86713F",
"}  c #93743C",
"|  c #95783D",
" . c #9A7A3E",
".. c #97763A",
"X. c #82632A",
"o. c #A17E3C",
"O. c #856D42",
"+. c #896F41",
"@. c #8C7343",
"#. c #8C754B",
"$. c #897448",
"%. c #937542",
"&. c #957A45",
"*. c #9B7C42",
"=. c #947B4B",
"-. c #9B7E4B",
";. c #92774A",
":. c #937D52",
">. c #957E56",
",. c #8F7950",
"<. c #A17E42",
"1. c #A2803F",
"2. c #9C814D",
"3. c #9B8048",
"4. c #9C8353",
"5. c #9A855A",
"6. c #9A8559",
"7. c #A48243",
"8. c #A98645",
"9. c #AD8947",
"0. c #A1844E",
"q. c #AA874A",
"w. c #AD8A4A",
"e. c #B18E4B",
"r. c #B4914E",
"t. c #A28653",
"y. c #A48954",
"u. c #AC8C53",
"i. c #A58C5B",
"p. c #AA8D59",
"a. c #A2875A",
"s. c #AD915D",
"d. c #AA9059",
"f. c #B69353",
"g. c #B99554",
"h. c #B3945B",
"j. c #BA9758",
"k. c #BC9A5C",
"l. c #B99856",
"z. c #9E8861",
"x. c #A48D65",
"c. c #AC9363",
"v. c #AB956A",
"b. c #AB966B",
"n. c #B29563",
"m. c #B59A66",
"M. c #BD9D63",
"N. c #B69C6A",
"B. c #B99D6C",
"V. c #B39C72",
"C. c #B99F70",
"Z. c #AF9B71",
"A. c #BEA064",
"S. c #BDA26C",
"D. c #BDA474",
"F. c #BCA47B",
"G. c #B4A177",
"H. c #C09D5E",
"J. c #C19F64",
"K. c #C2A165",
"L. c #C3A46C",
"P. c #C6A76D",
"I. c #C3A672",
"U. c #C5A973",
"Y. c #C4AB7B",
"T. c #C9AE7B",
"R. c #C7AA77",
"E. c #CBB17E",
"W. c #D1B27C",
"Q. c #BCA684",
"!. c #C4AC82",
"~. c #C6AF87",
"^. c #CCB384",
"/. c #CDB58A",
"(. c #CEB98C",
"). c #C6B289",
"_. c #D0B78A",
"`. c #D1BA8D",
"'. c #D4B787",
"]. c #CCB792",
"[. c #D3BD93",
"{. c #D3BE9A",
"}. c #D8BF97",
"|. c #DAC397",
" X c #D5C29B",
".X c #D9C49D",
"XX c #D5C195",
"oX c #D6C3A2",
"OX c #DAC6A2",
"+X c #DBC9A6",
"@X c #DDCCAC",
"#X c #DBC7A8",
"$X c #DECEB1",
"%X c #DED1B4",
"&X c #DFD6B8",
"*X c #DED0AF",
"=X c #E1CDAD",
"-X c #E2CCA5",
";X c #E3D1AE",
":X c #E1CEB2",
">X c #E2D2B4",
",X c #E4D5BB",
"<X c #E8D7BC",
"1X c #E5D9BE",
"2X c #EAD9BA",
"3X c #E6DAC2",
"4X c #E9DCC5",
"5X c #EADECA",
"6X c #E4D9C4",
"7X c #EBE1CC",
"8X c #E9E0CA",
"9X c #F4E5CA",
"0X c #EDE4D3",
"qX c #EFE7D9",
"wX c #F1E5D3",
"eX c #F2EBDC",
"rX c #F3E9D7",
"tX c #FCF0DA",
"yX c #F4EDE3",
"uX c #F5EFE8",
"iX c #F8F2E7",
/* pixels */
"& & & & - - - - - & - & % < n t m t 3 - - - & 5 M H F 7 w p ; t H T m ; 6 0 w 3 : 2 : : - ; 3 3 3 3 3 3 3 : : ; - - & & - & - - & & & & & % % % & & & & & & & % - 3 & ; 9 9 7 7 p p u 7 q 6 & % % & % % % & & & & & % % % $ $ $ $ + + + + + + $ + + $ $ @ + $ + ",
"& & & - - - - & - - - % 3 w u m m 3 - : - - - M J J J M ; u a < n S A 9 6 q 9 3 ; : - : 3 3 ; 3 2 3 3 3 : : - - - - & & & & & & % % % & & % % % & & % & % % % % % 3 , 3 3 4 3 a m a M m a q 9 ; - % # % % & & & & % % % % $ $ $ + + + + + + + + O + $ $ @ + + + ",
"% & & - - & & & - : - & w 5 ; m V 3 - ; ; - 3 G H A G F m z M m 6 m Z a 3 6 - 5 7 ; - : ; 3 ; ; 2 2 2 3 2 - - - - & & & & - & % % % & % % % % % & & % % & % % % % 4 < % $ $ 5 u ; & 3 w k k a j ; 2 - + % & & & % & % % % $ % $ + + + + + + $ + O + $ $ $ + + + ",
"% & & & - & & & : & & - w ; : q F 3 ; : - - 3 A J H J G m a k M a z M A w : - 9 3 - - - ; ; : ; 2 3 3 3 > ; - - ; : 2 - - & % % % % % % % % % % & & % % & % % % $ ; ; % # 4 p ; : 3 : 3 7 a a 7 0 ; & + $ % % % % % % % % % $ + + + + + O + $ + + + $ + + + + + ",
"& & & - - & - - - & & : w ; : 5 A w ; - - ; - 6 m M B m ; ; 9 7 u m V M m 3 , 9 - - - ; 2 ; ; - & : 3 5 3 < ; - ; ; 3 : : - & % % % & % % % % % & & % % % % % % + & 3 $ & w 5 : # @ % # - 5 7 w a 0 & & % % % % # % % % % % + + + + + + + + + + + $ $ + + + + + ",
"& & & - & & - & & & & - 3 - - 3 m m ; & - - : - ; , 3 m q 3 5 m 3 p F M a a 7 9 7 3 : : ; 2 ; - % % - 3 5 5 < 3 3 3 3 ; - & % & % $ % % % % % & & & % & % % % % $ % 5 % 3 0 % + @ $ @ + $ & 5 w m u 0 - % % % % % & % + $ $ + + + + $ $ $ $ + + + + $ $ + + + + ",
"& & & & & & & & & & & & & - : - a M k & & 5 - : ; : - t G A A u = z m 7 < j u 9 w ; : - ; 2 - - & & & % - 5 4 , : > : - & % % + $ $ $ % % % % % & % + # % % % % $ $ 2 ; 4 ; $ $ = 0 w > % & : 9 7 a a 3 & & $ % % % $ + $ $ $ $ @ $ $ @ + + + + + + $ % $ + + + ",
"& & & & & & & & & & & & & & - & 3 m V a - 9 p ; & & - & 3 0 6 - 3 F 7 - ; 3 a u , & ; 3 : ; - - & & & & & & ; 5 4 & - : % $ % + $ $ $ % % % % % % & % # % % % % % $ % 3 6 % @ $ u m m a 5 5 3 4 5 w u u 3 & $ $ $ $ $ @ % + + $ $ $ $ $ + + + + + + $ $ @ + + + ",
"$ % % & & & & & & & - & % & & & % 5 m S m < 0 a t 5 < : : - & , k n & - : - k w % 5 p 6 - ; - : - & % & & & 3 7 7 < 3 w ; ; 0 - $ % $ $ % % % % % & % % @ % $ $ % % : < q @ @ $ j m a k u ; 5 5 3 > 3 w 3 % - % @ @ $ @ $ $ + $ $ $ $ + + + + + + + $ $ $ + + $ ",
"$ % $ & % & & & - & & & & & & & & # < m S F m w u p j p t t a V k ; & - - - j 7 9 j 3 - : 2 - - - & & - 9 t m m a z m V V B Z k u 7 + % % % - & % % % % + % $ $ $ % : & p : + @ - u p w = & % 0 ; 3 : 0 % % 3 % $ $ $ @ $ $ + + % % + + + + + + + + + $ $ $ + + ",
"$ $ % % % & & & & & & & & & & : - - - 0 7 q V U Z m m m B A V u - & - - - - t m w ; - - - - - - - - - 7 V M B j 7 < u 3 7 w u m m B p & % & & + % & & % % % $ $ $ & - @ q 0 - @ + % % : : + ; w % 3 & 3 : - 3 + + + $ $ $ + + + @ $ + + + + + + + + + $ % $ $ + ",
"@ $ $ % % % $ # % % % & - : : - - - : 3 2 % - q B m a p k w ; - & & - ; : - u u & - - - - - - - : & ; m w 6 w & % ; 7 & 4 & 3 ; - 5 a j ; 4 ; @ % & & & & % % % % % : + < u 5 ; @ $ + # 3 3 w < & 3 % ; 6 3 % + + + + $ $ + + + $ + + + + + + + + + + $ $ % @ + ",
"$ $ $ % $ % $ % & - & : - - - & & & : - - - - ; 3 u k i k 3 ; ; & & - - ; - a 9 & & & - - - - - - - < u - 3 0 - & ; 9 - 7 < 0 3 3 3 > w k 7 % & & - & & % % & % % % % $ + 5 w 0 5 & $ $ + : 3 & 5 & $ < 9 % @ + + + + + + + + + + + + + O + + + + @ 3 5 5 7 @ + ",
"@ @ $ % $ % & : ; & % & & & & & & & & & - - - : - & < m n m z z p u p a k 7 0 3 & & & - - - & - - - : u % - w ; - 7 m z m A m m k 7 7 l w u 7 $ % % & % % % % % % % % % $ $ 4 u a u ; & ; 3 ; 3 - $ % 9 5 % $ + + $ + + + + + + + + + + + O + $ $ $ $ + 3 ; + + ",
"$ $ $ $ $ $ % % % % % & & & & & & & & % & - - - - - ; < ; , 3 5 7 w 0 9 5 ; - : - - - & - - - - - & & 7 q 5 n m m m a B S A Z Z B N u 5 4 5 7 5 % ; : % & % % & % $ % % % % @ & 5 u w q q 7 w 0 5 5 4 > & + + + + $ $ + + + + + + + + + + + + + + + + + X + + + ",
"% $ @ $ $ $ % + % % % & - & & & & & & & & - - - - - - - : : - ; 9 9 - & & - - - - - & - - - & - - & - t V A Z B 0 = 9 B t 9 u n B Z V M u 0 < u u < - & & % % % % % % $ % % $ + % - @ $ & < - & & % @ + $ + @ + $ $ + + + + + + + + + + + + + + + + + + + + O O ",
"+ + $ $ + + % $ % % % % % % % % % & & & & & - - - - : : : - : 3 5 < - - : - - - & & & - - : - - ; - ; z p m m 6 & 3 F m 9 5 5 5 t b V V A V m 3 u 5 % & & % % % % % + % % $ @ @ % & % $ $ % + @ + $ + + $ $ $ + + + + + + + + + + + + + + + + + X X O + + + + + ",
"+ + $ + $ + + + $ % % % % % % % % & & & & & & - - - : : ; ; ; - - - - & & - - - & & - - ; ; - - ; - & a A < : ; - p V < - 7 M A V u 7 V B V Z p ; p 3 % % % % + % & % % % + + + $ & % $ $ + + $ + + + + + + + + + + + O X + + + + + X O + O O O + X X + + + + + ",
"+ + + O $ $ + $ % $ % % # % % % % & & - & & & - - : : : ; 3 2 2 ; ; - - & - : - - - - - - - - - : : & 5 S k ; : 3 B 0 & 0 V F Z Z z - 9 k u m m p 5 8 = : & & & % % % % $ % % + $ % % $ $ $ + + + + + + + + + + + + + O + + + + + + + X O + + + + X O + + + + + ",
"+ + X + + + $ $ $ $ % % % % % % % & & & & & & - - - - : ; - 2 2 ; 2 - ; & % & - - - - - - : - - : ; - & 7 F a & 7 V ; - 7 m V m B B 8 : j < q m V 0 - 4 2 & % % & % $ % % % $ $ $ $ % % $ + + + + + + O + + + + + + + + + + + + + + + + + + + + + + + + + + + + ",
"X + X + + O + $ % $ $ % $ % % % % & & & % & & - - & - 2 ; ; 2 ; 2 3 ; - - & - - ; 3 - - - - - : : : 3 9 : a S q a V - & ; x A V M F 9 & p 0 6 ; l B t & $ # % % $ % % $ % % + + + $ % % $ + + + + + + + + O + + + + + + + + + + + + + + + + + + + + X + X + + + ",
"X X X O + + + + $ $ $ % % % & & & & & & & - - - & - - - ; ; 3 3 ; 2 2 2 ; ; ; ; ; 3 : - - - - - : : ; m k 7 k B V m - & 5 m V B M q 0 ; w t 9 % % w m > $ $ % % % + + + % % + + + + + % $ + $ + + + + + + X + + + + + + + + + + + + X + + + + + + X X + + O + + ",
"X X X X + + + + X X + + % % & - & % % & - - & - - - & : ; ; 2 3 3 3 3 3 3 3 3 3 ; 3 , ; ; - - - ; ; ; 5 V m < a Z V 5 $ 0 u ; q p % ; 3 w u 4 @ % + 7 q + % $ + + + $ + $ $ + + + + + + $ + + + + O O X + X X + + + + + + + + + + + + + + O + + + X X + + O + + ",
". . X + . X + X % % + % % % & & & & % & - & & - - - & : ; ; 3 3 2 3 3 3 3 3 3 3 3 4 3 2 ; ; ; 2 2 ; : : 6 A B 3 k A m 5 3 m 9 % # + 3 < 9 p 3 # % % > ; + $ + + + $ @ + $ + + + + + O + $ + + + + + + O + X + + + + $ $ X O + + + O + + X O + + X X X + X + + + ",
". . . . & w ; % u 5 @ % & & % & & - - - - & & & - - : : : 3 3 3 3 3 3 3 3 3 3 3 3 3 3 3 : ; 2 2 3 3 : : : 7 m C a V V V i p B a 0 t p 3 u p % X & 7 4 % @ + + + + $ $ + + + + + + + + O + + O + + + O + + X X + + 3 u 3 - - - X X X X X X + + + + + + X X + + + ",
"    . % 5 & % e - & 0 & $ % 5 p 3 & - - ; - - : 3 ; : : ; 3 3 3 3 3 3 3 3 3 3 3 ; < 2 ; 2 : 2 : 3 3 3 : - ; ; w V V V B V a a B M k 9 5 m p ; 9 u w - + $ + $ $ @ $ $ + + + + + + + + + + + + + + + + + + + + & 3 3 - > 9 w p 5 # X X X O + + + X + + + + + + + ",
"    X 9 7 9 p m u k M u 7 7 k 5 5 - : ; ; - < 3 5 3 3 3 4 3 4 4 3 3 4 4 3 3 3 3 3 , 3 3 , 3 3 3 3 3 3 2 : : ; - 3 m A Z Z A m m m a m a z p 0 0 6 - @ % $ % $ + @ @ $ + + + O + + + + + + X + + + + + + + + + % : & X @ & @ 2 5 9 5 - @ + + + + O O + O + + + + ",
"    : 6 & 7 u ; 5 p i z V F A m u 5 3 - 2 3 ; 3 3 3 3 3 5 3 3 4 3 3 3 4 4 3 3 < < 3 3 3 3 3 3 3 4 3 3 : : : : 2 < q 7 z V B V V B m m m 7 < 3 - % $ ; - % % $ + + $ % $ + + + + + + + + + + + + + $ + + + + + $ % : + & % $ % X # 3 6 ; $ + + + + + + + + + + + ",
"    : % X 8 % X O 3 = # ; p a V F A B j 3 4 3 3 3 3 4 3 3 5 5 9 5 5 4 4 3 4 4 3 3 3 3 < 3 3 3 3 3 3 3 ; 2 3 3 3 3 5 8 3 a V M C a k q 5 3 7 ; X + & 5 % % % + + + $ $ + + + @ $ + + + + + + + + + + $ + + + $ $ - 0 u u 7 w 7 5 9 5 5 p 5 @ X + + X X + X X + + ",
"    % & $ 3 + $ $ 5 3 & 3 w : ; 0 B H T V u a p 9 7 7 9 5 5 0 9 9 5 4 3 3 4 4 4 3 < 3 3 3 4 3 , < < - - 2 3 3 3 4 5 5 7 5 9 7 j k m k 5 5 7 ; & : 5 % + % $ $ + + + O + + $ $ @ % $ + + + + + $ + + + + + + $ % 5 w 5 5 3 7 n a u p u 7 0 5 X X X + X X + X X + ",
". . X : % & X + + - 4 & : w 5 3 3 i p a S H G m 5 w u w w 7 0 9 5 5 5 5 5 5 5 3 > 3 3 3 3 4 3 < , , ; ; 3 3 3 3 4 5 5 4 4 5 3 3 3 7 p w 7 0 9 3 < % + $ $ % $ + $ + + + $ + # : : : @ + + $ $ $ + + + + + + $ % & - + + + 6 6 ; 0 p u a ; 3 8 $ + X X X X + + + ",
"  . . & 5 3 3 9 q q m k k Z G A m B a 0 m M u B k 9 7 q u u p t 7 9 9 9 5 5 9 3 : 3 3 < 3 4 3 3 ; : ; 3 4 3 3 4 3 3 4 3 3 3 5 3 3 ; ; - & & & + + $ $ + $ % % + % $ $ % + & 5 3 3 % + - 3 @ + $ $ @ @ $ $ @ % $ % > - + > w 4 8 ; - 3 p u % q - O X X + + X + X ",
"X + + 7 m z k a a B m u 0 z H J ` W ) _ U Z x k B B w 0 7 7 0 7 7 0 0 9 5 5 5 5 3 3 ; 3 3 3 < < ; : : : : : 3 3 < 3 4 4 4 3 4 3 : : - - - & & % % @ @ + @ + % % % + + + - 5 - & 5 5 : 7 5 2 @ $ $ + $ # $ @ % # + 3 : + 6 3 3 $ + 3 - & p p 7 5 + X X + + X X X ",
"+ % % & k 7 : : ; 0 < 3 3 : 9 B A T ' *.%.} ) J B F A 0 0 7 7 9 5 5 5 9 0 9 5 9 3 3 3 5 5 3 < , ; ; : ; ; ; ; 3 , 3 3 4 5 4 3 ; - - - - & - - & & % $ + + + @ $ % $ + & 9 < % % % w q # + ; > $ $ % % % % + % % + - 6 ; 0 3 : X 9 m u % - k p 7 $ X X X X + + X ",
"+ % & - k p : 3 3 3 3 6 w w m x Z U H G [ [ q.( ] B a V t 0 9 9 9 9 9 5 9 9 5 6 9 5 3 5 5 3 4 3 ; - ; ; ; ; - 2 2 2 3 3 3 3 2 2 : : - & & & % % % % % $ + + $ $ % % & 5 ; : ; 3 p p w $ + & 5 % @ % % % & % % $ $ : 0 t 5 3 % + w m 7 - % 0 u u 3 X + + X + + X ",
"% & & : a a 9 3 ; 3 4 3 7 M B V m 7 7 t a V U ` } %.7 m A k j 7 9 0 9 5 9 9 5 9 0 9 9 9 5 3 3 3 2 2 ; 2 ; ; ; - : : : - - : : : : - - & & % % % % % % $ $ $ $ $ $ & q , : 3 a m m m a q - + 3 3 3 > + $ & - % + + + 5 k 5 ; @ . 3 n u % @ 6 p j 0 # X + o X X X ",
"& - : > a u k 5 0 7 3 5 p Z A q 9 x %.%.H t a ) 7.8.S k A A m n 0 0 0 9 6 5 9 7 0 7 9 7 7 9 3 3 3 3 3 2 - : - : ; 2 ; - : : : : - & - - % % & @ % % % % % % % $ & w 0 3 3 k M u u u - ; h 9 u u & 5 - % & & & % % + & 7 p 7 @ o : < 3 : + 3 u u 3 $ X + X X X X ",
"- : : < k p t V a j 3 5 Z F t 6 a _ 7.} _ U w 0 J r.*.V t M m w 0 0 7 7 9 5 9 9 0 0 9 9 7 7 0 5 3 3 : 2 ; 3 : : - - : - - - - - - - - - & % & % % % % % % % % # 5 u > 8 a N 7 p a t 4 & & p m u O - 8 & & & % % % % % : k k 7 & 3 & % & & 5 3 5 3 + X + X X X X ",
"; ; 3 3 7 M m a a 0 > 9 H p 8 5 G u.*.( ' W u 0 t ' 8.J a u m t p w w 0 q q 9 9 9 9 7 5 5 5 5 9 9 9 3 2 3 3 3 , 3 2 2 - & - - - & - - - : & & & % % % % % % % 3 0 4 : t V 0 3 x m m a 0 3 1 M w # & 9 ; - & % + % % % % < k a w t p 9 5 5 2 & % 4 & $ + X X + + ",
"3 3 3 3 7 M M u t k u u A 7 w 7 m j.K.j.f.W A a 7 F *.[ F u u V m u 7 w 7 w w 7 7 7 9 6 5 4 3 3 4 q 0 3 3 - , 3 3 2 - ; - - & & - & & - - - & & % $ $ $ + $ - 0 9 : ; m j < k m m B m u - 0 m p - 3 u - - & % $ % % $ $ @ < a m w p k u 3 - % X 3 3 X X + X + + ",
"2 3 , : 3 p a N n t u F G 5 7 0 7 m ` Y B k A F q H H B ` c m a w u u q 0 0 w w 0 9 0 9 6 9 6 5 3 3 5 5 4 3 3 3 3 2 , 3 ; : : - - & % & & & & & & % % % % + 8 3 5 % w V 6 u B m m m m N 3 5 m k 3 - w - & & & % % $ $ $ $ % - 7 k a t t 7 9 3 : 3 8 X + + + + X ",
"; 2 ; : 3 6 9 w m B q F | V k 0 0 a B a 0 w M L m _ M w G ] m t 0 u u u u 0 7 0 0 0 q 9 5 9 9 9 p k 7 4 4 9 9 5 4 3 , , ; - : - & & & & % % & & & % & & % - 0 3 2 % k k w n m V z k m m 5 4 p m 3 & w - % & - & % $ % % $ $ $ + 3 p a w 3 : % + + $ X X + X + + ",
"; ; ; , 3 3 5 9 w x A U } B m A m k B m a u A m J W a p m W z u t p u p u w 0 7 w w 0 0 5 7 p m k 7 k 0 3 3 5 9 3 < , 3 < 2 3 3 - - 2 - & % % % % % % % % 5 6 4 % - n p 9 0 m m m m m 0 5 5 a m - - w % % % & & # % & % + + + $ + = 7 0 4 - % - - + X X X X X X ",
"; ; 3 , 3 3 4 6 5 7 x J 3.u.P y V S S B B G J J U a a a j Z m u u u u u t t w 0 7 7 w 7 w a m p 6 u m a p p 7 6 p w 3 3 3 - 3 3 - - & & % & % $ % % % & $ 3 u ; $ 3 m a ; 6 a a m m k 5 0 7 m a - 5 4 $ & % % - # @ @ + X O + + O $ % O @ - - 3 & X . X X X + X ",
"3 3 3 3 4 3 5 9 7 7 p k Z @.h.2.W W ' t.y.u.f.%.M u p p p F L u u u u u t t t w 7 w 0 u k p z t p k p m 9 6 a a w u 0 3 3 3 3 2 - & & - & & & $ $ $ $ % + 3 u % % 4 m w ; u p q 5 5 5 j 6 a x 0 < 0 - $ % + $ % + + + X + + + + + @ + o . X X + + + X X X X + + ",
"5 5 4 3 4 5 5 5 9 9 0 a a a F W } -.u.M.u.%.` W U W E H E J S a p p i t t t p t 7 t t m i C V m B B M V V m M a < 5 9 5 w w 3 3 ; - - : & & % @ $ @ + + + - 0 & 3 9 a p 9 t 7 & & & < t 7 m k w 9 8 @ $ % + $ + + + + + + + + + $ + X + + X + + $ $ + + + + + + ",
"3 3 4 5 5 4 5 5 9 9 7 w u t u m { 7.7.K D S B M B V V B Z A V A p j p u p u t t t w p k k k t p j t z u u C B V V a 6 u t p 3 : 3 : - - & & % $ $ @ $ % + - a 5 5 3 k m 7 5 p 3 - ; p u j w w u w > X @ $ + $ + + + X + + + + + + O + % + + + + $ + + @ $ $ $ @ ",
"4 4 5 8 5 3 6 9 6 7 0 0 7 t t r m E ` U F G F G S L F G H A V a p u a p u p t t p t u k a p w p a t a 7 9 u 9 6 t z A m 9 3 3 : : 2 - & & - % % $ @ @ $ + - 0 9 - % w a a 7 a a u a m a u 7 9 5 9 - $ + + + + % + X X X + + $ + + O % : % % + + $ $ + + + % % % ",
"5 4 3 3 5 6 0 0 7 7 0 w t t i p m d t z M M M V B m x F d a p a p u a a p p u i j t u m k a t p j w p t w j 9 6 3 0 a V Z a w q 4 ; & - - - % % $ + $ % % % 5 % % & w 9 7 a a a m p a a k w 5 5 $ O $ $ + + + % @ X + X + + + + @ $ & % % $ $ $ $ # $ + + % % & ",
"5 3 5 9 0 0 7 7 7 w u t w t u p i V m a p j a a m a B Z m k n a a a a a p p a m j t p a m a z M M M V M m m u 7 6 p 6 7 M S m u 7 - - - & & & % $ @ $ $ % + 3 - & & 9 9 3 3 9 p a k a 4 ; u k < + X + $ + + + $ $ X X + + + + $ $ % % % % $ $ % $ $ % % # % $ $ ",
"5 5 9 7 0 w 7 w t t w t t u t u u j m z a a a k a m V m m z k a i a a a u p p u u u u u S E V m a m m m B V A S A V a p p a m m a w 0 : - - % % & % + $ + + & 3 & & 5 9 3 5 u p k u , - 4 5 : 3 - + $ + + + + + + + + + + + $ % % % % % % % % % % % % & & % % % ",
"9 5 0 7 0 7 w t 7 t u u u t p t p i a a a k m k z V m m N z k k a a a a u p p u u u w m A A a p u t u m A V M A Z B U H m a u k m a u 3 - & % % % % $ + + + $ > - % 3 t 7 u n u w 0 3 u t % X + % + + + X + + + $ $ @ @ $ $ % % % & % % % % % % & & & & & % % & ",
"0 9 7 7 0 0 w t t p p p p p a a a a k a a a k z a m m a m m m k a a a p t p u p u u t x Z M a a u z G V M m B B B M A W ] Z m a w a k 5 - : - & & % $ + $ + + % & % ; u 9 3 q 6 6 u 7 3 3 4 % @ + X + X X + + X $ % % & % % & % & & % & & % $ % & & % # % % % & ",
"p w w 0 7 0 t t u p p u a p a a a p a a z a k m m m m m k m k k a a p p p p u p p t u t B G a u d H A V V M m u t t p M ) [ U m 9 w a k 3 - - - - & & $ $ $ + $ $ % # 0 3 3 6 t 9 q 9 + $ ; : $ + X X X + + X X + % & & & % % % % $ % & & & & & & & % % % % & & ",
"a u t w q 7 t p u u u a a a a a a a a a a k m m m m m m m m k a a a p u p p p p q u p m S B m t F P M m a u a k m x 7 7 z U J F l ; a z m 5 & - - & & $ $ $ $ @ $ @ @ ; j ; ; u 7 & 4 : $ $ + + + X . . X X X X + % % & & & % % & : & & & & & % % % & & % % % & ",
"u a p t u u u u u a p a u a a a a j k a z m m m z z m m k k a k a a p t u p t p t p m z S a B B _ Z a a p a A W } } G u 7 B A U A w 0 t B m - : - & & $ $ + $ @ @ + % % 6 w 3 ; 8 % % - + X + + X X X X X X X X + % & & - & & % 9 0 & & & & # - ; % % % $ % % % ",
"t j j u p u u p u a a p a a a a k k z k k k m z m m m z z k k a a p p a u t t u u p B V V a u ' ] u a p M J %.7.*.*.` M w u A V G k < > 0 B 7 - - & & % % % $ + + + $ $ + 3 3 + : - + + X X + X X X X X X X X X o + # - - - & < 7 & % > 3 % 3 6 6 : $ % % & & & ",
"p u a j u u u p a a a a a a k a k k k m z k k m m m k k z a a a a a p u a p t p p t m [ F M 7 ( Y u a a S w.w.) Z J J M a q m m V V u 3 > 5 k w : & & % % % $ @ + + $ $ $ + + $ $ @ + + + X + X . X X X . . X . X + % % & - & w 7 9 w w 7 0 5 - - - - : - & & % ",
"p u a a a a a a k a a a a a a k a z k z z z a m m k a z z k a a a a p t p p t p p u u U ] m m [ G S u p Z q.k.G S U L V m a a m B M m 7 5 0 t p > - & & % % % $ $ + + $ + + $ % % $ $ + + X X X X X X . . X X . . + $ $ % & 3 w 5 p 7 9 u w 5 0 w u 3 - 5 3 3 - ",
"u i k a a k a a a a k k a a a k k z a m m z m m z a k k a a a a a a a a p p a p u u p t H ( W u.M m V u a W j.*.Y W A m a M a B M m p n w 9 5 p w > : ; & % $ $ $ + + $ + + $ % % $ $ @ + X X X X . . . X X X X . X + + % & 9 7 # 4 % & 4 3 # 3 5 0 a p 0 & & : ",
"p a a p a a k k a k a m a a k k k k k m m m a a a U M m B m m k a a a a p i p p p u u u a _ _ M.=.7 b A a u D _ F Z a t a M m M k 7 9 p a 3 5 9 j 5 : - - % $ $ $ + $ $ $ $ % & $ $ $ @ + X X X X . . X X X X . . X + + $ ; 9 7 & 5 3 3 7 w 5 7 - + 3 t p 0 - # ",
"a a k a a a a k k k a z m m k k m m m a a m V E ` -.n.%.W U J L a k k a k i p a u u u t q m ' *.P.! a m F m t A m w u u M m m m u 6 6 5 k w 7 6 0 w = & % % @ $ $ $ $ + $ + $ % % % % $ + @ X X X X X + X X . . . X X X % ; 3 9 p a k p u w a m a w 4 & 5 a p 3 ",
"a k k k k k z k m z m m z m m m m a m U ] &.-.+.U V V [ S p k m m k k k k k k a p a u u p t M ' k.&.J H m M m k F N k m V m a k 6 4 3 5 u z 5 3 < u 5 & - & @ @ $ & - - - & & - - & % $ @ @ + + + + + + X X . . X . X X % - : 7 j w , - & < p t 7 p a a 5 - w p ",
"a a k a k z z a z z z m m m m a x Q 4.N.E.2.y a m m m M @.S a k k z m z a a a a a a p p u p t t U B.y.( W F V m m V m m m a k u 6 7 t p t p 5 3 3 5 h ; : - & & 4 9 w a p j j t t w 5 - & % % % @ @ @ + X X X . X . X X $ - - u 6 & % - 7 k 3 - - 3 5 a k 5 3 p ",
"k a k k a a z z m z m m m m y P i.' E c.b.x.;.A z m B j y W B F x i a z m a a m k a u p p i a p t M ;.u.%.W H J E Z c V m m m a j a u w u z 9 4 3 3 8 2 - - % & 9 9 < w 3 - 9 k a m k p w 3 & % # @ @ + + O + X X X X X $ & & q 9 & % 7 a - & 4 9 u p t a p w 7 ",
"k k k a a m m m m m m m m d $.i.T :.T.#.x M O.i.! y y I ! N.B.0.y.$.Q m a U m z k k a p a k a a j z a B ' ( J H G J G A m m m a u 7 t q 7 m 7 3 3 4 3 3 : - & $ % % : 3 X > 6 3 p p 9 3 p k u 9 : % % $ $ $ + X X X X X @ % # 3 w & - p 3 : 6 : ; 5 7 0 j p 7 0 ",
"k k m x m m m m m z m m M 4.=.~ D.D.S y m x y v i.x.F.R.=.U V S U ;.|.-.V G M k a a k u a m a a k k a k a B L A V M z m B m a k a k j 9 9 p 9 3 3 4 3 3 ; : > - & % u j 9 p 6 5 7 - - 5 6 6 u y p 9 - & $ $ + + + X X X X $ $ 2 p 9 w u < 7 - & 3 5 - % 3 k u - ",
"z z m m m m m m m m m V v.^.v.|.T.J V M D #.Q.oX{./.$.~ ] @.E m z x c.@.%._ L a z k a k m z k a k k a z a M m x V A B V V M m m m k t 9 9 5 5 5 5 3 3 3 3 ; : ; - 5 u 7 u u p a m p u t < - 9 7 p k w 3 & % $ + + . . X + + % & w k p w 5 - - 0 a a 9 3 & 7 k - ",
"m m m m x m m m m m Z N.N.B.U.6.! =.Y.!.{.4X<XXX`.[.#.$.! ] %.2.A y #.! x =.t.U B m z m k a k k k a a a a z z a k m m V m m n m u 7 7 0 9 5 9 6 8 4 3 3 4 ; : - 3 a k 5 - & ; 0 7 w u m n p 0 3 5 w p w 5 - % + X X o X - % + & : p a w 4 & 3 k a d t 7 0 5 p 0 ",
"m m m m m m m V m G D.^.c.d.W s ~ c.I.>X7X XS.^.G.5.N.W.U.2.' 0.y.d #.6.t A W V M m k a m a k k a a i a a a k a a a k k p u a k q 7 9 9 9 9 9 9 5 5 5 4 3 3 3 - 5 7 t j & : ; ; - : - 3 u k a u 5 5 0 p u 4 % + + @ + X & - + & $ 9 m 9 - & 0 z k k < - 3 0 p 7 ",
"m M M m M M V m U  X`.@.2.U c x.D.D.,X3X/. X2X!.2.;.( W $.;.N.c.R.@.:.[.D R ` a m m m z a k a a p a u p a a a a p u k z t t a a w w 7 7 7 9 9 9 5 6 6 5 3 4 3 ; 3 u 7 k ; - ; ; ; 2 : 3 6 p a a j 7 9 7 u w 4 % $ $ + X X & & $ $ 5 j j 9 ; 0 z u a < & 3 w a 3 ",
"M B M B M M d U +X~.` t.S B N.n.n.:X7X{.3X$Xz.U I A M m m x L v.|.D.v./.@.E.4.y a k m m k k a a u u a p u u u p p p p p w t u a q w w 0 6 9 9 9 5 5 5 3 4 3 3 9 < > q a 7 & 3 3 - 5 u j m m m m u j k 7 7 7 6 - + $ + X X X & & + 3 7 p k 5 ; 6 3 6 p u 7 7 p 3 ",
"M M M M V d U >X@Xi.U.Q F V.4.n.[.2X5X7XG.F x y x m V A F A B x 5.2X_.Q.d V.c.` ! U Z a k k a a a a a a p p t t u t 0 0 t t 0 w 7 0 7 0 7 9 9 9 5 5 9 3 3 3 3 6 w : 3 z a 3 - ; 7 k m u 5 3 3 w a i j p 5 3 ; 5 = + X + X X X - 3 5 9 0 p 7 5 - % & 2 3 3 5 p - ",
"V B M B x P ;XF.] T.6.i.OXF.B.^..X5X,X=.M M Z $.#.U Z M S V V A c G.<X].H c.M V G Z m k a a k a k a a a p p u t t t t w 0 w w w 0 0 7 7 9 9 9 9 9 9 5 4 4 3 3 ; 0 5 3 p a : - 3 m m a 9 ; 5 5 5 7 n a a u 3 - ; : + o X X X o + ; 9 0 t w w q 9 3 = % - : 3 t - ",
"V M M M F OXV.D m.E y b.c.!.<X3X1X>XO.v Z U ].9XwX3X/.5.Z Z V F c 5.tXV.n.I.H c M m n k k m k k a k a a t p u t w w t w 0 w w 0 w 7 7 7 0 0 9 9 5 5 5 5 3 3 3 , : 0 6 3 m 3 - a m u 3 9 u m m M m 7 j w i & & & - X + X X X + + + - 0 j q 0 p t u w 7 7 ; w 6 = ",
"B V V B [.Q.v D.#.f :.!.c.@XqXeX>X;.S Z @.>X3X0X8XyX0X2X6.Z Z B Z B.2XB.&.D.m.d m m m x z m a k k k a a u p p t u t w t 0 7 7 7 0 7 7 7 7 9 9 9 5 5 5 3 3 4 3 3 : 4 w - 0 p 7 m p q & 5 m B M m V w u w u 8 ; % : $ X X X X + + X + & 5 w 0 7 a u q u p p p 7 9 ",
"V A c V..X^ C.6.Z H T.B.,X,XyX4X@.Z P D ].yX7XqXeXeXqX@Xi.Z F B =.s.1X).c @.D.@.D M m m m m m k m a a a p u t t u t t t 0 7 w 7 0 7 7 7 9 9 6 5 3 5 3 3 4 3 3 3 2 ; 0 3 3 k d M t > : w A V m m m 4 5 p p u & O % % X X X X + X X X X X & 9 w t p 7 w p w 6 w 0 ",
"A M :.>XJ s.i.F H ;.`.@X#X4XrXG.v G S J  XuX0X4X5XeXyX+X` G F W t.:.iXx.f ;.%.` @.M m m m k m k z k a a j p p p u t u t w 0 w 7 0 0 9 5 5 5 5 5 4 4 3 3 3 ; 2 3 ; 3 < w 7 u m m a 5 3 p V m d m j & 4 t k w ; & ; & . X X X X X X X X X + % % 3 t t w 7 u 0 0 0 ",
"S D .Xv.s.s.K ! K 6.5X(.{.7X.X,.S G H G ).iXeXeXrXyX0Xm.' H J ^.n.).wXx.f h.2.m m m m M m m m m k z k a a a p p u t u q t w w w 7 9 9 9 5 5 3 3 4 3 3 3 3 < 2 3 ; ; 7 0 p a k m p a n a a m a p ; - 4 7 p p 3 - , - X . . X X X X . . X + $ $ % - ; 3 3 9 5 3 : ",
"D c.=XU.i.R _ ( X.b.<XY.rXY.E.! H H U G ;.1XeXuXiXiX4XT.`.&.y.`.+X,X3X).;.E.` d M M B M m m m m k a k k k a p p u u u t u w 7 7 0 0 9 9 9 5 3 3 4 3 3 < , 3 2 , : ; 6 l a a a m k 9 7 7 7 9 ; # @ & 4 5 9 u < + @ 2 $ . . X X X . . X X @ % & & % % % $ % : + + ",
"( +XB.u.I.S.S.s.y.+X5X0X>Xp.(.[ ( W W W 0. X,X X{.Y.m.OX(.+Xn.t.wX$X>X-.Y.-Xc.@.S M B m m m m z k a a k a p a p u u u u t 7 0 7 0 9 9 9 9 5 5 3 3 3 3 , ; 3 3 ; - : - 3 j a 0 u m u 7 5 2 % $ @ - 3 < 5 ; 7 @ - : : + X . X X X . . X + $ % % % @ $ $ $ @ - + + ",
"D.(...7.f.P.^.^.-X3XeXeX.Xp.!.) _ ( W ] ^._.U.w.e.8.M.U.T.4Xs.>XwX3X4X-.Y.a.J =.Y M B M m m m m k m k k k a p p u t u u t q 7 7 7 6 7 7 9 5 5 5 3 3 3 3 3 3 3 < - - & - < u k 5 5 p a a 9 3 3 5 9 3 3 & - 3 4 3 + + X X . . . X + + + + X X + + + X X + + $ + X ",
"=Xh.7.w.e.e.j.L.$X,X3X7X8Xn.^.%.( [ } q._.[.P.k.L.J.U.[..X>X3X5XOX@X!.4X+Xd.U m V V M M M m m m m z k a a a a p u u u t t w a k 7 9 9 0 9 9 9 5 5 3 3 4 3 3 3 3 3 : - - - ; 7 j 5 - 9 k k a w 9 0 3 & + : 3 3 % + X X X X + + + + X X X X . X . . . X X X X @ . ",
"oX .8.e.g.M.H.{.7X$XOX.X1X{.|.N.K *.<.e.`.OX[.S.L.U. XOX X5X8XqX;X2.u. X).^.Q B V A B V M m m m m z z k k a a p t u t t t k m m k u 7 7 9 9 5 5 4 5 3 3 3 3 3 3 2 - - - - : & 3 p w - 2 5 7 3 - & & % $ 3 3 & % $ @ @ @ + + X X X X X + X + + X X . X X X . X . ",
"G...w.r.l.U.R.3X4X@X[.L.@XOX5X,Xu.o.e.r.L..X>X+X^.OX@X:X7X7XrXwXs.p..XY.( ( W Z F V V B B M M m m a a m a d d u p u t w a m u k p a 7 w u 7 3 3 5 5 4 3 3 3 4 3 : : : - - - - - ; 7 h 5 - = - ; - 4 : - 9 - & & $ @ @ + X X X X X X X X + + + X X X X X X . . . ",
"j.8.f.k.L.^. XrX@X>X`.I./..X@X0X4X^.A.A.U.!.{.,X5X4X0X7XqXuX5Xn.h.[.^.p.R J G G S V V V B m M m m z a a M W A u u V V d A M G V d M a a p p a u p w 4 5 3 3 3 3 : : - - & : 3 3 - ; 3 u q 5 3 ; 3 9 9 : > = - : % + + X X X X X X . X X + O O X X X + . X . . . ",
"j.l.L.E._./.,XqX@X,X/.^.R.I./. X3X0X4X1X$X+X.X1X8X7XyXeXrX+X{.T. X`.I._ _ W U G H S A V M M M m m m a M ] S d V H H H W } *._ ( J ] ] W V m k 7 w u 7 5 3 3 3 3 ; : - - & - 3 < - : & : : - ; 2 4 3 6 6 : & % % $ X X X X X X X X X X X X X + X + X + X X X X X ",
"k.I.^.`.`.[.5X5X,X>X(.^.T.I.l.l.L.[.>X,X0XiXyXiXyXuXyXrXXXM.`.4XOX^. ._ ' ( E W U A A V M M m m m a V ! W V B E Y V U A H B a p m m d U W J m w 5 w a q 6 3 3 3 : : ; - - & ; : - : & $ % % # & - & & & % + + @ + + X X X X + X X X X X X X X X O @ $ + + X X X ",
"T./.}.OXOX@XrX5X5X@X{.`.T.U.K.k.M.U.T._.>X,X3X5XqXyXwX>XI.`.@X(.,X/.-.[ ) W J J F S V V B m M m m d E @.a.K U W m a m w m u a i a 0 7 t 6 7 m V x p t 0 0 < 3 : : ; - - - & - - & & & % & & - 3 - $ $ + $ $ + @ + + + X X X X + X X X X + X X X X @ + + + + + X ",
" X+X>X,X>X,XeX5X0X+X}.{.^.T.P.L.T.T.[.@X$X>X>X7XqX4X X X@X+X^.=XA.M./.Y.0.[ G J H F A V V M M m m a U { ! a V M u Z ~ E @.=.t.%.=.G F W H H B k a p 9 6 p w 5 : : - & - : - 2 ; - & - : & & : & % $ $ $ $ $ $ $ + + + + + + O + + O X X + X X O % % + + + X + + ",
"`.XXOXOX.X$XqX6X5X=XOX{.(._.^._.(. X,X6X3X0XqX4X@X@X X{.3X@XOXU.w.8.q.S.S.} J H J F V V M M M m m a M E H d U -.=.=.` U G B i W k.0. .2.w.<.Y M 7 w m a 7 5 9 3 2 - & - ; : : 3 2 : - & & & & & % $ + + + $ $ $ $ + + + + + + + + + X X o % : - - % @ % + + $ + ",
"(.}.OX X X$XqX5X1XOXOX.X[.[.`.}.oXwXqXeXrX3X@XOX}.{.3X3XoX=X.XM.f.r.r.o.} _ Y G F F V M M m m m m m a G h.S.4.E M t t 0 7 y [ a.F y A H ] J W G m u 0 t 7 < 9 < - - - ; < 3 3 3 ; & % & & - & % % + + + + $ $ $ $ + + + + + + + + + + + + $ - 3 3 3 3 & + % @ + ",
"`..X.X`./.+XrX0X@XOXOXOX[.[.[.oX3XrXyX4X@X{. X@X.X=X$X3X4X(.S.^.K.r.w.7.<.*.` J S S Z V m m m m m a a M ~ L m t p a k p y s.y.y x m a u m A F A U a 3 5 u j w 5 : < 3 3 3 3 3 - - & - - - & % % $ + + @ $ % % + + + + + + + + $ + $ % $ % & % - - & - 4 : $ $ $ ",
"_./.(./.T.OXeX7XOX X.X}.`. X,XrXyX5X5X#XOXOXOX3X3X&X,X_.L.`.{.T.j.e.w.8.7.' ( W H G S M m B m m z z k j t U M a a a a d m.B.u M a 7 q 0 6 0 m m W G 6 p 0 w w 9 5 3 3 ; 3 3 ; ; : 2 2 - & % % % % # & & % % $ + $ + + $ $ + @ $ $ $ + $ & 9 w 9 ; - & & 2 2 # % ",
"^.^.^.T.T.}.4X,X^.T./.XX%X0X0X6X7X$X,X%X@X%X3XrX3X@XT.l.j.f.K.l.9.f.w.e.1.' ` W U H F B m m m m m z a m V 4.O.u a a t 4.L.V d m 7 w w 7 0 9 6 a U W B 5 3 3 t 6 9 4 4 3 3 3 3 2 - : & % % & % $ - 5 3 & & - - & $ $ $ + & - @ $ $ $ $ + & 5 3 3 3 4 2 : & - 3 & ",
"^.E.R.U.T.^.[.,X^.T.[.>X<X@XoX@X1X+X$X,X5XeX7X8X+X^.L.j.j.w.f.e.9.w.8.7.*._ W U G S Z A B m m m m k G W p M t.d p u U m.( a B u 0 7 y i 7 0 7 1 m J A 7 9 w w u 7 3 > : & - & & % % % & % # + % 6 3 % & 3 4 2 < % & & & 3 # X @ + % $ + - & X + - w w 7 9 ; 3 5 ",
"^.U.L.R.T.P.L.[.OX.XOX+XT./.XX X3X3X5XeX5X>XoXOX.XU.I.k.e.7.9.r.w... .*.} _ U U G Z V A M m m m m k A ] j u ! @.q a t.@.A k a w a ;.q.u.V 5 9 5 a ' A a p 5 3 w 9 - - : - - - - % & & & & @ = 9 - $ % 3 3 3 5 9 3 - 2 : % + $ + $ $ $ % : $ $ 3 w 0 6 6 9 q 4 5 ",
"^.L.J.P.U.U.L.S.E.@X=X+X^.@X,X4XrXeX4X,X>X[.[.(.+XXXM.7. .*.*.8.3. . .} } ) W J H S V V m m m m m m a A S a y ;.F V a.K M u u 6 $.T.w.P.&.u k 7 G ( V m 9 3 , 7 5 - : : - - - : & & & % # % u 9 + & 4 < 5 6 7 q 2 - % & % % $ $ & & % & 4 $ : p 9 3 2 3 9 0 0 5 ",
"^.P.k.k.A.K.K.L.I.@X,X8X3X5X5X,X,X%X].[.;X+X^.L.R.^.u.} } ' ) ) _ } %.) _ ( W G G G V B m m m m m m k a G Z k S ' 2.O.H a u p 7 @.f._ f.] u u k U *.m V p 5 9 w w 3 : : - - - - % & % % % 9 t : 5 0 7 0 5 % % q & % & & & & % % & 3 & & 5 < w 7 : & $ + % 4 7 0 ",
"M.L.k.l.K.l.k.J.}.5X%X4X$X X{.[. X>X[.^.T.^.P.L.k.9.7. ._ ) ( ( W ( _ _ W J E H F Z Z M m m m m m a k k A W ] m y m.+.Z m a u 0 F W ] J x q 9 m ) ' u m a 0 5 5 7 3 3 3 2 ; - - % % % @ 9 a 7 7 u 0 q 6 : 3 & 3 5 @ & & % ; - % & - % # 5 u w - % + @ O . @ 3 3 ",
"L.T.k.L.L.k.J.M.k. X X+X*X[.}.}.].>X{.U.T.K.k.k.w.7.7.*._ ( ] W J ( _ ) ) W G F A V M m m m m m m k k k a G } J u / u.} u a u u u p a d z q 7 V [ M u a B w ; 3 6 : 3 3 2 ; - & % $ % < u u a u q p 9 5 0 5 3 5 q $ % & & 2 & % % ; % $ 5 u > $ & 5 q 3 + X - 3 ",
"U.T.k.M.l.k.M.L.I.[.,X[.,X@X`./.T.^.;X^.L.j.g.g.q.|  .} ) ` ( W J ` ( ( ] W G Z V B M M M m m m m z k a a a M [ ] T G 4.] p j u a 7 9 a V M x J _ 7 w k a w 3 4 3 ; 3 3 2 : - % % $ - w 7 u m 5 9 4 % + % 5 3 9 w % ; 5 - & % % & ; - - q 7 & $ 3 u u w - + % 4 ",
"K.M.K.l.f.l.l.l.P.E.:X+X X>XOX[.E.L.^.R.A.k.e.9.<.[ _ } } W W R W Y W ( W J G Z V B V M M m m m a z z a k j u d ! W ( F | ) V t p k q 7 u k x E G 3 7 M w k 5 ; ; 5 3 , 3 : & & % & 9 u 7 u w - 5 6 u 3 @ & q 6 q % - 3 @ $ # $ - 3 - 3 5 5 - $ 9 w 7 q 5 : $ 3 ",
"k.j.j.k.k.j.r.f.L.E._.=X>X X X_.P.L.k.l.k.w.8.8. ._ _ ` W U U G J J W J J G F A V V B m m m m n k z z k k u a a u m 3.y.D W ] U a u p t 7 p S S p 3 9 w < u 9 3 0 7 3 3 3 : & & % & u t 7 p < 3 7 a a k - + 9 u 9 + $ 3 % % $ $ % 3 > 5 3 5 < $ : 9 5 ; & - & 3 ",
"f.g.r.j.j.j.r.j.R.R.I.R._.E.S.k.e.r.g.e.w.1.7.} } [ W W F G G G H H H G H F Z V A M m m m m k p a m a p p u p p a u k W U J G J ] S m m M G H k 3 3 3 3 7 a 0 9 5 > : 3 3 - % % % ; p 7 9 u < 3 4 p u w 4 & 5 j w @ $ 3 - # $ + @ & 4 3 4 4 4 & + ; 3 + X 2 : 3 ",
"8.r.j.g.w.r.g.M.R.U.M.M.K.k.M.j.w.9.9.8.7.7.<.} ' } J U G S G F G H A S S Z V V M M m x a i x A ! W U H Z S V a i i u q w V H A P S G H A A a 7 6 7 t a m k t 9 < 3 2 : - & & - & 3 k ; 9 u 9 : & 0 0 3 3 9 5 p q @ + 3 2 # + + + $ 3 ; 3 3 5 ; + * 4 - 3 5 % 9 ",
"r.j.k.f.f.l.k.L.T.T.L.K.f.g.k.w.8.9.7.7.*.*.} } ' ( J H G Z S S S G Z Z A V V V V x d Z O.4.N.P.k.*.%.W [ H a m a a a u w u a m A m M Z B A A M m m M a 5 3 w 3 , 2 ; : - & & - % 5 u - w 5 u - & 9 & + ; 0 3 u 9 % + 3 3 + + + + + % 4 ; 6 7 7 & + ; 6 3 O - 5 ",
"<.q.9.8.9.e.k.L.U.L.A.j.9.9.7.7.q.7. .} ' ) ) ( W J J G Z A Z V V V B V M V V d O.2.c.B.s.h.h.%.U m x a B a u j k k t u w 7 w p m a k k m V m a a a a 7 9 w u > : , ; & - & & & : 3 0 & 6 3 w 5 - w 5 ; 0 5 w w : : < 9 ; $ + + + $ @ : > 3 0 9 7 3 2 3 % : 3 % ",
"7.1.r.w.8.e.k.J.l.j.f.9.9.8.<.*.} | } _ ) ] Y W U J G Z S A M B M m M M L x c #./.Y.t.[ R ` M x d t a m V a a u u a u a t 0 0 7 w w u w u u 7 w w q p q 7 7 5 3 : - - & & & % & % - 5 + 5 0 0 9 4 < 7 w 6 9 p 9 % $ 3 j 3 & @ X + + + & : - - : 7 9 - > 3 : + + ",
"w.8.9.7.w.l.j.j.r.w.7.7.w.e.8.[ ) _ } ) ( W E J J F S Z Z B m m M ' S S [ O.^.~.G._ ` G y G m V @.] ` &.[ F B m k p a m q w 7 7 6 6 7 6 0 t 3 3 3 3 w 3 2 : 3 ; ; - & % & & % % % & 8 % 5 ; 9 3 5 2 : 3 6 7 7 - + $ 3 ; - & X X + + $ % : & & % 3 4 3 - % X O + ",
"7.7. .8.e.k.g.r.w.w.8.7.8.w.8.} ( ` ( ( U G Y J H S A M B V V m J ' y ! /.}.x.W h.! i M $.D.I.c.6.! M a m m V m a a m z 7 7 7 7 0 9 9 5 9 t 5 3 3 3 0 3 3 : ; ; ; - & % % % % & % @ 4 % 3 - > # - - 9 w 0 9 % % - ; 5 @ + $ + + + + @ @ & @ 3 - $ @ 3 = X + + + ",
"[ }  .7.g.r.e.e.8.7.7.8.7.*.} _ ( W G G H F H H A A A V B M B a E x L  X!.@.&.~ ( D 6._.`.D.=.U c m m m p p u k u t V a 9 9 7 9 5 9 9 5 5 5 3 4 4 < 5 3 ; 3 ; ; : - % % & % % # % @ 3 ; 3 ; ; $ $ - 9 5 3 ; % + 5 q % $ + + + + + + + $ + + & > - % $ : : + + % ",
"[ '  .7.9.8.7. .7.7. .*.| } _ ( W Y U F G H G Z A A V V M m m H =.#.;X|.=./ V 7 $.`.Y.h.[ v t t k m m m z t u w w t S p 9 9 9 9 9 9 5 4 4 3 3 3 3 : 2 ; ; 3 2 2 - = % $ % % % % : - 3 < - 3 & + ; t w 5 @ & - & 8 3 # % + + + + + + + + $ % + % : : O % : : @ % ",
"[ _ }  . .*.| } } } ' _ ` ` ` Y J J H Z S Z A G A V V V m Z ` D 2.}.5.;.L r A G.+XF.y._ ' 4.4.U t u m k m p t t 7 a J 7 9 9 9 9 9 9 5 4 3 3 3 > 3 : : ; ; 2 3 ; - - % @ % % % % & % % 3 + 3 ; 5 w 5 ; : @ + 3 6 : $ - & + + + + + + + + + % $ + + - : & @ ; 3 - ",
") ) } }  .| _ ' ' ( ( ] W W U H J G S Z S V Z A V m m m M [ A V !.P 1 A G ! p.I.4.B.Q 5.+X;X|.[.G 7 a m k p 0 q 7 A B 9 6 9 9 9 5 5 3 3 3 3 3 ; : : : : - 3 3 - - & & % % % % % $ + + * + - : 5 3 @ @ - @ : 9 4 + X + $ $ + + + $ $ + + $ + + + + % & - : $ % 3 ",
"W _ } _ } _ [ _ ( ( W K J H G G G S A A V A V V V m m a L ! a 6.&.J p d S.O.:.^.N.W 4.XX}.4.).-XP 6 M m m p 0 9 t A 7 q t 9 9 5 5 3 3 3 3 3 3 : ; : ; : 2 3 3 - & & & % % % % % % + + + + + + - ; % + - 5 4 3 - % O + + + + + + + + + + $ + X X X + + & : % % % ",
") ( %.p.-.R ( W W J J H H F F S Z A A A M M M m m m m i @.O.] O.d O.y =.=.] +Xz.y t 4.'.T.D.|.2.t t Z a V 7 0 6 H m 0 m p 9 9 5 5 4 3 3 : : ; : : ; ; : 3 3 3 - & & & % % $ $ $ @ + + + + + X & : ; - 5 w 3 + + & % X + + + + + + + + + + O O X o + @ + + & & $ ",
"0.m.[.Y.N.2.) W U H F S Z F Z B V V V m m m m m m m k z -.4.#.m j U N.P s D..Xt t p m ! B.b.A a w m m V j 7 7 V P 6 p k 7 5 4 5 5 4 3 3 3 3 : : : : : - : : : - & % % % % % $ $ $ $ + + + + + % : - 0 3 - : & + + $ + + X X + + + + + + + + O + + + + + $ $ + + ",
"(.F.} X.&.}.Y.h.W F G F V A B M M V V m m m m m k z k B U a.:.q u #.4.G +.( I.,.x u w b F r q w a A m m 7 p m P u 0 z 0 9 5 4 4 3 3 3 4 3 4 4 3 5 5 5 5 3 > ; ; - & : & % % $ $ @ + + + + + + + & : % - $ $ : + + + + + X X + + X + + + + + O + + + + + O X + + ",
"F.K Y B./.6.H ( 0.D F Z V B M M M M m m m m k k m z z a H U ;.J ! $.f 4.V M ( K.%.~ Q E a u t k Z a k 7 k M B a u V k 9 9 5 4 5 3 3 3 9 u p p p p p u u p 0 7 7 5 3 - $ & & $ $ $ + + + + + + X O & & O + @ + + + + + + X + X X + + + + + + + + X + X X X X X X ",
"wXoX].n.D Z F V H Z V B m m m m m m m z z z k k k m k m m G x @.S.D ! m 0 M M E &.Y V u u a m M m k p m m m p 7 m p w w 5 4 3 4 4 3 4 3 5 9 5 3 < 5 3 3 < ; 5 9 7 5 : % 3 - + $ + + + + + O + + + + & & + + + X + + + + + X + X O O X X + X + + X X X X X X . X ",
"{.wXtXoX$.c M Z S m m m m m m m m z m z m z k k k k a a a a G 4.Z ] x t a u F m S W U F F A m m B m M x m p u m p 9 5 5 3 3 3 3 4 3 3 3 3 3 3 5 0 5 5 3 3 3 3 - & - 5 0 ; + & $ O + + + + + + + + + X $ + + + + + + + + X X + X + + X X X X X X X X X X X . . X ",
"s.U >.$X9Xb.$.s.p.+.Z m m m m m a a x m k a k a a a a a k u U W =.@.A V x a u V D m m m M A F H Z m m n 0 0 N p 5 9 9 5 4 3 3 3 3 3 5 3 5 5 6 w u u p a p p w 5 4 3 - ; 4 : # + + + + + + + + + + + + o + + + X X X + + X + + + + + X X X X X X + X . . X . X X ",
"!.G f c 5.9X9X:.d H E m m m m a a a a k k k k a a a p a p u =.] M E s.d.` W U F H J ] ] U ] L z m m a 7 a n p u 9 5 5 4 4 3 3 3 3 3 u 7 u k a p a k m n p p a n p 7 ; : ; 4 % + & $ + + + + + + + + + X + + X X X + + + X + + + + + X X X X X X X X . . . . . . ",
"0X@Xv.! a.=.{.9X5.s y a a m a k k a i a a k a a a a a a p u B a t 7 x Z V A L G S B M M B V b k t w m m p 7 6 w w 5 5 3 4 3 3 < 3 : 7 u p 0 3 ; w k q 3 - 3 7 p a m j < % 4 5 & : $ + + O O O + + X + X X X X X + + + + + X X X X X X X X X X X X X X . . . . . ",
"rX4X0X9X=.g F ).8XG.@.W V k k a a a p p p p i a p p u p p u t k m z M m p k a z G a a k a m t 9 p z m t 3 8 5 5 7 5 3 3 3 3 , 3 , - 3 w 2 - - 7 k 4 - < 9 w 7 5 5 0 a p & - w 3 + & % + + X X X + X + X + + X + + + + + $ & - 2 : - & X . . X X . . . .     . . ",
">.).7XyX4X:.t S (.}.D.B A m a p a p u u p u p p u u t t t t u u k a a m a z a a m w u u u M m k j 9 7 u 3 3 4 3 3 3 3 3 ; 3 3 2 ; - ; 0 < : 5 k 5 - 5 p 0 5 ; & $ $ - u u 3 - 9 - 3 # + + X X X X X X X X X X + X + @ & & & % & : - : 3 - + X X X . . . . . . . ",
"s c x.].rX7X=.-.U Y a.>.t k p p p t u p u u p i a a p p t t w 7 0 t 0 a q 7 t a F m m m a x k 7 5 4 3 q 5 3 3 3 3 3 3 : ; ; ; ; ; - - < 7 ; p w - : w p p k a 9 & % $ 3 a w $ , w - & : + X X X X X X . X X X + X + $ + + . X + + % + & 5 3 O X + . . . . .   . "
};
