/* XPM */
static char *door[] = {
/* columns rows colors chars-per-pixel */
"128 128 157 2 ",
"   c #0D0606",
".  c #0C0807",
"X  c #0F0708",
"o  c #0E0908",
"O  c #100607",
"+  c #110708",
"@  c #130A0B",
"#  c #190D0F",
"$  c #170F10",
"%  c #1B0F11",
"&  c #171011",
"*  c #1C1113",
"=  c #200F12",
"-  c #221316",
";  c #261619",
":  c #29171A",
">  c #26181B",
",  c #2C1A1D",
"<  c #311C1F",
"1  c #2F1D20",
"2  c #331E21",
"3  c #381E24",
"4  c #352124",
"5  c #392326",
"6  c #372428",
"7  c #3D2629",
"8  c #3E282C",
"9  c #41272C",
"0  c #42292E",
"q  c #452C31",
"w  c #4A2F33",
"e  c #482E33",
"r  c #4B2F35",
"t  c #492E34",
"y  c #4E2F39",
"u  c #502F3A",
"i  c #473036",
"p  c #4E3035",
"a  c #4C3136",
"s  c #4D3138",
"d  c #4E3038",
"f  c #4F3038",
"g  c #4E3138",
"h  c #4F3039",
"j  c #4E3139",
"k  c #4F3139",
"l  c #4D3239",
"z  c #4F3238",
"x  c #4F3239",
"c  c #4F3339",
"v  c #4E313A",
"b  c #4F323A",
"n  c #4F333A",
"m  c #4F323B",
"M  c #4B363B",
"N  c #4F343B",
"B  c #4F353C",
"V  c #4E3239",
"C  c #503237",
"Z  c #503139",
"A  c #503239",
"S  c #523339",
"D  c #50303B",
"F  c #50323A",
"G  c #51323A",
"H  c #51333A",
"J  c #52323B",
"K  c #50343B",
"L  c #51343B",
"P  c #52343B",
"I  c #51313C",
"U  c #51323C",
"Y  c #53323D",
"T  c #53353D",
"R  c #50363C",
"E  c #53353E",
"W  c #54343F",
"Q  c #55363E",
"!  c #55363F",
"~  c #54373F",
"^  c #52343C",
"/  c #54383F",
"(  c #573642",
")  c #563640",
"_  c #593743",
"`  c #553840",
"'  c #553940",
"]  c #553941",
"[  c #563841",
"{  c #563941",
"}  c #573942",
"|  c #563941",
" . c #583941",
".. c #583942",
"X. c #593942",
"o. c #583843",
"O. c #593A42",
"+. c #583B42",
"@. c #593B43",
"#. c #583B44",
"$. c #593B44",
"%. c #5A3A44",
"&. c #5A3B44",
"*. c #5B3B44",
"=. c #5A3A45",
"-. c #5A3B45",
";. c #5B3B45",
":. c #5B3B46",
">. c #5C3A44",
",. c #5C3B45",
"<. c #5D3B45",
"1. c #5C3B46",
"2. c #583C44",
"3. c #593C44",
"4. c #593C45",
"5. c #5A3C44",
"6. c #5A3C45",
"7. c #5A3D45",
"8. c #5A3C46",
"9. c #5B3C46",
"0. c #5B3D46",
"q. c #5B3D47",
"w. c #5C3C44",
"e. c #5D3C45",
"r. c #5D3C46",
"t. c #5D3D46",
"y. c #5C3C47",
"u. c #5D3C47",
"i. c #5C3D47",
"p. c #5D3D47",
"a. c #5C3E46",
"s. c #5C3F47",
"d. c #5B3B45",
"f. c #5B3B48",
"g. c #5C3B48",
"h. c #5B3E48",
"j. c #5C3C48",
"k. c #5D3C48",
"l. c #5C3D48",
"z. c #5D3D48",
"x. c #5E3D48",
"c. c #5E3D49",
"v. c #5C3E48",
"b. c #5F3F48",
"n. c #5E3E49",
"m. c #5F3E49",
"M. c #5E3E49",
"N. c #603E47",
"B. c #603F4A",
"V. c #603F4A",
"C. c #5A4047",
"Z. c #5B4047",
"A. c #5C4148",
"S. c #5E4048",
"D. c #5E4049",
"F. c #614149",
"G. c #61414B",
/* pixels */
". o @ @ o # * % @ O o o O o o o $ * * * * # o o o o o o o o o o # * % % * # o @ @ @ @ o @ @ o o # % # O @ o O O o o @ * * * * * @ o @ o o o o o o o @ * % % % % @ o @ @ @ @ o @ @ o @ * % # O o o O o o o # * % % * # o @ @ o o o o o o o # * % % * # o @ @ @ @ ",
"  @ @ @ O # * * # O @ @ @ @ @ O % * * * * # O O O @ @ @ @ @ @ @ * * * * * # O @ @ o @ O @ O @ O % * % @ @ @ @ @ @ O @ * * * * * @ O O O @ @ @ @ @ @ # * * * * * @ O @ @ o @ @ O O O # * * # O @ @ @ @ @ O # * * * * % O O O @ @ @ @ @ @ @ % * * * * # O @ o @ @ ",
"# * * * * - ; ; * # # @ @ # * * ; ; ; > > - * * * * * * * % # # * * - : , - * * * * * * % * * * ; > ; # $ # @ @ % * * > ; ; > > * * * * * * * * # # % * - ; , > * * * * * * % % * * * ; > * # # @ @ # * * - ; ; > > ; * * * * * * * % # # * * - : , ; * * * * * ",
"0 n n 2.2.! n n 0 8 4 @   4 A.o.T n G 2.2.2.&.&.&.2.[ n n q 8 8 ; % , 2.1.&.&.&.&.1.o.n n ! 2.&.I G e 8 0 ; o @ M w.[ n n ! 2.&.&.&.&.&.2.T n p 9 9 4 * % q c.&.&.&.&.&.1.T n n o.2.[ n G q 8 5 #   > C.@.T n n &.2.2.&.&.&.2.o.n n e 8 9 , % - [ w.&.2.&.1.1.&.",
"q G P 2.c.o.I G 0 8 6 @   4 F.w.T n T 2.f.c.c.c.c.c.1.I G q 8 8 ; * , w.1.w.h.h.2.w.&.G n o.c.c.! G p 8 0 ;   @ B B.o.G n [ h.f.w.w.w.c.c._ G n 0 8 4 * * q B.&.w.h.2.2.w.! n G w.c.&.I G q 8 7 #   ; A.w.! n N 2.f.g.c.c.c.c.c.I G e 8 0 , * ; o.c.w.c.c.w.w.2.",
"0 G n n n e 9 0 5 5 4 % @ 4 o.! e q e 2.c.! p n e e e q e 9 4 6 - # ; ! ! P p n T ! ! n n n n n q 0 8 5 6 : # # a o.T q q T c.&.n n p e e e e q 5 6 2 # # 8 o.! n a n ! ! G n n n n e 9 0 8 5 4 * @ , [ ! n q e [ c.[ p n e e e q q 0 4 6 ; # % P [ T n n T ! R ",
"0 G r 8 8 4 < < < < < - * 4 G n 9 7 0 2.c.a 5 8 < < < 8 8 4 < 2 #   % n p 0 5 8 e p p n n q 6 8 2 < < < 2 : * - q G e 8 7 n c.&.8 6 5 < < 5 8 8 2 2 : @   2 P p 8 5 9 p p n n n 8 8 5 < < < < < - * , G n q 7 9 [ c.T 5 8 2 < < 5 8 5 < 2 %   # e G q 5 5 q p a ",
"0 P p 8 8 5 < 2 2 2 < - % 4 P p 0 8 q 2.w.n 8 8 2 2 4 8 8 5 < 2 # . * n n q 8 8 a p p p N q 8 8 2 < 2 2 2 : * * q P e 8 8 N C.2.0 8 7 2 2 6 8 8 2 2 : @   4 P p 0 8 0 n p p n n 0 8 5 < 2 2 2 2 - % , P n q 8 8 2.w.T 8 8 5 2 2 8 8 6 < 2 * o # e P e 8 8 e n n ",
", 5 5 4 2 5 5 5 2 2 < - * 2 0 0 4 2 4 q q 8 2 2 2 2 2 2 2 2 2 2 # o % 0 0 5 2 4 8 0 8 5 5 5 2 2 6 5 5 < 2 : * - 8 0 8 2 2 8 q q 4 2 2 2 2 2 2 2 2 2 : @ o , 0 9 4 2 5 0 9 5 5 5 2 2 4 5 5 4 < 2 - * , 0 0 5 2 2 0 q 0 2 2 2 2 2 2 2 2 2 2 * o # 8 0 8 2 4 8 0 0 ",
": 2 2 2 2 5 8 8 4 2 < - * 1 0 8 4 < 4 8 9 5 < 2 2 2 2 2 2 2 2 2 # o % 9 8 5 < 2 5 0 8 < 2 2 2 2 8 0 8 2 2 : * - 5 0 5 2 < 6 8 8 4 2 2 2 2 2 2 2 2 2 : @ X , 0 8 4 < 4 8 9 5 < 2 2 2 4 8 8 5 2 2 - * : 0 8 4 < 2 5 8 6 2 2 2 2 2 2 2 2 2 2 * o # 7 9 6 < 2 6 8 8 ",
"; , , , , 2 6 5 < , : % % : 4 4 2 , < 4 4 2 , , , , , < < , , , # . # 4 4 2 , , 4 4 4 , , , , , 4 6 4 , , ; % % 2 4 4 , , 4 4 4 , , , , , , < , , 2 ; @ o ; 6 4 < , 2 4 4 2 , , , , < 6 5 2 , , - % ; 4 4 2 , , 4 4 4 , , , , , , < , , 2 * o # 4 4 4 , , 4 4 4 ",
"O @ @ @ @ # - - # @ @ @ @ @ @ @ * - * @ @ @ + + @ @ # * - - * * # @ @ @ @ % - * # @ @ + + @ @ @ * - * @ @ @ @ @ @ @ # * - # @ @ O + @ @ @ % * * * - * @ @ @ @ @ * - % @ @ @ + @ @ @ # * - # @ @ @ @ @ @ @ % - * @ @ @ + + @ @ @ * * * * - # @ @ @ @ # - * # @ @ ",
"o @ @     @ * * O     o         # * $ . . o @ @     O * % % % % o         # * * @   o @ @ X     # * #       o       @ * * @   . @ @ @     # * % % % #           % * #   . @ @ @     @ * * @               # * * o   o @ @       % % % % % @         @ * * @   o ",
"o @ # 4 4 4 5 5 4 4 4 2 2 2 4 4 4 5 4 : , * @ @ 1 4 4 8 8 5 4 4 4 4 4 4 4 4 5 4 , : - @ @ ; 6 4 5 5 5 4 4 2 2 2 4 4 4 5 5 1 ; > # @ % 6 4 5 8 8 5 4 4 4 4 4 4 4 4 5 2 ; , % @ @ 2 4 4 5 5 4 4 4 2 2 2 4 4 4 5 4 , , - @ @ , 6 4 8 8 5 4 4 4 4 4 4 4 4 5 4 , ; > ",
"o @ * A.F.o.G I c.F.c.T T o.F.c.) I G 9 q , X O B G.c.c.F.o.G T w.B.B.B.F.&.I P 0 0 4 @   5 G.w.! G ) F.F.o.T ! w.F.w.I ! e 0 8 %   ; G.c.c.c.A.! N ) B.B.B.B.c.T T a 8 q ; . # [ F.2.G I &.F.c.! T [ F.F.o.I G 0 0 4 @   q G.c.c.F.2.G P 1.B.B.B.F.2.I T q 8 8 ",
"o @ * o.w.! n n o.2.o.n r ! 2.&.I n e 8 8 : X O s c.&.&.w.! p n [ 2.&.&.&.! y p 8 8 4 @   4 w.o.G n I &.&.! r n o.&.[ n n 0 8 5 #   - 2.&.&.&.&.G n T &.&.&.&.&.n n e 5 8 ;   # T w.[ n n [ 2.&.G r T 2.&.T n p 8 8 2 O   0 c.&.&.2.[ n n ) 2.&.&.&.) y n 0 5 5 ",
"# * ; G T e 9 0 8 5 8 n n e 0 0 5 5 4 2 4 : * % n c.&.I I e 9 0 7 5 7 0 0 e n p 4 2 2 * # 5 ! G q 9 9 5 5 q n n q 0 0 5 5 2 2 2 - # , w.&.) I G q 0 8 5 5 8 0 0 p G q 2 4 : * * e T p 9 0 8 5 7 n n e 0 0 8 3 5 2 4 , * # q c.&.I I e 9 q 8 5 5 0 0 q p G 8 2 4 ",
"* * > n n q 8 8 2 , 2 n P e 8 8 2 < < < 2 : * - T c.&.n n q 8 8 2 < 2 8 8 q G n 4 < < - * 5 P n 9 8 6 < , 0 P n 9 8 6 < < < < 2 ; * 2 w.w.! n n 9 8 5 < < 5 8 8 p P q < 2 : * - e G e 8 8 4 < < a N e 8 8 4 < < < 2 , - * e c.&.G n e 8 8 2 < < 8 8 0 C G 7 < 2 ",
"# % - e a 0 5 8 4 2 5 e e 0 8 8 2 < 2 < 2 : * % n 2.! e p 0 5 8 4 2 4 8 8 0 p a 5 2 , * $ 4 p e 8 5 6 2 2 8 a e 8 8 5 < 2 2 2 2 - # , o.o.G e e 8 8 6 2 2 5 8 8 e p q < 2 ; & * q p q 8 8 5 2 2 q a q 8 8 4 < 2 2 2 , * # q w.[ a a q 5 8 5 2 4 5 8 0 a p 5 < 2 ",
"o @ # 8 8 5 < < 6 8 5 < < 2 < < < < 2 < 2 - O @ 0 G e 8 8 5 < < 5 8 5 < < 5 9 8 2 2 , @ X : 9 8 2 < 2 8 8 5 < 2 2 < < < 2 < < 2 #   - n n q 8 8 2 < 2 8 8 4 < 2 8 9 6 < 2 * o @ 5 9 5 < < 5 8 8 2 < 2 2 < 2 < < < 2 : @ O 5 I r 8 8 5 < < 5 8 8 2 < 2 8 8 4 < 2 ",
"o @ # 9 0 6 2 2 8 0 8 2 4 2 2 2 2 2 2 2 4 ; o @ q T n 0 0 6 2 2 8 0 8 2 2 6 0 8 4 4 , @ . , 0 8 4 2 5 8 0 6 2 4 2 2 2 2 2 2 4 4 #   - T T e 8 0 4 2 4 0 0 5 2 2 8 0 5 2 4 * o @ 5 0 8 2 2 5 0 8 4 2 2 2 2 2 2 2 2 4 : @   5 ! N q 0 8 2 2 8 0 8 4 2 4 0 8 4 2 4 ",
"@ @ # , , : - - ; : ; - - ; : : : : : - - % @ @ 1 5 2 : : ; - - ; > : : : , , , ; - * @ @ * 1 , ; - ; : : - - - : : : : : ; - - # @ % 4 4 1 ; ; - - - ; > : : : , 1 , - - # o @ , , , - - ; : ; - - ; : : : : : - - * @ @ , 5 4 , ; ; - - ; > ; : : , , 1 ; - - ",
"o @ @ * * #   X X X X o   # * * * * * O o o o @ $ * %     o o o   o @ * * * * * @ o o @ @ # * * @   X X   X   O * * * * * # X o o o @ * * #   o o o X o   # * * * * #   o @ @ @ * * $ o X X X X o   # * * * * * @ o o o o # * * O   o o o   o O * * * * * @ X o ",
"@ @ @ * - # @ @ @ @ @ @ o # - * - - % @ @ @ @ O % - * O @ @ @ @ @ @ # * * * * - # @ @ @ o # - * @ @ @ @ @ @ @ @ * - * - - # @ @ @ @ # - - # O @ @ @ @ @ @ % - * - - % @ @ @ @ @ * - % @ @ @ @ @ @ o # - - - - * @ @ @ @ O % - - @ @ @ @ @ @ @ @ * - * * - # @ @ ",
"q B n T T a q q 5 5 2 @   1 [ T T T T n N e q q n T n q q 8 4 5 - % ; T T T T T q 0 q N n G T T q q 0 4 5 ; o @ e ! T T T n n N q q e T T e q q 5 5 2 * # 5 [ T T T n q q s T G T T n q q 5 4 4 #   ; R T T T T n N a q q n T G q q 9 2 5 ; % * s T T T T e q q ",
"M A.w.c.B.&.I P 0 0 6 @   4 G.w.c.c.c.c.B.o.G G w.B.w.I ! e 8 8 ; * , c.c.c.c.c.! n T c.c.c.c.c.) I p 9 0 ;   @ T B.c.c.c.c.c.c.! G ! c.c._ I P 0 0 4 * * q G.c.c.c.&.G N o.c.c.c.B.1.I P q 9 8 #   > F.c.c.c.c.c.B.&.G G o.B.c.Y I p 8 8 , * ; o.c.c.c.c.) G N ",
"i o.! T T n e e 8 5 4 # O 4 w.[ T T T T T G n n T ! T e e 0 5 5 - # : o.o.&.&.2.n e p [ [ ! T T r e q 5 8 ; @ # n &.[ T T T T T n r G ! ! n e q 8 5 4 % # 9 w.) &.2.[ e e T o.[ T T G e e 0 6 6 % o : 2.o.! T T T T G n n T ! T e e 0 5 8 ; % - T &.&.&.2.I e a ",
"0 G e 2 < 5 8 8 2 < , - * 4 P p 9 8 6 2 < 9 n n 9 8 8 2 < < < 2 #   % n y ) &.2.q 8 0 p n 9 < 2 8 8 6 < 2 : * - e G e 8 8 4 < 2 e n e 8 8 5 < < < 2 : @   2 I y &.2.` 8 8 q n p 3 < 2 8 8 4 < 2 - * , G p 0 5 8 2 < 5 n n q 8 8 2 < < < 2 % X # e G I &.h.e 8 8 ",
"0 T a 2 < 4 8 8 2 2 < - * 4 P n 0 8 8 2 < 0 P n 9 8 5 < < < 2 2 #   * B G [ c.w.q 8 0 N P 9 < < 8 8 5 2 2 : * - e P e 8 8 4 < 2 a P r 8 8 4 < < 2 2 : @   4 ! G 1.A.! 8 8 q P n 2 < 2 8 8 4 < 2 - * 1 P N q 8 8 2 < 5 N P 0 8 8 2 < 2 2 2 % X # a I ! w.A.e 8 8 ",
"4 0 8 5 5 4 4 4 2 2 , # # , e 0 6 4 4 2 < 6 q 0 e q 0 5 5 2 2 2 #   % 8 8 q n a 5 4 5 8 9 5 5 5 5 4 4 2 2 ; # # 8 q 0 4 4 2 2 2 0 q e e q 8 4 5 2 2 : @ o , 0 8 e p 0 4 4 8 9 8 5 5 5 4 4 2 2 2 % @ ; q q 8 4 4 2 < 5 q 0 e e q 5 5 4 < 2 % o # 5 8 q s p 8 4 4 ",
": < 2 8 8 5 < < 2 2 , @   ; 9 8 2 < < 2 < 4 8 8 p P p 8 8 5 < 2 # o # 2 , 4 8 8 2 < < < < 5 8 8 2 < 2 2 2 - . @ 4 9 6 < < 2 2 2 5 8 0 G P q 8 8 2 2 , @ o - 2 , 6 8 5 < < < < < 8 8 5 < < 2 2 2 # . * 9 8 4 < < 2 2 4 8 5 e P p 0 8 6 < 2 = o # , , 2 5 8 2 < 2 ",
": 2 2 5 8 5 2 2 2 2 , @ . ; 8 8 4 2 2 2 < 4 8 8 a n e 8 8 5 < 2 # o # 2 < 4 8 8 4 2 2 2 2 4 8 8 2 2 2 2 2 - o @ 4 8 5 2 2 2 2 2 5 8 0 p p 0 8 8 2 2 : @ o ; 4 < 8 8 6 2 2 2 2 2 5 8 6 2 2 2 2 2 # . * 8 8 4 2 2 2 < 4 8 8 q p p 9 8 6 < 2 % o # 1 2 4 8 8 4 2 2 ",
"@ # # # % # # # * - * @ @ # % % - ; - # # # # # ; ; ; ; ; * # # @ @ # - - * # # # # # # # # # # # # % - ; % @ @ # % % - - * # # # # % ; ; ; ; ; # # # @ @ * - - % # # # # # # # % % # # # * - - @ @ # % # * ; - # # # # # - ; ; ; ; - # # # @ @ * - * # # # # # ",
"o o o           # * $   X       # * % O   o o o # * * * * @   .     @ * * @         . @ @           o * * @         o * * #     o o @ * * * * * X         # * *       .   o @ @           @ * * o         # * * @     o o # * * * * #   .       & * #         . ",
"o @ # ; ; ; ; - : , , ; ; ; ; ; , , , * * # @ @ , 2 1 1 2 : - - ; ; ; , , : ; ; - - - @ @ * ; - ; - ; , , > - ; ; - ; , , ; % * # o # 2 1 1 1 1 - - - ; - ; , , ; ; - - - # @ @ - ; ; ; - > , , ; ; ; ; ; : , , * * % @ o ; 2 1 1 1 , - - ; ; - , , , ; ; - - - ",
"o @ * 2.c.2.2.h.T n T w.c.c.w.w.T G p 8 8 , O @ N A.w.w.w.[ n n 1.c.1.G G [ c.2.T T q @   6 A.2.2.h.2.n G o.c.w.w.c.&.G P q 8 8 %   ; A.w.w.w.w.T n T w.c.) G I 2.c.&.n T ,   # ' A.2.2.Z.) n I w.c.w.w.c.) G n 0 8 2 @   q F.w.w.w.o.n n o.c.w.I n ! c.c.T n B ",
"o O * 2.1.w.2.c.T n T &.2.w.w.w.T G p 8 0 :   O s c.&.&.w.! n n &.c.&.G G ) c.c.I T q @   6 F.&.2.h.&.I m ) w.2.w.w.&.I G q 8 8 #   - w.&.&.&.2.G n T c.c.) y I &.c.&.n T ,   @ T w.&.2.c.) n I &.2.2.w.c.) G C 9 8 2 O   0 c.&.&.w.o.n n o.c.w.I G ! w.c.! n B ",
"# # - T ! n e a 0 8 0 T T G e e 0 8 8 4 5 : # # n c.&.! ! r q q 0 0 q q q q a a 9 8 4 % # 5 o.T a a e 8 8 e T T r e e 9 8 5 4 4 - # , w.&.) ! T q q q 0 q q q q e a q 8 8 : # % n ! P e a 0 8 9 P T P e a 0 8 8 4 5 , # # q c.&.) ) n q q q 0 q q q q a a 0 8 8 ",
"* * > p p q 5 8 2 , 2 p p 0 6 8 2 < < < 2 : * - I c.o.y n q 8 8 < , 2 8 8 8 5 8 2 < , * * 5 P p 8 8 6 < , 9 n a 8 8 5 < < < < < ; * 2 w.w.! y n 9 8 5 < < 4 8 8 5 8 5 , 2 ; * - e G e 5 8 4 , < e n e 5 8 2 < < < 2 , - * q c.&.G n e 8 8 2 , < 5 8 8 5 8 2 , , ",
"* * ; s n q 8 8 2 < 4 p N q 8 8 2 2 2 2 2 : * * n w.[ n n q 8 8 2 2 4 8 8 8 8 8 2 2 , - % 4 P p 0 8 5 2 < 0 N p 0 8 8 2 2 2 2 2 - * , w.2.! r p 0 8 8 2 2 5 8 8 8 8 6 2 4 : * - e n e 8 8 5 < 2 a N e 8 8 4 2 2 2 2 , * % q w.o.G n q 8 9 5 2 2 8 8 8 8 8 4 2 2 ",
"% * ; 8 9 5 2 2 5 8 5 2 2 2 2 2 6 8 5 < 2 - @ @ 5 q 9 3 2 4 2 2 6 8 6 2 2 2 2 2 2 2 , - * 2 0 8 4 2 2 8 8 5 2 2 2 2 4 8 8 4 < 2 # @ = q 0 7 2 4 2 2 4 8 8 5 2 2 2 2 2 2 2 : * - 8 9 8 2 2 5 8 5 5 2 2 2 2 5 8 5 2 2 : @ @ 2 q 9 3 2 4 2 2 5 8 5 2 2 2 2 2 2 2 2 ",
"* * ; 8 0 6 < 2 8 0 8 2 2 2 2 2 8 0 8 2 2 - o @ 4 0 8 2 2 2 2 2 8 8 8 2 2 2 2 2 2 4 < - * 2 0 8 4 < 4 8 0 5 2 2 2 2 4 8 8 5 2 2 #   % 0 8 5 < 2 2 2 4 8 8 5 2 2 2 2 2 2 4 : * - 8 0 5 2 2 6 0 8 2 2 2 2 2 6 0 8 2 2 : @ X < 0 8 2 2 2 2 2 6 8 8 2 2 2 2 2 4 4 4 ",
"# % - 2 2 2 , , 2 2 2 : : : : : 2 4 4 , , * o @ , 4 1 : : : : : 2 5 4 , , , : : : : ; % % : 4 2 , , < 2 2 , : : : : , 4 4 2 , , # o % 4 4 , : : : : , 4 4 2 , , : : : : : - % % 1 4 2 , , 2 2 2 , : : : : 2 4 4 , , ; o @ ; 4 2 : : : : : 2 4 4 , , , : : : : : ",
"o @ @ @ @ # * * # @ @ O O o @ @ % * * * - % @ @ @ @ @ @ o @ @ @ % = * * * # @ @ @ @ @ @ @ @ @ @ * * % @ @ @ O O o @ # * * * * * # @ @ @ @ @ o @ @ o # * - * * * @ @ @ @ @ @ @ @ @ @ # * * # O @ O O @ o @ % * * * * * @ @ @ @ @ @ o @ @ @ # - * * * % @ @ @ @ @ ",
"  o       @ * * @ . o @ @ O     # * % % % @           o     .   * * * % * @           X         # * % o o @ @ @     @ * % % % %                 o   @ * * * * *             X       @ * * @   o @ @ @     # * % % % #           o     o   # * * % * #           ",
"1 6 4 8 8 8 8 8 2 , > @ O ; 8 8 8 8 8 q q 0 8 8 8 8 8 4 4 2 , , - * : q q 0 8 8 8 8 8 4 4 5 8 8 8 8 5 , 1 * @ @ 4 8 8 8 8 8 q q 8 8 8 8 8 5 4 4 , < , * * 2 e q 8 8 8 8 8 5 4 4 8 8 8 8 8 2 , , # X - 8 8 8 8 8 q q q 8 8 8 8 8 4 4 2 , < ; * - 0 q q 8 8 8 8 8 ",
"q ! T A.F.&.I P 0 0 5 @   4 G.c.! G T A.c.B.B.B.B.F.c.Y T e 9 0 ; % , F.c.c.A.A.c.B.w.T T o.F.B.) Y p 9 q >   @ R F.w.I P 2.A.c.B.B.B.B.F.&.I P 0 0 5 * % q G.c.A.A.A.c.F.o.T ! c.F.w.I ! e 0 8 #   , F.B.[ G T c.c.c.B.B.B.F.c.) ! p 9 0 , % ; &.B.c.A.A.c.c.A.",
"0 G n [ &.T y p 9 8 4 #   4 w.o.G a n 2.&.&.o.o.o.o.[ y p 0 8 8 ; % , 2.&.&.[ [ o.&.o.n r ! &.o.G n e 8 8 ; X @ n w.[ n a [ h.&.&.&.&.o.o.T y p 8 8 4 * % 0 w.o.o.[ [ o.&.! y n o.&.) y p 0 8 5 #   ; 2.o.T a n &.f.&.o.&.o.o.[ n n q 8 8 : * - ) &.&.[ o.o.&.o.",
"q G r 0 0 8 2 2 2 2 < * % 4 ! G q 8 q &.c.n 8 0 5 3 5 9 0 5 2 4 % o - P P e 9 0 p G G n n e 9 0 5 2 2 2 2 : * * e T r 9 8 n c.&.0 0 8 5 3 8 0 9 2 4 , @ O 5 ! p 0 9 0 n G n n n 0 0 8 2 2 2 2 2 - * , T G q 8 9 [ c.T 8 0 5 3 5 9 0 8 2 4 - @ # a P e 9 9 e P N ",
"q T n 8 8 5 < < 2 2 < - * 4 T n 0 8 q 2.c.n 5 8 2 < 2 8 8 5 < 2 #   % n n q 8 8 a n n n P q 8 8 2 < < 2 2 : * - e P e 8 8 n A.2.0 8 5 < < 5 8 8 2 2 : @   4 P p 9 8 0 n p n N n 9 8 6 < < 2 2 2 - * , P n q 8 9 2.c.T 8 8 2 < 2 8 8 6 < 2 %   # e P e 8 8 e n n ",
"5 e 0 6 5 5 4 4 2 2 < - * 2 a e 8 5 8 T R q 5 5 2 2 2 5 6 4 2 2 # . % e e 0 6 6 q e e q q 0 6 6 4 4 2 < 2 : * - q a q 6 5 e R T 8 5 5 2 2 5 5 5 2 2 : @   2 p q 8 5 8 a e q q q 8 6 5 4 4 2 2 2 - * , a e 0 5 5 N R a 5 5 2 2 2 6 5 4 < 2 * . # q e 0 5 6 q e e ",
": < < < < 4 8 8 2 < < - * , 8 8 2 < 2 5 8 4 < < < 2 2 2 < 2 2 2 # . % 8 8 4 < 2 6 8 5 < < < < < 8 8 6 < 2 : * - 5 8 5 < 2 4 8 8 2 < < < < < < < < 2 : @ o , 9 8 2 < 2 8 8 2 < < < < 2 8 8 4 < 2 - * : 8 8 4 < 2 5 8 5 < < < 2 < < < < 2 2 * o # 5 8 5 < < 5 8 8 ",
", 4 4 4 2 5 8 8 4 2 2 - * 2 0 8 4 2 4 8 0 6 2 4 2 2 2 2 2 2 2 2 # . % 0 0 6 2 2 8 0 8 2 4 4 2 2 8 0 8 2 4 : * - 5 0 8 2 2 6 0 0 4 2 4 2 2 2 2 2 2 2 , @ . , 0 8 4 2 4 8 0 6 2 4 2 2 5 0 8 5 2 2 - * , 0 0 4 2 4 8 0 8 2 4 4 2 2 2 2 2 2 4 * o # 8 0 5 2 2 5 0 8 ",
"% * * * % ; , , - % * # # * - - ; : ; - - - = % * * - ; ; ; ; ; # @ # - - ; ; ; ; - - = = * * * : , : % * % # # - - ; ; ; ; - - - = * * % - ; ; ; ; - @ @ * - - ; : ; - - - = * * % - , , - % * # # % - - ; : ; - - - = = * * - ; ; ; ; ; # o @ - - ; : ; ; - - ",
"  o @ o   @ * * @   o o o o     % * %   . o O O o   @ * * * * * @ @ O     # * * @   . O O o o X % * %   . o o o o   @ * * #   o O O @ o   # * * * * % @ @       * * #   . X O O o   @ * * @   o o o o .   # * * o . o O O o . o * * * * * # @ O     @ * * @   o ",
"o @ @ # # % - - # # # # # # # # - - * # # @ @ @ # # # - - - - - # # # # # % - - # # @ @ @ @ # # - ; - # # # # # # # # - - % @ # @ @ @ # # * ; - - - * # # # # # - - * # # @ @ @ # # # - - % # # # # # # # * - - # # @ @ @ # # # - - - - - % # # # # % - - % @ @ ",
"o @ * R [ N e e T ' T e e n ' T n e q 5 5 > @ @ e [ R [ [ N e e T ! ! T ' n e a 5 5 4 @   4 2.T n e n ' R n e e T ' T e a 0 5 6 #   ; [ ' [ [ ' a e n ) ! ! R T n a q 5 5 - o # s [ T e e T [ T e e n ' ' n e e 5 5 1 @ O 8 2.R [ [ T e e T ) ! ! ' T e a 8 6 6 ",
"o O * w.w.o.G I w.B.w.G G o.c.c.) I p 9 0 :   O n c.w.c.c.o.n n 1.c.c.c.B.[ n n 8 8 4 @   5 F.w.T n ) B.c.o.G G w.c.&.I P e 8 8 #   ; c.1.w.c.w.I n T B.c.c.B.c.I n a 8 0 ;   @ R B.o.G G &.B.c.T G ! B.c.) I G 9 0 2 O   0 F.&.c.c.o.G n &.B.c.c.B.&.n G 0 8 8 ",
"@ # * [ o.G e e n n n n n G T T e q 0 5 5 : # # n c.&.) o.G e e n n n P T G n p 5 6 2 # @ 5 2.[ r e e n n n n n T T n q q 8 5 6 % @ : w.&.o.) [ e e a n n n T P n n q 6 8 ; @ # n o.T e e n n n n n G T T e q 0 5 5 < # @ q c.&.) o.T e e p n n P T G n G 8 6 6 ",
"% * ; n n q 8 8 2 < 2 n n q 5 8 2 < < < 2 : * - G c.o.y n q 8 8 2 < 2 5 5 0 G p 4 < < * * 5 I n 9 8 5 < < 9 N n 9 5 5 < < < 2 2 ; * 2 w.&.! y n 9 8 5 < < 4 8 8 r G q , 2 : * - e G e 8 8 2 < 2 e n e 7 8 2 < < < 2 , - % q c.&.u n e 8 8 2 < < 6 7 0 p G 6 , 2 ",
"* * ; G P q 8 8 2 < 4 n N e 8 8 2 < 2 2 2 : * * P c.o.n P q 8 8 2 < 2 8 8 q G n 5 2 < * * 5 T n 0 8 5 < < 0 P N 0 8 5 < 2 2 2 2 ; * 1 w.w.! n n 9 8 5 < < 5 0 0 p P q < 2 : * - e P a 8 8 4 < 2 a P a 8 8 4 < 2 2 2 , * * q c.&.G G e 8 0 4 < 2 8 8 0 n P 8 < 2 ",
"@ # * 0 0 8 4 4 5 5 5 8 8 5 4 4 2 2 2 < 2 ; # # q ! n q q 8 2 4 5 6 5 4 2 8 0 0 4 2 , # @ 2 q 0 5 4 4 5 5 5 8 8 5 4 2 < 2 2 2 2 % @ ; T ! e 0 0 5 4 4 6 6 5 4 4 0 0 9 < 2 - @ # 9 0 9 4 4 5 6 5 8 8 5 4 4 2 < 2 2 2 : # @ 8 ) G q 0 9 2 4 5 6 5 4 4 5 0 0 5 < 2 ",
"o @ # 8 8 5 < < 5 8 8 < < < < < 2 2 2 2 4 - X @ q T a 8 8 5 < < 8 8 8 2 < 5 8 8 4 2 , @   : 0 8 2 < 2 8 0 5 < < < < < 2 2 2 2 2 #   - n n q 8 8 2 < 4 8 8 5 < < 8 8 6 2 4 * . @ 5 9 6 < < 5 8 8 2 < < < < 2 2 2 2 4 : @   5 T n 9 8 5 2 < 6 0 8 2 < 4 8 8 4 2 2 ",
"o @ # 8 8 4 , < 5 5 5 , < < 2 2 2 < < , 2 - @ @ 8 n e 5 5 4 , , 5 5 5 2 < 4 8 5 2 , > @ o > 8 5 2 , 2 5 5 4 , < 2 2 2 < < < < , #   - s a q 5 5 2 , 2 5 5 4 < 2 5 8 6 , 1 * o @ 4 8 6 , < 4 5 6 2 < < 2 2 2 < 2 < 2 ; @ O 4 n e 8 5 4 < , 4 5 6 2 < 4 8 8 4 , , ",
"@ @ # - - * # # # # # @ @ % - - - - - # # @ @ @ * ; - # # # # # # # # - - - - - # # # @ @ % - - # # # # # # @ # - - - - - % # # @ @ # - ; * # # # # # # # % - - - - * # # @ @ @ * - * # # # # # @ @ # - - - - - # # @ @ @ * ; - # # # # # # # # - - - - ; % @ # ",
"      % * @           o o # * * * * #     . o   # * #     . .   o o @ % * % * * X         @ * *           o o o % * * * * @     .   o * * @     . .   o o # * * % * #   . .     # * #           @ o @ * * * * %       o   # * %     . .   X o @ % * * * * @     ",
"; , , 2 4 , ; > - - - @ o - 4 4 4 4 2 , , , : : 2 4 2 : : ; - - % # * 4 4 4 4 4 , ; > , , 2 4 4 : ; ; - - # o @ 2 4 4 4 4 2 , , : ; , 2 4 , : : - - - # # ; 4 2 4 4 2 : ; , , , 2 4 2 ; > - - - # o % 4 4 4 4 2 , , , : : 2 4 2 : : ; - - % # # 2 4 4 4 4 , ; ; ",
"N F.w.w.c.o.I P 0 0 5 #   4 G.c.c.c.c.c.c.o.G T w.c.w.I T e 8 8 ; * , A.c.c.c.c.! N T c.B.B.c.c.! T p 9 0 :   @ T F.c.c.c.c.c.c.T G ! c.c.[ I P 0 0 5 * % q G.w.c.c.2.P N o.B.B.c.c.&.I T q 9 8 #   : F.c.c.c.c.c.c.2.T T o.B.c.I T p 9 0 , * ; &.c.c.c.c.) n N ",
"a 2.o.2.c.) y n 0 8 4 @   4 A.&.2.2.w.w.c.) r n o.w.&.G G q 8 8 ; * , w.&.&.&.&.G p P &.&.2.w.w.I n e 8 0 ;   @ N w.&.2.2.w.w.w.G r T w.2.) n p 9 8 4 * * q c.&.&.&.o.n p ) 2.&.w.w.o.n n 0 8 5 #   ; c.&.2.2.2.2.w.o.n y o.w.&.I G e 8 8 : * ; [ w.&.&.&.T p n ",
"q ! n 9 9 0 q 0 5 4 2 * # 4 ! P e q q 9 8 e n n e q q 7 7 5 2 4 * @ - ! I ) w.2.e 0 q P T e 9 9 0 q 0 4 4 : % % e ! G q q 0 9 9 p n r q q 9 7 5 4 4 , # @ 5 ) I &.2.) q 0 p T P 9 9 9 0 0 6 4 4 * # , ! T r q q 9 8 q n n e q q 8 7 5 2 4 - @ # n ) ) &.2.s 0 0 ",
"0 P e < < 4 8 8 2 < , - * 5 P p 9 8 6 < , 8 N n 9 5 6 < < < < 2 #   * n y ) w.2.q 5 0 p N 9 , < 5 8 5 < 2 : * - e G e 7 8 2 < < e N e 7 8 4 < < < 2 : @   4 T G &.c.' 8 8 q n p 2 , 2 8 8 4 < < - * 2 G p 0 8 5 < , 5 N n q 5 5 < < < < 2 %   # e G ! 1.c.e 8 8 ",
"8 n q 2 2 5 8 8 2 2 < * * 2 P a 0 8 5 2 < 8 p p 0 9 8 2 2 2 2 2 # X * s e T o.[ 0 8 0 a p 9 < 2 5 8 6 < 2 : * * q n e 8 8 4 2 2 e p r 9 0 5 2 2 2 2 : @ o 4 n e [ 2.P 8 8 q a e 3 2 4 8 8 4 2 2 - * , n p 0 8 8 2 < 5 p p q 9 8 2 2 2 2 2 % X # e a G o.@.q 8 8 ",
", 2 2 5 8 5 2 2 2 2 , @ o : 0 8 4 2 2 2 < 4 8 8 e p e 8 8 4 < 2 # o # 2 2 4 8 9 2 < 2 2 2 5 8 8 2 < 2 < 2 - o @ 5 9 8 2 2 2 2 2 8 8 0 p p 0 5 8 2 2 : @ o ; 4 2 8 0 5 2 2 2 2 2 8 8 5 < 2 2 2 2 # o - 9 8 4 2 2 2 < 4 8 8 e p a 8 8 5 < 2 % o # 2 2 4 8 9 3 < 2 ",
", 4 4 8 0 5 2 2 2 2 , @ . : 0 8 4 2 2 2 2 6 0 9 p P p 0 0 6 2 2 # o # 2 < 6 0 0 4 2 2 2 2 6 0 0 4 2 2 2 4 - o @ 5 0 8 2 2 2 2 2 8 0 0 P P e 9 8 4 4 , @ o ; 4 2 8 0 8 2 2 2 2 2 8 0 8 2 2 2 2 2 # . * 0 0 4 2 2 2 2 5 0 8 a P G 0 0 8 2 4 - o # 2 2 4 0 0 5 2 4 ",
"- ; > , , , ; ; : , ; @ o * 1 , , , , ; ; : , , 5 8 5 2 2 , ; ; # o # , : , , , ; ; ; ; : , , , : ; : , , * o @ , , , , , : ; ; , , 2 8 8 4 2 2 : ; - @ o * , , , , , ; ; ; ; : , , , ; ; : , , @ o % 1 , , , , ; ; > , , 4 8 8 2 2 < ; ; # o @ > , , , , : ; ; ",
"  @ o o o o o o * * * @ @ @ o @ % * * @ @ X o O % * * * * # O @ @ @ # * * #   o o o o O O @ o o o o @ * * # @ @ @ o @ * * # O @ X   @ * * * * * @ o @ @ @ % * * @ X o o o o O O o o o o o $ * * # @ @ @ X # * * @ @ X o   # * * * * % O o @ @ @ * * $   o o o o ",
"o @ @           # * % .         # * % O O @ @ @ % * * * * # O @     o * * #   X @ @ @ @ @ @   X     @ * * @         @ * * # O O @ o # * * * * * O O o     @ * * @   X O X @ @ @ X   X     # * * o         # * * @ O @ @ o # * * * * # O @ X     * * #   X X @ o ",
"o @ % q q q q q 0 9 q e q q q q 0 0 8 2 4 - @ @ 8 n e e a q 8 8 q e q 0 0 q e q 8 8 4 @   1 i q q q q 0 9 q e q q q q 9 0 6 1 1 #   - s e a e a 9 5 8 e q q 0 0 q q q 8 8 ; O # 8 e q q q q 9 0 q q q q q q 0 8 2 4 : @   4 n e e a e 8 8 q e q 0 0 q e q 8 8 7 ",
"o @ * A.B.c.A.A.) I ) c.c.c.B.B.) I C 9 0 ,   O N G.c.c.A.o.G T c.F.c.I I &.B.B.! ) q @   5 G.c.c.A.c.I I &.B.c.c.F.c.I ! e 8 8 %   ; A.c.c.c.c.! G ) B.F._ I Y c.F.w.I [ ,   # [ G.c.A.A.[ I ! c.B.c.B.F._ I G 0 0 4 O   q G.c.c.c.2.G P 1.F.B.Y I ) B.F.) I T ",
"@ @ * [ o.[ [ [ n e n o.o.o.[ [ n r e 8 8 : @ @ n c.&.&.&.T e s T [ ! y y T [ [ s s 8 @   4 w.o.[ [ ' e e T &.&.[ [ ! r p 0 5 5 %   ; w.&.&.&.o.n a n [ [ I r n ) o.! e n , X # B 2.[ [ [ n e s [ o.o.[ [ G e e 8 8 2 @ O 0 c.&.&.&.! e a T [ ) n r G [ o.n e i ",
"% * ; n G e 8 8 4 2 5 p n e 8 8 5 2 2 2 2 : * * G c.o.u G q 8 8 2 2 2 8 8 8 8 9 2 2 , * * 5 P p 9 8 8 2 2 0 n p 9 8 8 2 2 2 2 2 - % < w.&.! y n 9 8 8 2 2 5 8 8 8 0 8 2 2 ; * - e P e 8 8 5 2 2 e n e 8 8 5 2 2 2 2 , * % q c.&.I G e 8 8 5 2 2 8 8 8 8 0 5 2 2 ",
"% * ; n P q 8 8 2 < 2 n N e 8 8 2 < < 2 2 : * - T F.&.G P q 8 8 2 < 2 8 8 8 8 8 2 2 , - * 5 P p 0 8 5 < < 0 P n 0 8 5 < < 2 2 2 ; * 2 c.w.) G N 0 9 5 < < 5 0 8 8 8 6 < 2 : * - e P e 8 8 4 < 2 p P e 8 8 4 < < 2 2 , - * e F.2.I G a 8 0 4 < 2 8 8 8 8 8 4 < 2 ",
"% * ; q e 0 5 5 5 4 5 0 0 9 5 5 5 4 4 < 2 : # # q ! n q 0 8 5 5 5 4 5 5 5 5 5 5 2 2 , - * 4 e q 8 5 5 4 4 8 0 0 8 5 5 4 4 2 2 2 * # : T P e 0 0 7 5 5 4 4 5 5 5 5 5 4 2 2 : * - q e 0 5 5 5 4 5 0 0 0 5 5 5 4 4 2 2 , % # 8 ! n q 0 0 5 5 5 4 4 5 5 5 5 6 4 2 2 ",
"% * ; 5 8 4 < < 6 8 8 < < < < < 5 8 5 < 2 - X O 2 8 5 < < < < < 5 8 8 < < < < < 2 2 , - * 1 8 8 2 < 2 8 8 5 < < < < 2 8 8 4 < 2 #   % 8 8 2 < < < < 2 8 8 4 < < < < < 2 2 : * - 5 8 5 < < 5 8 8 2 < < < < 5 8 8 2 2 : O O , 8 7 2 < < < < 5 8 8 2 < < < < < 2 2 ",
"* * ; 8 8 6 2 2 8 8 8 2 2 2 2 2 8 8 8 2 2 - o @ 4 0 8 2 2 2 2 2 8 8 8 2 2 2 2 2 2 4 , - * 2 0 8 4 2 4 8 8 6 2 2 2 2 4 8 8 5 2 2 # . * 8 8 6 2 4 2 2 4 8 8 5 2 2 2 2 2 2 4 : * - 8 0 5 2 2 6 8 8 4 2 2 2 2 6 8 8 2 2 : o o 1 0 8 4 2 2 2 2 5 8 8 2 2 2 2 2 2 2 2 ",
"@ # # * * - ; ; - * * % # % % % ; : > ; ; * @ @ * * * % % % % % ; : : ; ; - % % % % % # # % * * ; ; - * * % # # % # * : > ; ; ; # @ # * * * # % % # * : : ; ; ; % % % % % # # # * * - ; ; - * * % # % % # - : ; ; ; * @ @ % * * % % % % # - : : ; ; - % % % % % ",
". o o     @ * * @   . O O o .   # * % % * # X X       o   o o . % * * * * @   X       o o o     % * #   . o O @ o   @ * * % * * @ X       . . . o . @ * * * * * o         o o o .   @ * * @   . @ O o .   # * % % * # O @       .   o o . # * * * * #   o     o ",
"# % % % % - ; ; % # # @ @ # % % ; ; ; : : - % % % % % % % # # # * * - : : - % % % % % % % % % % ; ; - # # # @ @ % % % ; ; ; : ; * % % % % % % % # # % * * ; : ; * % % % % % % % % % * ; ; * # # @ @ # % % - ; ; : : - % % % % % % % # # # * * - : : - % % % % % ",
"8 n n [ 2.T y n 9 8 4 @   4 C.[ G n N 2.2.&.o.o.o.&.[ n n q 8 8 ; % , 2.&.&.[ [ [ &.[ n n T 2.[ G n e 8 8 ; X @ M 2.[ n n R 2.&.o.o.o.o.2.T n a 8 8 4 * % 0 w.o.[ [ [ o.&.T p n [ 2.[ y n 0 5 5 #   ; 2.o.T n n [ 2.&.o.o.o.o.[ n n q 7 8 , % - ! 2.o.[ [ o.2.2.",
"q G P h.c.o.I G 0 8 4 @   4 F.w.T n T 2.f.c.c.c.c.c.w.I G e 8 8 ; * , w.w.w.c.c.w.w.o.G G o.c.c.! G p 8 0 ;   @ B B.o.G n [ c.f.c.c.c.c.c.) G n 0 0 4 * * q B.1.c.h.c.w.w.! n G w.c.&.I G q 8 7 #   ; A.w.! n N 2.f.c.c.c.c.c.c.I G e 8 0 , * ; o.c.w.c.c.w.w.2.",
"q G n n n e 9 0 5 5 4 # @ 4 o.! e q e 2.g.) n n e e e e e 9 4 6 - # ; [ ! T n n T ! ! n n n n n q 0 9 5 6 : # # a o.T e q T h.&.P n n e e e e q 6 6 2 % # 8 o.! n n n ! ! P n n n n a 0 0 8 5 4 % @ , [ [ n q e [ c.[ n n p e e e e 0 4 6 ; # * P o.T n n T ! ' ",
"0 G r 8 8 4 < < < < < - * 4 G n 9 7 0 2.c.a 5 8 < < 2 8 8 4 < 2 #   % n p 0 5 8 e p p n n q 5 8 2 < < < 2 : * - e G e 8 7 n c.&.8 5 5 < < 4 8 8 2 2 : @   2 P p 8 5 9 p p n n n 8 8 5 < < < < < - * , G n q 7 9 [ c.T 6 8 2 < < 8 8 5 < 2 %   # e G q 5 5 q p a ",
"0 P p 9 8 5 < 2 2 2 < - % 4 P p 0 8 q 2.c.n 8 8 2 2 4 8 8 5 < 2 #   * n N q 8 8 a n p n N q 8 8 2 < 2 2 2 : * * e P a 9 8 N A.2.0 8 8 2 2 5 8 8 2 2 : @   4 P p 0 8 0 N p n N n 0 8 5 < 2 2 2 2 - % , P n q 8 9 2.A.T 8 9 5 2 2 8 8 6 < 2 * o # e P e 8 8 e n n ",
"< 5 5 4 2 5 5 6 2 2 < - * 2 0 0 5 2 4 q q 8 2 2 2 2 2 4 2 2 < 2 # . % 0 0 5 2 4 8 0 9 5 5 5 2 2 6 5 5 < 2 : * - 8 0 8 4 2 8 q q 5 2 2 2 2 2 4 2 2 2 : @ o , 0 0 4 2 5 0 0 8 5 5 4 2 4 5 5 4 < 2 - * , 0 0 5 2 2 q q 0 2 2 2 2 2 2 2 2 < 2 * o # 8 0 8 2 4 8 0 0 ",
": 2 < 2 < 5 8 8 4 2 < - * 1 0 8 4 < 4 8 9 5 < 2 2 2 2 2 2 2 2 2 # . % 9 8 5 < 2 5 9 8 < < 2 2 2 8 0 8 2 2 : * - 5 0 5 < < 4 8 8 4 2 2 2 2 2 2 2 2 2 : @ o , 0 8 2 < 4 8 9 5 < 2 2 2 4 8 8 5 2 2 - * : 9 8 4 < 2 5 8 6 2 2 2 2 2 2 2 2 2 2 * o # 7 9 6 < < 6 8 8 ",
"> , , , , 2 5 6 2 , , * % , 5 4 2 , 2 4 6 2 , , , , , < < < < , # . # 4 6 4 , < 4 6 4 , , , , , 5 5 4 , , ; % * 4 6 4 , , 4 6 4 , , , , , , < < , 2 ; o o : 5 4 2 , 2 4 6 2 , , , , 2 5 5 2 , , - % ; 5 6 4 , < 4 6 4 , , , , , < < < , 2 * . # 4 6 4 , , 4 6 6 ",
"@ @ @ @ @ # - - # @ @ @ @ @ @ @ * - * @ @ @ + @ @ @ # * * * * * # @ @ # @ % - * # @ @ + + @ @ @ * - * @ @ @ @ @ @ @ # - - # @ @ @ + @ @ @ % - - * - * @ @ @ @ # * - * @ @ @ + @ @ @ # * - # @ @ @ @ # # @ % - * # @ @ + + @ @ # * - - * - # @ @ @ @ # - - # @ @ ",
"o @ @     @ * * O     .         # * $ . . o @ @     X % % % % % o         @ * * @ . o @ @ X     # * #       .       X * * @   . @ @ @     # * % % % #           % * # . . o @ @     @ * * @     X X       # * * o . o @ @       % % % % % @         @ * * @ . o ",
"o @ # 4 4 2 4 2 2 4 2 1 , 2 4 4 2 4 2 ; > * @ @ , 4 4 5 5 5 2 2 4 4 4 4 4 2 2 4 , ; - @ @ ; 4 2 2 2 2 2 4 2 , 1 2 4 2 2 4 , ; ; # @ % 4 2 5 8 5 4 2 4 4 4 4 4 2 2 4 2 ; > % @ @ 1 4 2 4 2 2 2 4 1 , 1 4 2 2 2 4 : ; * @ @ : 4 2 5 8 5 2 2 4 4 4 4 4 2 2 4 , ; ; ",
"o @ * A.F.o.G I c.F.w.T T o.F.c.) I G 9 q , X O B G.c.c.A.o.G T w.B.B.B.F.o.I P 0 0 4 @   5 G.w.! G ) F.F.o.T T w.F.w.I ! e 0 8 %   ; A.c.c.c.c.T N ) B.B.B.B.c.! T a 8 q ;   # [ F.2.G I &.F.c.! T [ A.F._ I G 0 0 4 @   q G.c.c.A.2.G N &.B.B.B.F.&.I T q 8 8 ",
"o O * o.w.! n n o.2.o.n r ! 2.&.I n p 8 8 :   O s c.&.&.2.! n n o.2.&.&.1.! y p 8 8 4 @   6 c.o.G n I 2.2.! r n o.2.o.G G 0 8 5 #   - 2.&.&.&.2.G n T &.&.&.&.&.G n e 5 8 ;   @ T w.[ n n [ w.&.G r T 2.&.! n p 9 8 2 O   8 c.&.&.&.[ n n [ 2.&.&.1.[ n G 0 5 7 ",
"# * ; G T e 9 0 8 5 9 n n e 0 q 7 5 5 2 4 : % % n c.&.I T e 9 q 8 5 8 q 0 e G p 5 4 < * # 5 ! G q 0 9 7 5 q n n q q 0 5 5 4 2 2 - # , w.&.) I I q 0 9 7 5 9 q 0 p G q 2 4 : % * e ! n 0 0 8 5 7 p n e q q 8 5 5 2 4 , * # q c.&.I I r 9 q 8 5 7 0 0 e n G 8 2 4 ",
"* * > n n q 8 8 2 , 2 n N q 8 8 2 < < < 2 : * - T c.&.n n q 8 8 2 < 2 8 8 q C p 4 < < - * 5 T n 9 8 6 < , 9 P n 9 8 5 < < < 2 2 ; * 2 w.w.) y n 9 8 5 < < 4 8 8 p G q < 2 : * - e G e 8 8 2 , < a P e 8 8 4 < < 2 2 , - * q c.&.G n e 8 8 2 , < 5 8 0 p G 7 < 2 ",
"# * - r p 0 5 8 4 2 5 e a 0 8 8 2 2 2 2 2 : * % n w.[ e p 0 7 8 4 2 4 8 8 0 p a 5 2 , * $ 4 n a 9 8 6 2 2 9 a e 8 8 6 2 2 2 2 2 - # , o.o.T e p 9 8 6 2 2 5 8 8 e p q < 2 ; * * q p q 8 8 5 2 2 q a q 8 8 4 < 2 2 2 , * # q w.[ n p q 7 8 5 2 4 5 8 0 a p 5 < 2 ",
"@ @ # 8 8 5 < < 6 8 8 2 < 2 2 2 2 2 2 < 2 - @ @ 0 G e 8 8 5 < < 5 8 5 2 < 5 9 8 2 2 : @ o : 9 8 2 < 2 8 8 5 < 2 2 2 < < 2 2 2 2 #   - n n q 8 8 2 < 2 8 8 4 < 2 8 9 6 < 2 * o # 5 9 6 < < 5 8 8 2 < 2 2 2 2 2 2 < 2 : @ O 5 T r 8 8 5 < < 5 8 8 2 < 2 8 8 4 < 2 ",
"o @ # 9 0 6 2 2 8 0 8 2 2 2 2 2 2 2 2 2 4 ; o @ q T n 0 0 6 2 2 8 0 8 2 2 6 0 8 4 4 , @ . , 0 8 4 2 5 8 0 6 2 2 2 2 2 2 2 2 4 4 #   - T T e 8 0 4 2 4 0 0 5 2 2 8 0 5 2 4 * o @ 5 0 8 2 2 5 0 8 4 2 2 2 2 2 2 2 2 4 : @ X 5 ! N q 0 8 2 2 8 0 8 4 2 4 0 8 5 2 4 ",
"@ @ # 1 1 , - - : : : - - ; : : : : : - ; % @ @ 1 5 4 , , ; - - : , : : : , 1 1 ; - * @ o - 2 , ; - ; : : ; - - : : : : : ; - - # @ % 6 5 2 : : - - ; : : : : : , 2 , - - # o @ , 2 , - - : : : - - ; : : : : : - - * @ @ , 5 4 , : ; - - ; : : : : , , 2 : - - ",
"o @ @ * * # X o X X O X   # * * * * * @ o o o @ % * %     o o o X o @ * * * * * @ X o @ @ # * * @ X o X X X   O * * * * * # X o o o @ * * #   o o o X X   # * * * * % O o @ @ @ * * $ o o X X X o   # * * * * * @ o o o @ # * * O   o o o X o O * * * * * @ X o ",
"  O @ * - # O @ @ @ @ @ o # - * * * % O @ @ @ O % - % O @ @ @ @ @ @ # * * * * * @ @ @ o o # * * @ @ @ @ @ @ @ @ % * * * * # O @ @ O @ - - # O @ @ @ @ @ @ % * * * * % O @ o o @ * - % O @ @ @ @ @ o # - * * * * @ O @ @ O % - * @ @ @ @ @ @ @ @ * * * * * # O @ ",
"0 n n n T e 0 q 4 4 2 @   1 R n N N n n s e q q n T n q q 8 2 4 - % ; B P N N T q 0 q n n n P N q q 8 2 5 - o @ q T N N n n s s q 0 q G T e 0 0 5 5 1 * # 5 T N N T n q 0 e n n n T s 0 q 5 4 4 #   ; T n N N n n s i q q p T n q q 8 2 5 ; % * s T N N T e 0 q ",
"M A.w.c.B.&.I P 0 0 6 @   4 G.c.c.c.c.c.B.o.G G w.B.w.I ! e 8 8 ; * , c.c.c.c.c.! n T c.c.c.c.c.) I p 9 0 ;   @ T B.c.c.c.c.B.c.! G ! c.c._ I P 0 0 4 * * q G.c.c.c.&.G N o.c.c.c.c.1.I P q 9 8 #   : F.c.c.c.c.c.B.&.G G o.B.c.Y ! p 8 0 , * ; &.c.c.c.c.) G N ",
"i @.[ T T n e e 8 5 4 # X 4 w.o.[ T ! T T G n n ! [ T e e 0 6 5 - # : o.o.&.&.2.n e n o.o.! T T y e q 6 8 ; @ # n 2.[ R ! ! T T G p G ! ! n e e 8 5 4 * # 0 w.[ &.2.[ e a T o.[ T T I e a 0 6 6 % X : 2.o.[ T ! T T T n n T [ T e e 0 5 8 ; % - ! &.&.&.2.I e a ",
"0 G e 2 < 5 8 8 2 2 , - * 4 P p 9 8 6 2 < 9 n n 9 8 8 2 < 2 < 2 #   % G y ) &.2.q 8 0 p N 9 < 2 8 8 7 < 2 : * - e P e 8 8 5 < 2 e n e 8 8 5 < < < 2 : @   2 I u &.c.` 8 8 q n p 3 < 2 8 8 4 < 2 - * , G p 0 8 8 2 < 7 n n q 8 8 2 < < < 2 % X # e G T &.h.e 8 8 ",
"q T a 2 < 4 8 8 4 2 , - * 4 P n 0 8 5 2 < 0 P n 9 8 6 < < < 2 2 #   * T G o.w.w.q 8 0 N P 9 < < 8 8 5 < 2 : * - e P a 8 8 4 < 2 a P r 8 8 4 < < 2 2 : @   4 ! G 1.A.! 8 8 e P n 2 < 4 8 8 4 < 2 - * 1 P n q 8 8 2 < 6 N P 0 8 8 2 < < < 2 %   # a I ! w.A.e 8 8 ",
"4 0 9 5 5 5 5 4 2 2 , % # 1 e q 6 4 4 2 < 7 q q e q 0 4 5 2 < 2 # o * 8 8 q n p 5 4 5 9 9 5 4 5 5 5 4 < 2 ; # % 9 e 0 5 5 2 2 2 0 q e q q 8 4 5 2 2 : @ o , 0 8 e n q 5 4 8 9 9 5 4 5 4 5 2 2 2 % @ ; e q 8 4 4 2 < 5 q q q q q 5 5 4 < 2 = o # 8 8 q n p 9 5 4 ",
": < 2 8 8 5 < < 2 2 , @   ; 9 8 2 < < 2 < 4 8 8 a P p 8 8 5 < 2 # o # 2 , 4 5 8 2 < < < < 5 8 8 2 < < < 2 - o @ 4 9 6 < < 2 2 < 5 8 0 G G q 8 8 2 2 , @ o - 2 , 5 8 5 < < < < < 8 8 5 < < 2 2 < # . * 9 8 4 < < 2 < 4 8 5 e P p 0 8 6 < 2 = o # , , 2 5 8 2 < 2 ",
": 2 4 5 8 5 2 2 2 2 , @ o ; 0 8 4 2 2 2 < 4 8 8 a n a 8 8 5 2 2 # o # 2 < 5 8 8 4 2 2 2 2 4 8 8 2 2 2 2 2 - o @ 4 8 5 2 2 2 2 2 5 8 0 p n q 8 8 2 2 : @ o ; 4 < 8 8 5 2 2 2 2 2 5 8 5 2 2 2 2 2 @ . * 8 8 4 < 2 2 2 4 8 8 q n p 9 8 6 2 2 * o @ 1 2 4 8 8 4 2 2 ",
"# # # % % # # # - ; - @ @ # * % - ; - # # # % # ; : ; ; ; - # # @ @ # - - * % % # # # # # % % % # # % - ; % @ @ # % % - ; * # # % # % > > ; ; ; % # # @ @ * ; - % # # # # # # # % % % # # * ; - @ @ # * % - ; - # # # % # - , ; ; ; - # # # @ @ * - - # % # # # ",
". o o           # * $ X X       # * % O   X o X # * * * * @         @ * * @       . . @ @           o * * @         o * * #     o o @ * * * * * X   .     # * *         . o @ @           @ * * o         # * * @   X o o # * * * * #   .     X & * #       . . ",
"o @ # - - - - - ; , : - - - - - : , > % * # @ @ : , , , , : - * - - - , , ; - - - - % @ @ % - - - - - , , ; - - - - ; , , - % % # o # , , , , , - - * - - ; , : ; - - * - # @ @ * - - - - ; , : - - - - - ; , : * * # @ o - 1 , , , : - - - - - > , ; - - - - * ",
"o @ * 2.w.2.2.2.T n T w.w.w.2.2.T G a 8 8 , O @ n A.2.w.w.[ n n &.w.&.G n ) w.2.I T q @   6 A.2.2.2.&.n n ) w.w.w.2.&.G G q 8 8 %   ; A.w.w.w.w.P n T w.w.) n G &.w.o.n T ,   # R c.2.2.2.T n I &.w.w.2.2.! G n 8 8 2 @   0 F.2.w.w.o.n n o.w.w.I n ! w.2.T n N ",
"o O * 2.w.2.2.c.T I T w.w.w.w.w.! G p 8 0 :   O n c.&.&.w.! n n &.c.&.G G ) c.c.I T q @   6 F.&.2.h.2.I I ) w.2.w.c.&.I G q 8 8 #   ; w.&.&.&.w.G n T c.c.) u I &.c.&.n ` ,   @ T c.2.2.c.) n I &.w.2.w.c.) G G 9 8 2 O   8 c.&.&.w.o.n n o.c.c.I G ! c.c.) n B ",
"# # - T ! G e a 0 8 q T ! P e a 0 9 8 4 6 : # # n c.&.) ) p q q q q q q q e a p 0 8 4 # # 5 o.! p a a 8 8 e ! ! n a e 9 9 5 4 4 - # , w.&.) ) ! q q q q q q q q e n e 8 0 : # % n ! P e a q 8 9 P ! T e a q 9 8 5 5 , # # q c.&.) ) n q q q q q q q q a n q 8 8 ",
"* * > p p 0 5 8 2 , 2 p p 0 6 8 2 < < < 2 : * - G c.o.y n q 8 8 < < 2 8 8 8 5 8 2 < , - * 5 P p 8 8 6 < , 9 n a 8 8 5 < < < < < ; * 2 w.2.! y n 9 8 5 < < 4 8 8 5 8 5 , < ; * - e G e 5 8 4 , < e n e 7 8 2 < < < 2 , - * q c.&.G n e 8 8 2 , < 5 8 8 5 8 4 , , ",
"* * ; s n q 8 8 4 < 4 p N q 8 8 2 2 2 2 2 : * * N w.o.n n q 8 8 2 2 4 8 8 8 8 8 4 2 , - % 4 P p 0 8 5 2 < 0 N p 0 8 8 2 2 2 2 2 - * , 2.2.! n n 0 8 8 2 2 5 9 8 8 8 6 2 4 : * - e P e 8 8 4 < 2 a N e 8 8 4 < 2 2 2 , * % q A.o.G n e 8 0 5 2 2 8 8 9 8 8 4 2 2 ",
"% * ; 8 9 6 2 2 5 8 6 5 4 2 2 2 6 8 5 < 2 ; @ @ 5 q 9 3 5 4 2 2 6 8 6 2 2 2 2 2 2 2 , * * 2 0 9 4 2 2 5 5 5 4 5 2 2 4 5 8 4 < 2 # o - q q 7 3 4 2 2 4 8 8 4 2 2 2 2 2 < 2 ; * - 8 0 8 2 2 5 8 5 5 5 4 2 2 5 8 6 2 2 : @ @ 2 q 0 3 3 4 2 2 5 8 5 2 2 2 2 2 2 2 2 ",
"* * ; 8 0 6 2 2 8 0 8 2 2 2 2 2 8 0 8 2 2 - o @ 4 0 8 2 2 2 2 2 8 0 8 2 2 2 2 2 2 4 , - * 2 0 8 4 2 4 8 0 5 < 2 2 2 4 8 0 5 2 2 # . % 8 8 5 < 2 2 2 4 0 8 5 2 2 2 2 2 2 4 : * - 8 0 5 2 2 6 0 8 2 2 2 2 2 6 0 8 2 2 : o o , 0 8 2 < 2 2 2 5 0 8 2 2 2 2 2 2 2 2 ",
"# % * 4 4 1 : : 2 4 4 : : : : : 2 4 2 : , * . o , 4 4 : : > : : 2 4 2 : > : : : : : ; % # > 4 4 , : , 4 4 , : : : : , 4 4 , : : @   # 4 4 , : : : > , 4 4 , > > : : : : , - % * 2 4 1 : : 1 4 4 , : : : : 1 4 4 , , - .   ; 6 4 : : : : > 1 4 4 , : : : : : : : "
};
