/* XPM */
static const char *energia_EA[] = {
/* columns rows colors chars-per-pixel */
"128 128 256 2 ",
"   c #010101",
".  c #070309",
"X  c #05001C",
"o  c #0B011D",
"O  c #060016",
"+  c #13051B",
"@  c #14070A",
"#  c #060023",
"$  c #0E0124",
"%  c #05002B",
"&  c #0E012B",
"*  c #100126",
"=  c #11012C",
"-  c #1A062B",
";  c #0E0132",
":  c #0D013A",
">  c #070032",
",  c #120134",
"<  c #1A0334",
"1  c #14013B",
"2  c #1A033C",
"3  c #1E0932",
"4  c #23043C",
"5  c #250937",
"6  c #34153B",
"7  c #2D0F32",
"8  c #2C141B",
"9  c #0E0043",
"0  c #160143",
"q  c #1A0244",
"w  c #16014A",
"e  c #1B024B",
"r  c #1E0849",
"t  c #1C0253",
"y  c #1D025B",
"u  c #160153",
"i  c #0F0054",
"p  c #220444",
"a  c #22044C",
"s  c #2B044C",
"d  c #290847",
"f  c #35084B",
"g  c #391448",
"h  c #230354",
"j  c #2B0454",
"k  c #24025C",
"l  c #2B035B",
"z  c #2A0958",
"x  c #330454",
"c  c #3C0554",
"v  c #33045C",
"b  c #3B045C",
"n  c #370B59",
"m  c #381255",
"M  c #1E0163",
"N  c #1E026A",
"B  c #1E0079",
"V  c #250263",
"C  c #2A0364",
"Z  c #25036B",
"A  c #2A036C",
"S  c #2B0868",
"D  c #330363",
"F  c #3B0363",
"G  c #33056B",
"H  c #390A68",
"J  c #250273",
"K  c #2B0474",
"L  c #2C0973",
"P  c #2C047B",
"I  c #29057B",
"U  c #320573",
"Y  c #340A74",
"T  c #3B0A74",
"R  c #33057B",
"E  c #35097C",
"W  c #3B0A7C",
"Q  c #3B0578",
"!  c #3D126F",
"~  c #481449",
"^  c #430554",
"/  c #44045C",
"(  c #4B045C",
")  c #480957",
"_  c #52035C",
"`  c #550759",
"'  c #491358",
"]  c #4E1250",
"[  c #67185D",
"{  c #4E274D",
"}  c #430362",
"|  c #4B0361",
" . c #460B69",
".. c #540968",
"X. c #491466",
"o. c #581669",
"O. c #430B7C",
"+. c #470977",
"@. c #560B78",
"#. c #491377",
"$. c #571579",
"%. c #671769",
"&. c #651779",
"*. c #761979",
"=. c #681073",
"-. c #552469",
";. c #762578",
":. c #70286E",
">. c #6E3358",
",. c #851A76",
"<. c #89277A",
"1. c #903074",
"2. c #9E336C",
"3. c #AE4A76",
"4. c #CA5579",
"5. c #EF5774",
"6. c #E2666D",
"7. c #2D0483",
"8. c #2D048B",
"9. c #2A0584",
"0. c #320584",
"q. c #3C0684",
"w. c #330983",
"e. c #3B0A83",
"r. c #33058C",
"t. c #3A068B",
"y. c #33098C",
"u. c #3C098C",
"i. c #2E0493",
"p. c #340593",
"a. c #3A0693",
"s. c #340994",
"d. c #3C0A93",
"f. c #35059B",
"g. c #3A059C",
"h. c #35099B",
"j. c #3B099B",
"k. c #3E1099",
"l. c #3505A3",
"z. c #3C05A5",
"x. c #3B09A3",
"c. c #3B05AB",
"v. c #3C09AB",
"b. c #3608A6",
"n. c #3D08B7",
"m. c #2C04A7",
"M. c #430B83",
"N. c #430B8C",
"B. c #4A0B8B",
"V. c #470986",
"C. c #560D88",
"Z. c #491388",
"A. c #571487",
"S. c #430B94",
"D. c #4B0B93",
"F. c #470999",
"G. c #570B98",
"H. c #4B1397",
"J. c #591397",
"K. c #640B86",
"L. c #661688",
"P. c #771888",
"I. c #650C98",
"U. c #691697",
"Y. c #761698",
"T. c #720D8F",
"R. c #58228B",
"E. c #782796",
"W. c #72268B",
"Q. c #430AA4",
"!. c #430AAB",
"~. c #4B0AAB",
"^. c #4708A6",
"/. c #570CA7",
"(. c #5812A8",
"). c #4309B3",
"_. c #4B0BB3",
"`. c #4707B9",
"'. c #520BB3",
"]. c #580BB8",
"[. c #5311AE",
"{. c #680DA8",
"}. c #6915A6",
"|. c #7716A7",
" X c #640BB8",
".X c #750DB9",
"XX c #6712B6",
"oX c #7815B8",
"OX c #760CA9",
"+X c #6B25A5",
"@X c #4908C5",
"#X c #5609C7",
"$X c #5708DA",
"%X c #4E0BD0",
"&X c #670BC7",
"*X c #770CC9",
"=X c #6912C3",
"-X c #7613C6",
";X c #670AD6",
":X c #770CD6",
">X c #7914D6",
",X c #5B07E5",
"<X c #6607EA",
"1X c #760AE5",
"2X c #6D07F3",
"3X c #3F07C5",
"4X c #851C88",
"5X c #86199A",
"6X c #941D96",
"7X c #90178A",
"8X c #892589",
"9X c #882496",
"0X c #952E8F",
"qX c #AD3496",
"wX c #8719A7",
"eX c #961AA7",
"rX c #8717B8",
"tX c #9719B8",
"yX c #8E0DB6",
"uX c #A719BA",
"iX c #B519B8",
"pX c #8926A6",
"aX c #9726A7",
"sX c #952BAE",
"dX c #A728A9",
"fX c #B627A9",
"gX c #B938A5",
"hX c #A725B7",
"jX c #B726B7",
"kX c #AC37B0",
"lX c #A51D9F",
"zX c #C53A95",
"xX c #CD1DB8",
"cX c #C626B6",
"vX c #CE31AA",
"bX c #E62DA7",
"nX c #91448F",
"mX c #AE4591",
"MX c #D05090",
"NX c #EA4E8F",
"BX c #CE47A4",
"VX c #DC6196",
"CX c #8816C8",
"ZX c #9717C7",
"AX c #880BD6",
"SX c #970BDA",
"DX c #9211D1",
"FX c #A615CA",
"GX c #B113D3",
"HX c #9B22C5",
"JX c #AC25C5",
"KX c #8F0AE7",
"LX c #A40BE4",
"PX c #A710E1",
"IX c #C524C3",
"UX c #CF1AC9",
/* pixels */
"  o q C h 0 2 0 0 , = & , 1 h e & , 1 , , w t t 0 0 e t e 1 , , , , 2 q j F F k y t 0 2 2 1 1 0 1 1 , = , 1 , , 1 1 , , 1 1 1 1 , , , , 1 1 0 0 0 2 , & = ; 1 , , , 1 1 1 1 = & , , , , = = , , 2 e l v ` v k l e 2 j ^ v q q } f $ $ $ $ = = = * = & = & 1 1 t ",
"  o 1 l l w 2 2 0 0 , ; , = 2 h q 1 1 1 0 u t t w 0 0 w y 0 , 1 , , , 1 0 j } D V h 0 2 1 1 1 1 , , , = , 1 , 1 1 1 1 , 1 2 1 , , 1 , , 1 1 2 1 1 2 1 1 , , 1 1 , , 1 1 1 2 & & = = , , , , , , 2 w v D ` j t e e 2 h / b q e b c = $ * $ = & = = = & = $ , 2 w ",
"  $ , h D e 1 1 2 0 2 , , , ; 0 h e 1 0 w t t t w 1 0 0 w 0 1 1 1 , , 2 , 0 b b C k e 2 1 1 , , , , , , 1 1 1 1 1 1 1 , , 1 , , 1 1 1 1 1 1 2 2 2 0 1 1 , , , 2 1 , , 2 1 2 , $ = = = , , , 1 , 1 e c b ) a q 1 0 1 k / / 2 e ) c 4 $ $ $ $ $ $ = = = = o , 0 q ",
"  $ , 0 C h 2 , , 1 2 2 1 , & ; 0 h h e w e e t w 1 2 0 2 2 1 , , , 1 1 ; : j ( v k h q 1 1 , = = = , 1 1 1 1 0 1 1 1 , 1 , , , 1 0 1 0 1 , 2 2 2 1 1 1 , , , 1 2 1 , 2 1 1 , & = = = = , , 1 1 0 h ^ c ^ w 2 , , , t F / q e / x f & * * $ $ $ $ $ * $ $ 1 e e ",
"  & , = h C 2 , 1 & , 0 0 2 , & , q k k h w w w q 2 0 0 2 1 1 , , , , 2 , 1 a ( b k t e 1 1 , & , , , 1 1 1 2 0 1 1 , = 1 1 , 1 1 0 2 2 , 1 1 1 1 1 1 1 1 , , 1 0 1 , 1 0 1 , = = = = , , = 1 2 0 h ) c c e 2 , = , q b ( a t / s x 4 $ $ * $ $ $ $ $ $ * 0 e q ",
"  1 w & , C s = , , = , 1 w w 0 0 w 0 e k h 0 0 0 0 0 q 1 2 1 , , , 2 0 1 1 q ( / k h e 1 2 , = 1 1 , 1 0 2 1 2 2 , = , 2 , , 1 0 2 1 , 1 1 1 1 1 1 1 2 1 , = , 1 0 1 1 0 1 1 1 , , , , , = 1 1 1 j ^ c c e 2 , = , 1 b ` a h / j p b 2 $ $ * = $ $ $ $ $ 0 t q ",
"  1 M 1 $ q D 2 # = , , & 1 0 t y t w 0 0 h h 1 0 w 1 2 0 0 1 1 , , 2 0 2 , q ( / k e e 2 2 , , 1 , , 0 0 2 1 2 1 , = , 1 , , 1 0 2 2 1 1 1 1 1 , , 1 1 2 1 , , 1 0 0 1 1 2 2 1 , , , , , = , , 1 x c b c 0 2 , & , 1 ( ` a j } k , a C 2 $ $ $ $ $ $ $ $ 1 w 2 ",
"  2 V y , , l j , $ $ , , , 1 w t t t w 2 1 e h 0 2 1 , e 0 ; 2 1 1 0 0 1 , q ( / k e e 2 2 , , 1 2 2 w 0 1 1 1 , , , 1 1 1 1 2 1 2 1 1 1 , , , 1 2 2 0 0 1 1 1 1 0 0 1 1 1 0 1 , 1 1 , , , ; , 1 ^ c b f 0 1 ; & 1 2 ( ) a b D t 1 = e j q & * = $ $ $ $ , 0 1 ",
"  0 k V h , 2 l j , $ $ & , 0 0 0 w w w 0 1 ; q s 2 0 0 0 0 2 , , 1 0 0 1 1 0 ( / k a e 1 0 = = 1 1 0 w 0 1 1 1 , , , 1 1 1 1 1 1 1 1 1 1 1 , , 0 0 0 0 0 2 1 1 1 0 q 1 , 1 1 2 1 ; = , , , & & 2 ) ^ v c 1 2 , & , 0 ( ( a F h 0 0 $ 1 q h 2 o * * * = $ , 0 , ",
"  q C y V h , q l h 1 = = 1 0 w w 0 0 0 0 0 & , q j e e 0 , 2 , , , 1 0 0 2 0 / / k a e 0 0 = = , 1 w t 0 0 2 1 1 1 1 1 , , 1 0 0 2 1 1 1 1 1 1 0 0 2 2 2 2 2 1 , 1 0 0 1 2 2 1 1 & $ = , , & & , ^ ^ x c 2 2 & & , 0 ^ ( j F e , 2 $ = q q a = $ * * & $ = 2 , ",
"  , C l y V t , 0 k C 2 2 w 2 0 0 2 2 0 0 0 , & , e k t w 1 , 0 1 , 2 2 0 2 0 / / k a 0 0 1 , , & 1 w w 0 2 0 2 2 0 2 1 1 2 0 0 1 1 1 , 1 1 2 0 0 2 1 1 1 1 1 , , 1 0 w 0 0 2 1 2 1 & $ = , = $ , ^ ^ j ^ 0 0 & ; , 1 ^ ( h D w ; , $ $ q , a 2 $ $ * = * $ 2 1 ",
"  , e D k u V e & e k C e 0 0 , 1 0 1 , 1 1 , & , 1 q h e 0 0 2 0 0 1 2 2 1 0 b ( k h 0 0 1 , 1 , 2 0 w 0 2 2 2 0 0 w w w w 0 2 1 1 1 1 1 1 2 0 0 2 2 1 2 1 , , , , 2 q 0 1 1 0 w 1 , = = = & & , c ` s ( p 2 = , , 1 ^ ( j v 0 ; , $ $ 2 2 1 p $ $ $ = $ $ , 1 ",
"  , 0 a D t t k 1 , h V V q 1 & & 1 1 , , , , , 2 1 1 q h a w 1 , 1 2 0 1 , 0 / / l h w 0 2 , 1 2 0 0 0 0 2 1 1 0 0 t w 0 2 1 1 1 , , , 1 0 0 0 2 2 0 1 2 1 1 1 , = 2 2 0 1 , 1 w 0 , = = = , , ; 4 _ c / f 1 , = = , c ( b v 1 , , $ o , q & d = $ $ $ $ $ = 1 ",
"  , q 1 l l 0 y t , w k V h 1 & = = , , , , , , q 2 0 0 1 a e 0 , = q 0 1 1 0 ^ / k h w 0 0 0 2 2 2 0 1 2 0 0 0 t k y 0 2 1 1 1 2 1 , , 1 2 0 1 1 1 0 2 1 1 , 1 , = , , 2 0 , 1 2 a 2 & = = , 0 1 , f ( v / 0 , , = = ^ ( } a , 1 = $ $ , e $ 5 d $ = $ $ $ $ = ",
"  = 0 1 a D e e y e 0 h k k e * = = & & , , , , 1 0 w 0 ; , e e q 1 1 w 0 1 w ( b k a 0 0 2 0 2 1 2 0 0 0 q a l k y w 0 1 , , 1 1 1 1 ; 1 0 0 1 , 1 0 0 2 1 1 1 2 , , 1 2 t 2 ; , a a 1 , = , w q , , x / b f , 1 , , ^ ( b , & , $ $ $ , q $ $ f d & $ * & * $ ",
"  , , 2 0 v h w k t 2 2 y t V q $ & , , , 1 0 1 1 1 0 0 2 , 1 s a w , q 0 2 e ( v t a 2 1 1 1 2 1 2 w w w l F D y 0 2 1 , , , 1 1 2 1 , , 1 0 2 1 0 0 0 0 2 2 1 0 1 , 1 1 h e , ; 2 v e , = 2 , 0 0 & = c ( b p 2 = < ^ _ a & = = $ $ & , q $ $ < ( 4 $ $ $ $ * ",
"  = , 1 0 l l t k y w & 1 e h V , & , 2 1 2 1 1 1 , , , 1 , = < k w 0 0 w 2 e ( v t y 0 , 1 2 0 1 2 0 e l D D h w 2 , , = , 2 1 2 0 0 1 1 1 0 0 0 0 0 0 0 2 0 0 0 2 1 1 1 w h , ; 0 x j 0 1 1 , , w 1 $ 4 ( b b q , 2 ) _ p $ = = o $ & , 1 o $ $ f | s = o $ & ",
"  = 2 1 w j C y t e u ; $ q w e k 2 = , , , = = 1 , = , 0 , , , a e 0 2 0 1 q / v e t 0 1 2 0 0 0 w t l h h V e 1 , , = , , 1 1 2 0 w 0 1 1 0 0 w 0 0 0 2 , , 2 0 0 1 1 2 2 k q = 0 e v w 1 , , 1 1 0 ; & ^ | b a 1 2 ( ( 4 $ = = $ $ & , 0 $ $ o < } } c 2 $ $ ",
"  = q 2 w v l u w w w 2 & & w w t k 0 ; ; = & & 1 , 0 2 1 , , 0 e a 0 0 0 0 0 b F h h q 1 1 0 w e t l h w e t 1 , , = , 1 2 1 1 0 w w w 2 1 0 w w 0 1 2 , , , , 1 2 2 1 2 1 h j & 2 w j h , , 1 , , 0 q & d | b x 2 1 c | a $ = = $ $ $ & 2 , $ $ = c b F } s = ",
"  * 0 1 a F l w 0 w 0 2 , & 2 e 0 h k 0 = & & = 2 , 0 0 1 ; 0 a j x 0 y 2 q 0 h } j w w 0 2 0 t y k a 0 w q w 1 , , = , , 1 2 0 0 0 0 0 0 2 0 w 0 0 1 , 1 2 , 2 1 2 0 1 , , q l q 1 w e j 0 1 1 1 1 , 0 0 q ( ( / a 1 s _ s & , = $ = * $ 2 w , $ & ^ | j j F x ",
"  $ q 0 l F y q 0 0 1 0 , $ , w w 0 t h 2 , , , 2 0 w w w w a c l b q t w q 0 w v F j t w 0 w y y h 2 2 q 0 w 1 , , , = , 2 0 0 0 0 2 2 0 w 0 0 1 1 2 , 2 1 1 1 0 w 0 1 2 1 0 C j 1 0 t h j 1 , , 1 0 Z y.V O.D.O.v 0 a ` x & , = $ = $ $ 0 e & o & c | D w a D ",
"  $ e k F l w q 2 0 , 2 1 $ & 0 w 2 0 t t w 0 0 e k t y t t v f w l l 0 w w w w t v F C y w e y k e 1 0 1 0 w 2 , , = , 0 0 0 2 0 0 0 0 w 0 0 0 1 1 0 2 , , 1 1 0 0 0 0 0 0 0 e l q , e t j q & $ 1 A r.r.k a.@X).H h e ` c ; , , & = o $ 0 = $ $ $ f ( C V 0 e ",
"  & y l F h w 0 2 2 , , , & ; 1 0 2 0 w w e h t t y h k y k v v e 0 v l a w q e e u k D D k t y k w 0 0 , 1 0 2 1 2 , 0 w 0 2 0 0 w 0 w 0 2 0 0 0 0 1 1 2 , 2 0 0 0 0 0 0 w 0 0 h j 1 1 e h j 1 $ 0 K K Z h p.p.8.D D h ` c & , 2 & & $ $ 0 , & * $ c | C t w 1 ",
"  2 V D v w 0 0 0 1 , , , & , , 2 0 2 0 0 q h k k k v a q s j l q = q h l l x v v l t h F F k V k w 2 0 1 , 2 0 2 0 0 w w 0 0 w t w t e w w 0 0 q 0 0 2 , , 2 0 0 w 2 1 w 0 0 0 q k h , 1 y j a , = V A A k P A V F | v ..x # = $ $ = $ 2 t , = = 0 +.| h 2 q 1 ",
"  , V F j 0 0 0 1 1 1 , , , , , 0 2 1 2 0 0 a e l h q 1 0 h l l 2 ; 0 w 1 0 q a j l l k h b F C V e 2 w w 0 0 0 0 2 0 0 0 0 0 0 0 w e 2 2 0 1 2 0 1 2 2 , 1 2 2 0 t 2 1 0 2 0 2 0 e C 0 , 0 k e.K e w J 8.V P Z C D F C W E V q = = 1 = S s.2 Z y P D.b w 1 0 0 ",
"  , k F a 0 0 1 , 1 , , , , 1 1 0 1 , 1 0 0 1 1 h l e 0 e h b h 1 , , 0 1 1 ; 1 0 0 e k k l F F C k 0 0 0 0 0 w w 0 0 0 0 w 0 2 2 w 0 2 , , 1 2 1 , , , 0 w 0 1 2 0 0 0 2 1 1 0 1 0 C e ; , y y.K V e J b.K 8.K k C A A A p.b.h.y.s.y = P j.y Q.u.n.F.j , , 0 q ",
"  ; k b 0 1 1 , 1 1 , , , , 1 1 1 1 1 2 0 2 2 1 0 l l e h v / 0 , , , 2 0 2 1 0 2 q 0 w e k D F D C e q q 0 2 w t e w 0 0 0 w e w w 0 , , 1 0 w 1 , , , 1 1 1 2 2 , , 0 , , 1 0 , 0 C y , , e V k k e Z l.f.`.0.V C A Z 7.7.A C P l.0.V J $.qXhX0Xc.a.l $ = 0 w ",
"  & l v 2 1 , , 1 2 , , , , = 2 1 1 1 0 2 , 1 2 w t l k k l s 0 1 1 2 0 0 2 0 0 0 t w e w w e v F C y w w q 0 w t t w 0 2 2 0 e 0 0 1 , , , 1 1 , = , , , ; & ; , 1 1 , , , 1 , & 0 V q $ $ 0 e k I d.J.~.`.#Xz.p.Z V V Z A Z C k w K h.9.%.NXNX2.K z.G $ , q 2 ",
"  & D j 1 2 , , 1 1 , , = = , 1 1 1 1 0 0 1 1 2 2 0 j D k k 0 1 & , 1 1 1 1 0 w e t t e w w 2 w D D k t w 0 w w w t e 2 0 0 0 1 1 1 1 , 1 1 = = = $ = , = $ = , , 0 2 = , , , , ; 0 k Z V e 0 0 Z i.#XAX<X<X2X$X).p.Z k Z A k K P = 2 s.9.1.5.NX;.9.0.= = 1 0 ; ",
"  & D a , 2 , , , 1 1 , & , , , 1 0 2 2 1 , 1 1 1 0 h / b k t e 0 0 q q q e h j v l l k h e 2 1 a F C y w 2 0 w w 0 0 0 w t 0 = , = = = , 1 1 , = , = , = $ = , , 1 , $ , 1 , & ; w Z h.h.P Z a K x.#X1X2X2X,X,Xc.r.A C F x 0 Z P e , h P 4.5.4.O.f.w.k , , 2 ; ",
"  , D p , 2 1 , 1 1 0 , = 1 , , 1 1 1 0 2 1 1 1 0 w l / F C C D F } } } } F } } } F D D C k w 0 0 v D h w 1 0 w w 1 1 2 e u 1 $ = = = , , , 1 , 1 1 , , & , 1 , 1 , = = = , , $ & e f.n.l.K k V J ].$X2X,X#X,X,Xl.7.R U D l k V Z V 1 , &.6.5.3.}.T h 0 = , , , ",
"  , D q 1 0 1 , 1 2 0 1 = , , , 1 , , 0 1 0 , , q t v F V C C D D D l l l k h h h t k k V V k t 0 h } l w 1 1 0 w w q w w 0 1 , , = , ; & , , , 2 , = , , , & , , , = = = * 1 = ; t V k W R.U V 0.#X`.,Xp.Z $X<Xl.7.K K V V C V A P Z.$.mXVXMXzX' = $ * * = , , ",
"  2 v 0 1 2 1 1 1 1 1 1 , , = = , , , , 2 q 1 1 w k b b y t y y y t w 0 0 0 0 0 1 0 0 w t y k V w e D D t 0 2 1 1 0 h e 0 0 1 2 1 2 , $ $ , 2 , 1 , = , , , & , q , = = * = 2 & ; y V K Y H C P g.^.7.n.V t #X$Xi.Z K P k V V V Z.=X>X:X-XU.E.' # = = = = = , 1 ",
"  4 h 1 1 1 1 , , , , , , 1 , , 2 0 1 0 q 0 0 0 e l ( c w 0 0 0 0 0 0 0 2 2 2 1 1 2 2 2 0 0 t C h 0 k D D e 0 2 , 0 0 2 2 0 0 0 0 0 0 1 , , 1 , 1 , , 1 , 1 , 2 q & = , $ * , & 1 V 7.K P J J J p.r.y r.K V p.p.V k A V k k Z Z A E D.SX1X0.C ; = = = = = = , , ",
"  < q 1 1 1 , , , , , , 1 , , 1 0 0 0 t y 0 0 w h x ] x l 0 , , 1 1 1 1 1 1 1 1 1 0 2 , 1 1 0 k D w t k D l 0 1 w 0 1 , 1 2 0 w 0 = 0 e 1 , , & , & , 2 , , 0 1 $ = = = $ = = = w k I K Z K y.Z r.S.h k V K P Z V k R C V V A K Z V V -X&Xt.z $ = = $ = = = 1 2 ",
"  $ 1 2 2 1 , , , , , , 1 , , 1 0 0 0 w e 0 2 q z ( c e h h e 2 1 1 1 1 1 1 1 1 1 0 0 ; , 0 1 w D h 0 y h v l e w 0 1 , , 1 0 0 1 , , 0 2 , ; & ; = 1 2 1 = , , = = = $ $ & & 0 0 , h k 0 h V h a.#XV h k k k V V A Z.G 7.7.E Z I s.r. X/.R 2 $ = $ $ = $ $ ; 0 ",
"  $ 1 2 1 1 1 1 , , , , 1 , , 1 0 w 0 w w w e t j v h 0 , 2 a l l j l l l j h e q 0 0 1 1 2 1 1 l D 0 q h w h C t 0 1 = 1 0 1 1 1 0 , = , 1 1 , = , 2 1 , = $ = = = = = & $ , 1 , * $ 0 V A Z V Z g.P k C V k V Z Z U R t y P 7.8.8.7.t.B.v $ $ = $ * $ $ & , 1 ",
"  $ 0 1 1 1 1 1 1 , , 1 , , 1 2 2 t t t t y t y l v e 0 = & & 1 t k l l l C C C k h a q 0 1 , 1 w D j 2 q t 0 a l j 1 2 e 0 1 , , 1 , = 1 1 1 2 = 0 1 , , = = , * = $ $ = & , & = $ , k Z V V V k V K e V k k C P P V Z Z 1 e K h.g.P k | x 5 ; $ $ $ $ * 0 , 0 ",
"  $ 0 , 1 1 1 1 1 , , , , , 1 0 0 e t t y w t l l h e 0 = = = & , 1 1 w 0 2 0 e y y h h w 0 1 , 1 t C t w t 0 , 0 v h 0 q 1 1 1 , = , & , 1 2 2 0 t 2 , = = , , , & $ * = , = & & $ q V k I 8.V V I V q V K 7.V r.f.Z C A y , = , Z h.R ( ^ 1.L.& q L h h k e j ",
"  o , , , , 1 0 1 , 2 2 2 0 0 0 w t w e e 0 h v l y t 0 1 & & = = , , 1 , = , , 1 0 w e h 0 1 2 1 0 y C t w e 1 , a F q 1 0 1 = 1 1 = & , 0 0 1 0 0 0 0 , = = , , $ $ = = = $ $ = $ k p.f.j.V V I g.h k V Z (.V K K K Z C Z = o & ; u.F.F Y g 8XD L r.L S k V I ",
"  o , , , 1 1 1 , = , 2 0 e w w e t t t w 0 k l h t t 0 1 & & = = = , = , 1 1 1 , , 0 q t 7.s.P V s.J C l w e 0 1 0 b v 0 2 1 , 1 , = ; , q 0 2 2 1 0 2 1 = o $ $ $ $ * = = * $ * * , t Y e.k J 7._.2 K A N 0X-.N V Z K w.y.q $ , 2 O.B.R $X8.O.e.7.A k k 7.9.7.",
"  $ , , , , 1 , , , 1 w t e w w w w t M y t k l t y e 0 , 1 , , & = 1 & = 1 1 , , 1 , 0 y x.`.p.k 7.I L V h 0 e 0 1 s } e = , 1 , $ = 1 , , , , , 2 1 = , , = $ * $ $ $ * * $ & * * & o = V P P !.w.$ K S Z #.%.Z K Z p.v.y.1 ; 0 f K.t.h #X%X).p.K K k Z l.`.g.",
"  & 0 , = = 1 1 = , 2 w e 0 0 w 0 e t y y y k h t t 0 1 2 , , & , , = , , 1 , = = = & 1 h A P y.k Z K Z h l w e 0 1 2 ( v 1 2 , = & = , , 1 , $ = 1 , = $ = , = $ $ $ & = * $ * * $ $ $ , V L S z & , Z V A q.` l J K Q.Q.K 2 p x _ C.u.2 C U V t L C r.r.P p.g.",
"  & 0 , , 1 1 1 , 1 1 0 0 w t e w e e w w t e w w w 0 1 K V q 0 2 J q = , ; ; ; e V w 1 h Z C J k I Z t h R y 0 0 1 : x } a , & , , , = , , 1 = $ = , = o $ = = = = = = * = * * * $ $ $ = = = $ o $ , V K J S.` , t K w.t N.Q ^ | ^ @.G., a h q o l u.8.x.r.n.`.",
"  $ , ; 1 1 1 2 1 0 1 1 0 0 w e w w w e w y t w e w w 1 0.b.7.7.t b.k , t V Z r.p.P Z V C l A 7.Z f.V e Z y.Z 0 q 1 1 w } v , & = = = = = & , 1 = , = $ = $ $ $ = , = = $ $ * * $ $ $ $ = $ $ = $ $ , k Z J D.d & , e e c @.G.F / 2 } OX, h a x 1 j W J K K P a.",
"  $ , & , 1 2 2 0 0 1 1 0 2 w t e w e e w y t t w 0 w 0 K `.|.{.$.t.Z h h.b.7.7.r.7.A K Z h K b.8.l.M t k Z y e q 1 0 0 x } w , = = = = = = & , = , , = = = & $ * * $ $ $ $ * $ $ $ $ $ = $ = , = = 2 e V u.+.s #.e p ( ( v G H q X x 6X2 e 1 d h h k A P V V V ",
"  1 h 0 2 , ; , 1 1 0 0 0 2 q e w 0 w e t t y t 0 0 0 Y d.7.1.vXMXT 9.p.R Z k k J K C Z V K f.#X!.z.Y I V y 0 e 0 1 0 1 a | j 0 , & = = = , & , , , 1 2 * $ * * = * $ $ * $ * $ $ $ $ = = $ = * ; 2 2 q p o.T.{.-XM.( | j k h d 1 o 4 4Xk 2 & 2 F 8.p.f.8.S.u.K ",
"  1 k k h 0 , , , 2 0 2 1 , 2 w 0 2 w t e w e w 0 0 0 e d.J :.NX5.&.8.s.2 e K V A A k V 0.!.%X<X<X;X>X).I y 0 t y t 2 , a _ x w 1 & & = = = = , = , 0 , $ $ $ = = $ < 2 & = = = $ $ $ , $ = = = q 1 1 x ..8XCXHXuXrX} a s j & f ' o $ *.H : s , D g.8.@X7.G.AX X",
"  & 0 q e h h q 2 , , , 1 1 2 0 0 2 0 w w q 0 w w 2 0 h R i.$.5.5.1.B e = V 8.w 1 t k V 0.n.$X<X2X2X1X@Xr.k h Z w.h.k & q _ ^ w 0 , , & & ; , = & , 0 ; , q 2 , = = < < & = = = = $ = , $ = $ 1 0 , f ( OXPXSXFXxXIXC.2 c 2 $ 5 ;.$ X ' $.O.HXT e s , L & +.LXLX",
"  & 0 ; ; 0 t y y e 2 1 , , , 1 0 0 0 0 w 0 0 0 e 0 w t C w.J.4.5.MXn $ w K C t t h A R P l.$X,X<X<X<X$XQ.V k M 9.n.v.q q _ ( e 0 2 , = = ; , = 1 0 0 1 & < 4 = = = & & = = * $ & = = = $ $ , 0 1 f ( p C.GXUXiXbXfXB.D f 0 < o <.6 X p Y.G.DX{.2 p p $ o  .GXGX",
"+ , 1 , 1 0 2 0 e t y t e 0 , , 1 1 0 w 0 0 0 0 w 0 0 0 = , %.BXNXVX0XH W Z Z Z C V A K 7.p.,X<XK c.,X`.'.Z V #.A.K J 0 a _ _ s , , 1 , 1 2 1 1 0 1 & = 2 e q q w 0 2 , = = $ $ $ = , = = = q 0 s ( a s b K.jXvXgX|.x.t.p 1 = X [ [ # ; Y.G.XXG.= = d 1 & & <.vX",
"8 5 e A V A k ; 0 , , 2 0 t 0 , , , 1 0 1 1 1 2 0 2 1 1 = & $ ~ W.|.>X:X-X(.U V C k K P Z 8.$X@Xw P n.8._.r.K H W K k 0 a _ _ / 4 & ; 2 0 q 0 0 , , q h e 2 , = = & 2 q , , = $ = = = , 1 0 0 a _ s x } F c [ sXoXXX].=Xy., $ $ d :., ; =.T.t J.T t a l q V < ..",
"s z 0.c.f.v.r.e t 2 = = ; , 0 2 = , , , ; , 1 1 0 2 , , = , , $ y g.KX*Xu.E Z A V h V A k V f.f.V P 7.V p.7.Z Z J P 7.V a ( ( ( F j e q 2 0 0 0 q s h 0 , & = $ $ $ * $ 1 , = = = = $ , w 0 a ` ^ a | / / p = G.DXCX&XPX*Xa & = $ o.f & x 5X=  .].i.7.7.y x.y 0 ",
"f.r.7.b.b.%X@Xx.c.a.J q & = , 2 , = , , , = 1 0 0 0 1 1 = , , o e y.AXG.y V I K V Z Z K Z k Z K Z V h V ^.K I 8.J Z K k w / / } F F D D l y t e e 0 0 1 , $ & $ $ $ $ * = 1 = $ $ = & 0 0 a _ ` p x | ( a ; & , {.GXGXFXFXT $ * # j A.1 & T.} q ^.n.Y.{.$.t.V k ",
"l.p.k A P b.c.r.@Xf.@XA $ = , 1 , & = , = = 0 e 0 0 0 1 = , , = , K  X/.i.8.Z K P 7.k Y U V k k V k e P #XZ V V q 2 t q 0 / F l D F F F F D l t 0 w e 0 , = , , $ $ $ * * , 1 = = & , e a ( _ c 0 ^ _ f & & & 2 v =.aXhXhXB.= = 1 ; C.+.#  .I.Y Q.7.1.vXMXT 9.y.",
"r.b.J C V J J A Z 8.@Xa $ $ & : , & , , ; , 0 t w 0 0 0 2 2 2 & # 2 E R P 8.r.P V e Z S C A V k C k C 0.r.Z Z Z C 2 * , 0 b | l y h l v D F F D C k w 1 e V k t 1 & = = * , q , ; , 0 e ^ _ | p , ( ` 5 $ = , l v 0 2 n B.XX .& 1 ; d Z.0 , Y.OXS.J ;.5.5.$.8.s.",
"V f.b.r.V P f.8.P 0.).l Z P 0 1 t A C t t V y t y t e u e 2 = p g , q Z f.f.K k 2 k A V P 0.Z k k k h K k V V Z A V , & 2 l b | v l k t y j v D v e y Z Z V a e 0 = = 1 < 2 1 q e , q H _ / } 1 , ( ( , & & q v h 0 & X ; a #.h $ = $ z B.$ @.{.S p.&.5.5.8XB h ",
"P 7.F.D.t.Q.#X^.0.I p.0.$X%XN.l V R e.V C C Z K V k C Y y.z w 9X1.$ 0 t.Z 1 , 1 0 Z Z V 0.r.V r.A k w I I V V p.J Z V , 2 h 0 b D D F F l y w h F S.h.7.V 2 e V V q = & z S , l u.l v }.| / F & 2 _ c , & , a v 2 1 & * = $ , G h = $ o A.O.p J.S u.L.4.5.4.l $ ",
"z.8.A ~.Q.r.t.'.g.p.I n.$Xt.Y C Z V A C R A Z P Z V C A P I W &.h L w Q.q & q e V K Z K K Z D +XZ Z M K h.Z k P !.f.K , 0 j ; 0 h V l v v G t.F./.!.8.I C k $.L.H M.R 2 5 7.Q. .F.].}.I.` / v & d ` 4 & * 2 j s = 1 = $ = = o 2 G H 4 X = 5XH H.p < :.MXNXVX8Xn ",
"p.0.).!.z.7.V Q._.P K 0.r.w.w.C Z J 8.P r.i.8.8.f.p.Z y Z I u.j.3X#Xq d.0 , q q P b.w.K Z V -.:.V K y h @X7.S S S q , = 0 h , & , q h h k ~.<X#X'.#Xb.9.M 0 d f q ~ Y.d.#.8X).nXW.|.hX( [ ..F A G +.a o , e x 2 & , * * = $ = & , s X.[ 5 ] eXf.A $ o { W.pXCX:X",
"A a.0.Z g.K k e.S.Z k V A R U C K 7.v.l.b.@X^.r.b.g.P J Z A 7.g.x.C 1 S.2 , e , y !.z.K K C d Z Z J V = R s.7.K w o & = 1 0 q & & & & 1 h.$X`.z.Q.~.v.+X%.f  .s > k C.qXA.MX0X3.3.mXMXo.+.+.t.c.p.b.r.e t j j & & , $ $ = * = , = o o ' 8X) *.J.J * $ # y F.KX*X",
"Z.7.Z p.a.Z k q.x.R Z P Z K 7.y Z i.r.P t.].^.f.v.r.h.x.L L 2 , & X q G., ; q , A U k.P V 0 ; I K J k & , 2 e h 1 $ * , , , a = & ; o e @Xx.I d.F.t.7.#.pXkX6XP.L.N.a.U.0X0XgXqXmXNX4.L s.7.8.b.c.%X`.g.l.a.K 0 & , $ = * = = = = $ * X , L.5XwXI , * & e t.AXJ.",
"C K 7.f.P V V a.z.p.8.K w.E H.O.K K V J I r.f.v.x.r.0.I d.z , = & & h OX< = 1 a M.& 2 e q & , r.K K t $ , $ = = = = $ , & & q q & & $ Z v.J V F.~.r.7.7.9.J.vXcX0X;.E.U.}.wXZXCX>XMX4.V x.f.V K 7.n.c.r.@Xb.@XC & = $ $ $ = = & $ = & f %.Y.tXtXB., * & 1 0. X^.",
"V V Z C C V Z /.`.J 8.P l k nXnXJ Z A M.U l Z K C k K A l k 1 = = & x eX, : 1 z 4 # o o $ s 0 w.7.S 1 $ $ $ = = = * = , = & 2 q & $ & V A V e.'.).h.7.P U y 5XcX&.A.j G 0.].AXSX].W L.C r.x.Z Z k J J A I 0.#Xa & $ $ $ $ & $ $ = $ = 6XUXGXtXrXA.& * ; u Z w.0.",
"Z A C A A C u._.`.8.V 7.C k H H V V j $.D.W V Z K P 7.8.P K , * = & ' 4X> 0 2 = $ , & $ e XXG.n 2 0 = $ $ o * $ $ = , * * $ 2 a & $ = k V K _.@X7.Z Z K l y #.vXE.g , q y.v.-X*X7.h V Z Z f.b.r.V K f.r.P 7._.j V Z , $ 1 V e $ = q & 5 K./.rXrX#.$ , l #.q 2 Z ",
"Z.A Z K A K ]._.J V k A t.V y Z K V 0 t C C K F.].{.p.n.z.z., $ < # $.%.; q ' = $ * * # ^.ZXZXrX-.o & $ * * $ $ = = * $ $ & w h * $ = k C Q.!.l.7.V C P A j.W &.p & , = P z.~.[.g.P S K K 7.g.F.r.^.%Xg.t.K p.0.%X@X! p k K E h q V V q 0 M E H.a.k y pX1.o 1 r.",
"U K A A J a.].z.x.S Z K K t k c.r.e t V V K `.AXLX{.t p.h q & H wXh =.f ; f %.# $ $ $ s hXxXFXAXZX@.& = = = * = = = $ $ $ 1 e a = $ & S /.&X!.s.7.V y V S.S.D.l 2 , = , 2 u.$Xj.0.P P I b.8.A _.z.p.a.'.p.p.K `.$Xu.W S Z C A Z Y A Z 7.C k C S P w.V.L.j V t F.",
"v.s.Z y.g.C 7.r.a.d.0.P y w I p.y w 1 P f.].LXGXGXI.q 0 1 & q oXZXG.&., % %.] # $ $ = M.fXbXiXUXGX/ X = $ * $ $ o $ $ $ $ , 0 h 1 $ o z ^.!.`.f.p.A.A.C.L.C.t.I.b $ $ & $ t b.N 7.p.s.p.p.0.!.n.z.7.Z H._.I Z p.f.w.E Z Z K 8.P r.8.7.0.p.r.Z h S P u.p.`.#Xe S.",
"z.t.A P P C K U V t.P Z J t k e 1 1 , V ~.KXSXwXdX .w 2 , , 0 (.].OX@.& < <.5 $ * % V j.}.gXgXjX..o $ $ $ $ o o o $ $ $ = , = w 0 $ $ $ I l.i.S.$.o.mXmX..=.+.I.wXd X = $ 2 d.H.w.g.`.!.K d.t.Z g.P k W S.Z V V A R U C K 9.b.b.b.`.Q.8.c.l.I K V A 0.z.).C = F.",
"P A C C A Y A Z V L V y K p.V 1 1 1 2 2 P S.j.y t.`.s.0 , & s A.k 5Xc # f %.& $ $ k '.#XXX|.aX' # $ $ $ $ $ $ * * * $ $ = , * , 1 , = $ 0 p.9.R E.0XA.R.E.=.( } C.aXf % & & B.+Xw.r._./.Z.r.V a.p.V k u.Q.P C L V P 7.k J f.7.K p.].~.g.z.r.s.h.P S 1 2 & O q G.",
"u.K R V P w.C R A k h w y P ].h & , 1 , Z J J h p.b.p.e , #  .' p 5X< & o.f % $ & /.PX*XoXAXG., & = = = $ $ * = * $ $ $ , , $ * = , = & + e V w.S.|.zX,.%.o./ / h @.aX%.$ C. XZ V K f.r.C P r.g.U l k 0.j.f.0.K E E S.W J P k K 0.t.f.).v.r.0.7.S.z # & $ $ j OX",
"XXp.a.P r.y.t W Y t t w 0 ; E XXq ; 1 , k K K k 0.K Z h , ; G h @.@.X s A., 1 & e rXFXFXGX{.< , = , 1 , , $ $ $ $ $ $ $ = = $ $ $ $ , , * = 0 U L.G W.3.qX..( _ v j d 6X&.G.g.V I p.@Xj.V V Z V C C C ~._.K p.P C V nXnXI Z G W A Z Z Z V k K Z l l 1 & = o d eX",
"H.d.t.S.'.y.k e k k e 2 1 1 & G.C.0 K k e Z 7.V P Z Z k w y 0.R {.4 $ J.D 0 r.0 Z J.d.Y.%.= $ * $ , , , 1 = $ $ $ & = = = = $ $ * * = & , z G Z.;.:.s X.P.f ( ` x c & a OX~.y.P j.H.f.p.Z A C C A k V.'.@X0.Z 7.Z k m H V V h $.S.W C Z K K 7.P K Z , & = X ) 4X",
"h e w k S C k t e h j 2 , 2 & s Y.K r.Z V J f.K 8.K k C A A P f.!.7.t.N., V b.A h.8.n.Z O $ = * $ * = , 1 , , = & = = $ = * $ * $ $ $ , :.$.f._.E.3.0X, 1 4 ` _ c f & * , B./.P +X#.I ).M.S A G A K ].~.P V k K t.k 1 V K t = a C C K F.].(.a.n.x.!., $ = X o.%.",
"n T h w t t k h e 0 a v a 1 2 0 U.T M k J Z f.f.c.K k C G A 7.7.A K f.p.Z J W 9XtX9X).L = $ = * $ = = , 2 , , , = = $ $ = = $ $ $ * # f MXmX! 9.J.NX2.= w f ` ( b 5 & $ $ d U.d ! Z K 7.K K A K K a.@Xz.g.Z V K k & t b.P = $ h Z K `.KXLXI.0 j.w L.f n Y.q &.f ",
"5 x C.e e y k y w e 0 j D j 2 & ..@.w Z r.D.^.`.#X!.0.Z V V K A k V y V p.8.#.NXNX1.J F.C $ & = $ = = = 2 , , 1 1 , $ $ = = $ $ $ $ = l 0XvXdXW.K.cX~ & a ( ` / x * & 1 e 2 D M.9.C V k b.f.V p.b.Z r.y.a.a.0.k $ $ K 8., o $ A f.'.KXGXGXG.X 2 % ] 9XOXDXC.Y.OX",
"= 0 A.+.0 y k t w e 0 0 l G 0.Z +.K.V t.`.AX1X<X2X$X!.t.V y K K O.w.k d H.8.;.5.5.[ 9.Y $ $ $ * $ $ $ $ = = , , , , = , , = $ $ $ $ 2 D V |.ZXsXaXtXtXC s ` ( x 2 & , 1 h V Z  X#X7.0.V x.t.A 0.P k K K V y.L V k , ; * o o $ k '.SXGXvXgXd # , & - <.XX(.OXT.{.",
". a k J.h t k t w t w 0 e 8.l.r.S C W ^.#X1X2X2X,X%Xc.0.A t L S.pX0.T o.s N mX5.6.Z.f.G e = $ * $ $ $ o * * = , = = , 1 1 & $ $ $ , l $.Z.kXtX-XaXHXaXM. .`  .j 1 0 , q e v D M.*X;XQ.k P Z V C K U A V k R a , A t.0 $ $ * $ ; G /.ZX9X7 $ $ = , O ~ |.C Y.f #.",
"  e s.T M.e k t 0 e e 0 y v.n.8.V k k ^.#X<X$X@X,X$Xl.P Y V Z U D V A e $ X.VX5.MXU.D q , $ $ $ $ $ $ $ = $ $ , = , , 1 2 , $ o * q l V #.pXjXaXkX}.H.B...+.q.z , q C K G T l V E -X].Z 0.K R k K E k U C k < o & L /.2 $ $ & & = R PXO.X = * = 1 o ' jXY.tX^ D.",
"  $ G.Q S.C.t t 0 0 w 0 t Z L R.#.Z K '.!.$Xf.y $X<Xf.P K A k V V S R H.C.pXBXMXzX' X $ $ o $ $ * $ $ = = $ $ = = 0 1 , 1 1 , & q A V X.&.I.aXnX}.[.@XU.8X@Xq.h M H.#.+.P.$.k V I ^.;XXXXXr.0.U 0.r.& H G a , = $ $ M.{.= & = $ , M.FXd $ * $ = 1 o l {.PXtXtXtX",
"~ 1 q V.q.wXj e 0 0 0 w y K R A C Z r.!.P b.P a ).%XI V K A k V V U (.=X1X:X(.#.5 # = = $ $ $ $ $ $ $ = , * * , , = & , , , 1 2 t Z H MXIXCXsXsX X%X@XaXmXJ.mXN.U.L.n F } d 1 C d.n.#X|. X@X_./._.r.= ; = a 2 = = $ # I...X = $ , G.U.o $ $ $ $ = $ S &XSX|.|.tX",
"%.Y.+.Z M.rXD h t e e e A P J I P K 7.r.V K K Z 8.I k V A V h V K V V A .XKXg.t $ , 1 & $ = $ $ $ $ * = = $ & , , $ $ & = 2 t V P N o.kX.XtXpX(. X`.#XwXmXMXqXW.dXt.0.G C.L.[ 0XE.x.Q.}.S.b.%X`.G U = & $ e q $ = = $ j |.2 $ $ 0 M.4 o $ & $ = $ 1 U CX{.K /.rX",
"  2 D.B.N.H.H j t e 0 0 k A A Q q.K K '.A t k Z A V k A E Z K A K L P N /.*Xt.0 * = , = $ = = * $ $ $ $ $ $ $ $ = = * o k r.x.@Xr.j.Z.}.*XsXU.P t.x.*XCX|.kXpXpXJ.R.L.aXeXqXkXJ.U K 7.(.G.u.a.@XC h 1 * & , a = $ * $ & L.V., $ l 2 $ * $ $ * * $ e V {.N.7.=XAX",
"  & 1 H }.oXA.h t w 0 0 t V D F C V Z `.r.e k k k k C L e.U P P P J 8.y.^.[.V 0 , , , , = $ = = * $ $ $ $ $ * $ & ; $ o C %Xp.c.K g.j.Y W W Q.s.Z f.]..XFXDXoXD.L.U.L.7XxXfXE P r.8.f._./.D.J.8.I h 0 = = = 2 q , $ = o ' oXG v C 2 2 $ $ $ $ * = y A }.q.{.G.v.",
"  & w a v q.R S t e e 0 t l l C Z k Z K R q.C k k Z K Z A 7.r.A K f.i.7.L A t 0 w e w 2 , & & & = $ & $ o = = $ o * , $ a @X0.Z J J Z k J I b.7.V K E t.tXJX XK C x L.E.cXL.t L K I i.b._.u.I.V.V k e = $ & * , , = = # ) P.Y.Y.< a S e q o $ $ 4 #.J.^.aXeXN W ",
"  & 0 0 w w y u.D w y e h C l C I Z k t ^.(.h Z S Z p.0.k V 0.l k K p.g.K V k ;.#.9 q V 0 e e = = 0 k = - V A 0 $ 0 g.0.Z !.0.0.i.).0.J S.).f.Z Z C A 8.a.I.|.H.G e ' L.qXH J V K V k 7.@Xf.q.I.C h q , $ * $ * , , = # ~ L.eX*.X K rX.XR $ $ < 6XBXsXN.vX*.*.P.",
"  , 0 0 t y h R P.w t y C R I 0.s.V Z 9..Xq.y L g.V I 0.A C Z y 1 e e U F.k w :.pXh S s.Y S V h V A C h k E A k j O.@X,Xg.7.P 0.^.#X^.g.D.w.I r.I A 0.j.'._.V.Y V D x 2 s W Q.E K k V P p.c.'.(.N.j , 2 $ * $ = = = , $ 7 9X4X%.= N.wXFXY.* X c cXfXJ.{.hX4XX.l ",
"  ; 0 w y y y e $.H u j } O.p.^.L V Z z.=X0.Z V E.X.V V K K P L q 0 & e ^.Z v.Z #.N.7.K V k Z P 0.K K E Z A V V A G 7.@Xn.I r.!.'.R 7.Q._.R y.x.7.I 7.P 0.%XC ; x F p , L S.~.'.q.P K 8.i.`.1X X(.@.$ 1 & $ * = & $ $ X < L.d <.5 +.C.L.' * o F JXuXG.tXZX..$ h ",
"  & 0 0 y k y 0 e U.v x ( s 2 S K K 9.#X-Xt.Z Z -.-.Z S K s.x.t.e 1 = 2 d.y @X%Xn.a.K Z h J b.b.y.i.l.f.r.f.I Z V E q.P K Z Z ~.D.V 7.j.p._.0.7.l.l.l.w.J h.e j v h X ) }.e.$. .fXjXyX.X/.Q.Q.].G.Y.= , = $ * = = * a C #.5Xs <.~ *.wXH X * $ x KX.X|.rXtXfXlX}.",
"  & 0 0 y V y 0 1 T 4X/ b 2 , V P 7.d.a.I.N.N K Z 1 k K K !.^.k ; 2 ; 0 S.2 t 7.P A K Z P 7.f.l.0.~.#Xa.h.b.8.P l K K Z C V K d.E k K b.A A r.T [._.x.y.+XS.l d w ; o.wXD < d ' 0XW.$.aXrXoX].r.B.tX4 $ , = $ = = q p.XX=X{.{.6XdXpX.XY.5 & $ a @X_.rXwXZXZXlXY.",
"  $ 2 0 t k e w h h T.8Xa 1 1 k A y C Q N.q.K L 0.0 2 k 7.U.H P 1 1 , 2 {.h ; , = = S E f.h.r.).F.Q._.r.K K r.C M i.K P K K r.~.t.k V p.F.K 9.#.F.z.0.K H.].D & q *.9Xa $ o ' W.$.5XkXA.9.q. XZ.N.J.p o , , * $ $ O.$X-XsX/.XXtXeXD./.CXL.X * 2 7.P M.tX Xh * b ",
"  $ 2 0 y t 0 e l b V wX' > w e C 2 y F +.W S J r., , 1  .<.& M.C & = q oXa , 0 , ; C e.I P 7.p.g.8.P Z K C K P W.U.R U K p.r.Q.d.C V Z 0.7.K k g.v.P Z N  XI.4 6XP.= $ = $ ~ [ 2.gXB.H.E y t @.}.oX#.$ = , = & * G.<X&XaXjXY.{.|./. X].U o * 2 S A L |.s $ # c ",
"  $ 1 0 y t 0 a b D k G 8X5 t y C 0 w v F V Q ].e.q  .: P.] % p z 1 & , eXf ; 2 , 0 k k L K V V V V S M.Z.C C Z nX;.y k 7.P J %X'.A C V V V V V f.n.f.I Z y.V.wXT., $ * * X ] zX2.X...L.G q 2 l H +.Q e $ , , $ 5 XX@X&XCXuXhXU.tXrXoX$.- $ $ q k C u.' $ = & f ",
"  $ 1 q t e 2 a F D k : o.<.0 k V 0 0 C F o.E.rXY.}.XXC.<.o , ; 0 s ; & P.) > , = w t.f.p.8.d.E J V w.N.! 2 C C V t V A 7.V r.l.~.D.V G U A A Y l.t.H.Q.w.s.'.O., = = $ = $ - ~ p ' 1.;.(.s.H f e ; k W d $ , $ / :X1XSXPX5Xx Z..X}.5 $ $ = = z A d.D.= & = & 5 ",
"  = 1 e h e 1 a F D y 1 1 8X' k y , 2 y &.hXU.pXCXHXFXZXg # 1 2 2 o.q % $.$.; v 2 0 p.p.`.7. X*X'.0.V l w o e 0.K 2 D S.A k h L _.#X0.A A A A Z.x.K T R.k J.H X = = = = & $ * X - mXMXE.m.8.E.0Xj e 0 U &.o = $ I.2X:XGXiX*.O z CXQ $ * = = = A ^.e.e.= $ * $ - ",
"  < 1 q t w 0 a } D w , : ..8Xk q 1 9 } uXCX.XPXSXFXxXjXn $ , 1 ; %.' % s &.T HXC.; , q A 1 OXLXLX&X7.K k $ $ K n.U b D U A U Q.h.!.q.7.P Z 7.P Z Z Z A D C.* * = $ $ = $ $ * * o >.bXB.S L.BXMXH y 2 e $.d $ $ Y.KXPX=.&.oX&.&.DXq., = = $ , a.S j T $ * $ = T ",
"$ e h w V Z k h } v q , e y 6Xo.: 2 q 4XxXeXY.GXIXjXbXaXN.q = q : ' ;.: 1 L.{.CXoXq & : ; ; K.IXGXPX*Xz.S * & , E M.s k R 0.F.R y.P k s.s.V g.).M Z V j.H.2 & & $ * * & * $ $ $ , @.uXP.aXJXgXo.y k 0 ; l L.- X +.LXeX* $ D XXoXCXd., * = $ 2 Z.$ H X.o = = w.@X",
"k V K U K P A P t.K y w h k +.0Xq q ' 7XfXuXDXuXjXgXdX{.c.P , 2 e d 8Xa > o.|.F.H.h ; , 2 : 4 0XfXuXAX^.e & & e / x V U v +.t.k Z K C K K V R a.V d.z.:XD.$ 1 , & = = = = * = # d JXZXsXrXrX|.Z X.l w $ & H *.o 0 AXK.$ = = D 7.{.XXe $ = * = 4 $ o.~ o $ t 7.K ",
"V k k r.7.K ^.^.f.).p.9.K C w 4X' ` 6XeXcXFXLXZXZXwXoX{.&X:XR 1 t 0 %.m % x 5Xq A.O.& 1 0 0 0 0 U.ZXM.t , = , b b N.j.Q (  .Z C C C Y K V Z Z P y ~.:XC.< = & ; , = $ = = * = = * &.tXsXrXhXJXA.$.C h $ * $ o.:.& oXK.X = $ & H G.B.Z $ $ = $ * , ;.7 $ * e Z C ",
"C V k A !.F.g.:XD.'.1X@Xa.t.K  .8X=.ZXFXT.|.=X'.~.D.AXAXAXPX{.a 0 1 s $.0 , T.} G.+.& 1 2 w e w O.GXR , , ; j b D.].H b / } k U e.q R K V q.P D.0.&XC.o $ * & & , , $ = , $ $ & $ U (.sXqXhXU.S y C V < $ = & 8Xf b f o = = $ 4 L.O.^.x = * = o n ;.* = $ , h  .",
"Z K A k J x.I t.].K ].KX].&X`.G.qX&.I.+.h  .^.I K Z.JXUXuXiXpXe & 0 : C.B.;  .rX}.C & , 0 e j w a DXM.1 ; s F +..XJ j v v b l S C : w.g.t.d.z.-XoXq.q = = $ $ = = = = $ , , = o h ].`.(.qXsX{.0X:.V K e $ * $ d 8X- $ = = = $ 7 W.Z /.ZXO.o & & 4X~ O = $ * & 5 ",
"8.g.g.g.Q.l.8.7.p.R J `.@X/.:X~.dX6Xk t e e l T S #.vXNXzXdX.XO., 0 0 k }.e q yXT.k , q w a b c s I.D.2 d F a I.+.0 } h x a v h q 2 w.^.W A R V.A., & , , = $ $ = $ = 1 , , $ - J.#X@X=XpXsXHXfXMX! V t $ * * # %.:.X = = = $ 3 0X' W.oXn $ X n <.$ = * = = = & ",
"E I f.;XKXAXDXSX:X!.P 7.s.P &X[.gXeX1.m : e q A w 4 pXvXNXdXrXU.H 1 q w C.E v tX.Xe 0 e e x ) ] f a U D D e s Y.e j F q c 1 p C k q e 0 1 1 e O.+.; , & & = , = * 2 e._.V a , ' HX*X_.~.a.pXhX*XpX#.K J = = = $ = <.7 # * * = $ 8XhXU.H.; O 0 aX~ X = * * = $ = ",
"Y.U.B.x.@X:XDXAX#X).x.P K J ^.a.qXaXmX6.f 0 q C q d [.ZXbXjXFX .G t 1 9 &.U.U.P.G.t w h c n a p a a l R y ; n A.q F k 0 ^ p & 2 y y 0 2 & z M.#.d 1 2 2 , = , , 2 O.}.-X`.K S W }.].f.K M X.9X|.M.x j q * * & = o ' <.X = * $ d uXZXA /.L.@.|.4Xo * * * $ & = & ",
"D C.|.OX]. X].i.m.@Xn.i.V Z J N A.pXF.BX8X9 e d.q h }.'.IXrXAXl , H k 2 *.o.wX+.J.S U R h s h h j C e Y B.; @. .s D h 0 b j ; $ & 1 2 , 0 A.s j : , 1 1 0 1 , ; e a < q G j.Z C M I y.K h $ * , q p s 2 & & $ $ * & 8X] $ = * ,.cXtXA.5XtXoXZX].2 $ = 2 0 0 t k ",
". 4 l G H C.ZXDXAX&X].G.C.A.G Z Z N.u.DXoXw Z  X, 0 Y.D.].'.).h 2 1 C.tXhX6XfXeXs.'.XXg.h , 2 N e.q.e < wXF K...v k 0 0 j l 0 = $ $ , $ X.n w a & , 1 , , 1 0 1 = = $ o = }.D.k A C A P V e k S K P J K L y 1 = = o ) 0X* * ~ 1.fXuXCXtX{.C.S.#XK 1 2 0 e l C D ",
"  ~ l h 0 % a H @.M.N.C.T.9X9XK A A d.@X#Xe +.OX, ; +.|.9.7.0.w 0 , oX&XG.dXjXiXF.}.CX;XD.2 q D.DXtXU 0  .eX5X..l t ; , a s 2 , = $ $ a $.e k = & , , , , = 1 0 1 = 2 k Z.I. XZ V Z V V V k V r.7.K F.F.l.).r.J h = $ 8X~ ~ 4XeXcXFXSXFX-XI K U Z e 1 t C F D D ",
"@ g q e l , $ $ $ # 1 C V.rXdXP K A t.b.~.w T.5X9 e w |.O.k S w 2 1 D.]. X|.uXFX|.D.=X<X].s e wXeXI.B.h w  .Y.n k q & , 2 d 2 ; , & q q.C u.0 $ & & # ; 0 e y M V h e t 1 , /.^.k k K Z V Z k A v.a.Q.:XS.`.1X'.f.R h ' <.%.ZXFX%.|.*X@X'.y Z M Z k 0 k G b D l ",
"8 5 0 2 l p & , & & ; e R CX6Xy S C e.j./.l 6X,.: e q  .}.A k t , , p A.jXgXjXZXtX/.*X%X=X .a v A.}.O.0 p V |.D y e = 2 < s d & , & L.M.M. .$ & , b O.B.M.L k e a k 2 $ , & s ~.P t K P Z A A V K Q.J d.XXK &XKX].=X`.H.qX%.J.f $  .H.7.P M.W.&.U A w j b F x < ",
"8 + e 1 e j , = $ $ & = P rXcXF.P V M.D.#X/.gX*.i y t 0 G D.U l , , ; & %.xXxXtX|.oXLX1X1XC.e 0 H U.t s ) O.wXH h w ; a , a } , # - wXO.T , b T.Y.K. .j , & $ = , y t ; , & = e F.S.Z J r.l.f.t.a.f.8.I f.P K #X@X/.*X/.dX4X& X = = s T E A.vXNXMXqX*.l F F d & ",
"8 X w q 1 j 2 $ = $ $ $ N oXfXF.g.A +.A.z.oXBX@.u w 2 0 w U ~.K 1 , , ; p T..XDXtXA.wXSX1XOXw t v V.t ^ c K.C.L y e , s , 2 / v 0 s Y.N.R J.Y.@.s , # ; , & = = = 0 y t = = = , 2 B.J.M.P 8.x.;XKXAXDXSX&X!.7.7.f.0.&X[.gXeX1.- o $ , C Z H wXvX5.vXjX+.F F 2 = ",
"  o , q ; q j = $ & $ * w I.zXD Z K O.A.B L.BX XK 2 0 0 e w A d.q , & = ; t G.V.V.k 2 tXLXOXe w h #.l b e $.$.A.h p , a , , x l w O.J.J.D.Q w w t e 0 p 2 & = , = , t V w = & ; ; 1 v A.|.L.V.b.#XAXSXAX&X).f.P K J Q.S.mX6XBX4.5 ; 2 V 1 H ].ZXbXfXuX@.v b , = ",
"  $ , , < 3 h a $ $ $ $ e F.jX}.7.J e.J.M 1.qXf.Q.V 0 0 , 1 0 #.q , , , ; x E.; 0 S % =.PXQ 2 e 0 Y Z.D n #.X.L.h e 0 a , & , v a V.oXL.d & ; , ; , 0 q q ; ; , = = , t C q = * , , & , T L.Y..X].=X].i.m.@X`.8.Z Z U Z J.pXD.NX;.% 2 w.= 4 }.'.IXyXAX+.D x & = ",
"  $ , < 6 6 = k t & $ $ z z.cXU.y.I T H.C VXP.y Z V , = = 1 0 1 & , , , & d o.; h E & +.AXh 1 w 2 w oX}.A.l o.K.y 1 w a , = & 2 Q U C 1 ; 1 0 = = , , , , 1 , & = - $ & e S a & $ $ = = , = , l F K.FXDX*X#X~.D.M.A.U Z Z Z.t.ZXoX; h {.= & P.S.XX].%XG D e f wX",
"  $ , g 7 $ * 2 V e , $ q K Y.hXe.J Y N.&.vXU S A e , $ & , , & $ = = & $ x ' ; t d.: b Y.< , 1 0 t G..Xe.0 *.@.t , , h , = 1  .W k v t 0 e e , , 2 , , , ; , p 1 = & & * 2 k h 2 $ $ & - ~ - $ o $ j +.C.V.Q  .$.5XE.Z G L j.#X#X,  .OX$ o @.}.9.7.7.C D l |.*X",
"  o , 1 & & & , w q q p p z k M.F.J U /.hXtXU.$.h 0 1 & & & & ; & & & & # H -.& 0 u.t , 2 ; , 1 e t w.rXk j 5XwXn 0 k a $ $ 4 &.a = x F j 1 1 2 2 0 e 0 q d d m 2 , & & & - 5 2 l h , & - 6 = , $ * $ o X $ $ - H rXdXK R A w.b.^.= T.4XX = e rXW V G h l a D.].",
"8 + $ 1 = & & , 1 1 , m p 1 q y A Q I {.ZXrX&.a 0 0 1 , , , = $ $ $ $ $ X o.:.% > M.C 1 1 1 , 2 0 e F.CXwX|.(.V.l 0 h q , $ ' H $ $ 0 D l l q , < ; 2 1 m m q 2 2 , = - 3 6 6 & = q y w g 5 $ = = = = * = = = o q CX6Xy A C t.z.(.p 6X,.# 1 & m Y.A k l D 2 p J.",
"+ o & 0 , , = = , , d 5 ; e 0 0 e k V Z .XC.l v e 0 0 2 2 2 1 = = = * = & L.o.: 1 @.+.w e w 2 0 0 h D.rX/.G.C e l 0 0 0 $ g $.& $ & 0 h e j l l j e e 2 5 , & = , , < 5 * $ 5 = $ & ; p ' q 1 & $ = = $ & = * $ e rXjXd.R k #.D.#XG.qX%.# & = $ H S.K G v < $ & ",
"  $ w t 2 , & * & 2 g = & & , q t t y V ^.P k F v a 0 0 0 0 2 0 2 , 1 1 e {.F j l o.Y.k C C k y t S XXG.L C 2 h l , , ; 7 ;.< & $ = 0 e h 0 2 e t k k z v w q 2 1 1 q , = & 3 7 & < & 3 g , 1 1 , = = = = = $ $ M |.fXQ.j.Z V.Z.^.oXBX) # = = , ; S ^.P h = = , ",
"  ; y t 2 = & $ - d - $ $ = , 0 y y k V p.y e y l F v l k t e 0 0 q e p O./.F b l f 8XC a h l C V 0.M.B.C a 2 e k * * = 8Xf X 1 & & 1 2 a h q , ; 0 2 d p w e a h e e q 1 4 3 6 4 , $ 4 a 2 & = , = = = & * = * w I.zXC K K M.A.N L.BX Xk & = , 1 e E d.0 $ & , ",
"  & w q 1 & $ o { 5 X & = , 2 w e t y V e.e 1 0 t h j v D D C C C D G F /.R e w w : :.@.> 2 1 j G.].D.C 0 a q 0 h = # %.&.X & , , , , , 1 0 q w w q 2 - $ , ; = , q 2 0 0 e e g 2 = * - , ; = & * 3 , $ = = = $ q G.jXJ.P K q.G.y 1.qXl.^.e = , q t e #., $ = 1 ",
"  & 2 2 , & X 6 6 o $ , 2 0 w 0 0 2 q K t.2 , 2 q w 0 2 e j l C D D l W Q.C k y t w m 9Xw 0 ; O.SXG.t C k q 0 , h 1 6 8X, = , ; 2 e 1 = 2 0 ; w k y h 2 & & , & * d , 0 2 0 0 g d & 5 5 $ = = = 7 6 ; $ * = = $ C g.cXU.9.I O.D.l VXP.M K V & 0 e 0 2 2 $ * = 1 ",
"  & , , & - { 6 X & , 1 0 0 2 , 1 1 , R '.q , 1 2 2 0 0 w e 0 0 0 q e y.V h k h e q 1 8XL.9 & a }.9X%.p l h , = 0 e <.^ & 1 1 ; 1 q , , , 2 0 y k y t 0 0 0 , 2 S H w q 1 & = < 5 & 6 5 $ & & 6 7 * , $ $ $ = $ q I Y.dXR Z Y N.&.BXU S A e 2 q 2 2 = & = * = , ",
"  $ & $ - { { * & 2 2 0 1 , & & , 1 ; q.-Xp 0 0 1 1 0 a a w e 0 1 , Z Z 1 0 1 w e e w n dXG 2 h H.H.HX=.w D 2 1 : o.4X> 2 , = 1 1 , 1 1 d a w y , w e e k C y r.=X(.A 0 1 , 4 , 5 = g = $ = - - $ = , * $ = = - 3 z k M./.Z E ~.hXeXU.o.2 2 e = 1 , = = * * , , ",
"  X o 6 { 7 # , 2 0 0 , = = = = , , 1 D.tXq 0 0 2 1 2 e q 0 e w 1 e Z 2 , 1 , , 1 , , 1 U.ZXOXeX}.T CXjX..h l & - <.b ; = * $ ; , 2 z ' d j 2 1 = h A K U A t._.{.L.e.h , & $ $ o 5 g - 6 - & & & = , $ * = = 6 - & 2 0 t D S {.FXwX' - $ 1 0 = 1 = = = * & , , ",
"  3 >.{ , ; 0 0 w w , $ $ & , , , 2 1 D.iXp 0 q 0 1 1 0 0 0 e 0 t S 0 , 0 , , = , , = V #XoX|.wXwXU.eXfX8Xd v ; %.&.> q $ & , 2 e C T T s e e t K w.K C V U H.V H H t a 1 = $ & # 6 >.{ 7 & = * & , ; $ $ $ 5 5 & = $ * * , 0 Z *X#.X & , 0 = , 1 = = = $ * , , ",
"6 >.g , 2 0 0 t y w = $ $ $ = 1 0 2 : B.cXx 0 q 0 2 2 0 0 w C t H k , 2 0 , = , 1 , 1 P !.P N.oXZXSXuXcX,.%.F f 6Xp & w t y K p.8.K P J R S C V K C C A k /.W w H n 1 , = = * = # { { X $ $ * $ & a 2 = $ - g * & = & & = = , k ^.a $ $ , 1 = , 1 = = = * * = & ",
"7 = 0 e e 0 e h t , $ & $ $ & 1 0 1 ; V.cX) 9 0 0 0 2 0 w e Z T -., 1 1 2 1 , 1 , = e Z K I J -XDXSXuXfXtXeXK.*.*.& q A r.!.@Xf.'._.I r.0.k k k k A A k R .XV w  .X.; $ * = * & & { 3 $ & = * * = 2 2 0 1 m p ; , = = = = = = k a.0 $ $ , , = = , = $ = = = = $ "
};
