/* XPM */
static const char *morte_WE[] = {
/* columns rows colors chars-per-pixel */
"128 128 167 2 ",
"   c #050505",
".  c #080807",
"X  c #070708",
"o  c #0C0C0C",
"O  c #10100F",
"+  c #0F0F10",
"@  c #100F13",
"#  c #0F1011",
"$  c #131314",
"%  c #171817",
"&  c #181817",
"*  c #171719",
"=  c #18171B",
"-  c #171819",
";  c #1B1B1C",
":  c #20201F",
">  c #1E1E20",
",  c #201F22",
"<  c #1F2021",
"1  c #232324",
"2  c #282827",
"3  c #272628",
"4  c #28272A",
"5  c #272829",
"6  c #2A2A2A",
"7  c #2A2A2B",
"8  c #2B2B2B",
"9  c #29292A",
"0  c #2D2D2B",
"q  c #2A2A2C",
"w  c #2B2B2C",
"e  c #2B2B2D",
"r  c #2A2A2D",
"t  c #2C2C2C",
"y  c #2D2D2D",
"u  c #2C2C2E",
"i  c #2D2D2E",
"p  c #2D2D2F",
"a  c #2D2C2F",
"s  c #2E2E2E",
"d  c #2E2E2F",
"f  c #2F2F2F",
"g  c #2B2B2C",
"h  c #2E2E30",
"j  c #2F2F30",
"k  c #2F2F31",
"l  c #2F2F32",
"z  c #2E2E30",
"x  c #302F32",
"c  c #2F3132",
"v  c #303030",
"b  c #303031",
"n  c #313131",
"m  c #303032",
"M  c #313033",
"N  c #313133",
"B  c #313132",
"V  c #323233",
"C  c #333333",
"Z  c #323234",
"A  c #333334",
"S  c #333335",
"D  c #353535",
"F  c #343436",
"G  c #353537",
"H  c #353536",
"J  c #363637",
"K  c #373737",
"L  c #323234",
"P  c #383837",
"I  c #383837",
"U  c #353538",
"Y  c #363538",
"T  c #363638",
"R  c #373739",
"E  c #373739",
"W  c #37383A",
"Q  c #383838",
"!  c #383839",
"~  c #393939",
"^  c #3A3A39",
"/  c #38383A",
"(  c #3A3A3A",
")  c #3C3C3B",
"_  c #3B3B3D",
"`  c #3A3A3C",
"'  c #3C3C3D",
"]  c #3C3C3C",
"[  c #3C3C3E",
"{  c #3D3D3E",
"}  c #3D3D3F",
"|  c #3F3F3F",
" . c #3A3A3C",
".. c #3F3F41",
"X. c #3E3E40",
"o. c #403F42",
"O. c #3F4042",
"+. c #404040",
"@. c #404041",
"#. c #404042",
"$. c #414143",
"%. c #424243",
"&. c #424244",
"*. c #434345",
"=. c #444444",
"-. c #454545",
";. c #444446",
":. c #464646",
">. c #424244",
",. c #484847",
"<. c #454548",
"1. c #464648",
"2. c #474749",
"3. c #464649",
"4. c #46484C",
"5. c #49494B",
"6. c #4A4A4B",
"7. c #4A4A4C",
"8. c #4C4C4D",
"9. c #4D4D4F",
"0. c #4A4A4C",
"q. c #50504F",
"w. c #4F4F51",
"e. c #4F4F50",
"r. c #4E4F50",
"t. c #4E5051",
"y. c #515153",
"u. c #535354",
"i. c #555457",
"p. c #555557",
"a. c #575757",
"s. c #565657",
"d. c #555555",
"f. c #525254",
"g. c #565658",
"h. c #565759",
"j. c #57585A",
"k. c #59595A",
"l. c #5B5B5B",
"z. c #5C5C5B",
"x. c #5D5D5F",
"c. c #5A5A5C",
"v. c #5E5E60",
"b. c #605F61",
"n. c #5F6063",
"m. c #606060",
"M. c #616163",
"N. c #616263",
"B. c #616264",
"V. c #616164",
"C. c #626264",
"Z. c #666668",
"A. c #67686B",
"S. c #6C6C6E",
"D. c #6A6A6C",
"F. c #6E6E71",
"G. c #6F7072",
"H. c #727274",
"J. c #767679",
"K. c #767879",
"L. c #7A7A7C",
"P. c #7E7E80",
"I. c #7E8283",
"U. c #828285",
"Y. c #878789",
"T. c #88888A",
"R. c #8E8E90",
/* pixels */
"o . . o . . $ - . % $ % $ o . o . o - o .     . o % ; -   . . $ ; % o o o $ % o $ % . . . - % - 1 % o $ o o o % % $ $ $ % % $ $ $ - $ % $ % % $ % % $ o . o o % $ o $ $ . . o $ $ $ - % $ o o   $ o o $ o $ o . % 5 > > > 1 * $ o $ t 1 o   / t $ ; $ $ . ; 6 . ",
"$ $   . o o o $ $ o $ o % % o . o o $ $ . o . . . $ % 1 $   . . . % % o o o $ - o o $ . . o % - - 1 ; $ o $ o . o $ % - $ $ % $ $ O o . o o o . . . o o o $ $ o o o o . o $ $ $ % - % $ O . . $ $ . o . % $ . . 1 ; 6 > 6 ; % o o 1 1 $ o 1 ; $ .       o o 1 - ",
". % .   o o . . % $ $ % . % % o o $ $ $ ; $ o . . . O - 1 $     o o 1 % o o . . % $ o - $ . o $ o $ ; 1 - $ o o o o . $ o $ $ $ $ $ o $ o $ $ $ $ $ $ o o o o o o o o o $ % % - % - $ o .   % $   $ . $ $ $ . 1 1 t > 6 ; * $ . 1 h ; o 1 1 o   . . o o   . o 1 ",
"    $ o   . . . o - $ $ o o ; - % o % o % % o o     . . - 1 % . . . . 1 $ $ o o o % $ o % - o . o $ o % 1 1 - % o o $ o . o o o o o o $ o . $ $ $ $ o o o o . o o $ $ $ % ; % % o $ .   . % $ . o o $ o + o ; ; 1 t 1 1 1 $ + ; C 1 o ; ; $ . $ $ o % o       $ ",
"  . . $ o   o . . . $ o $ $ . - % o . o o o o . o .   . o $ ; ; o   . o 1 $ $ o O o $ % . $ - $ . . o $ $ % ; 1 1 % $ o o $ o o . o o o o o o . o o o . o O $ % % $ - ; ; ; $ o o .   $ - o o $ o $ o o . 1 > 1 5 ; 1 1 - + * t 6 . - - $ % % $ o o   . $ .   . ",
"  . . . % o   . . . . - % % $ $ $ - o . $ o o o . o .   . o - ; 6 ; % . % t . $ . $ $ $ % o o % - o o o o O $ $ - 1 1 1 - $ $ $ o o . $ o . . o o o $ o O $ - 1 1 - 1 ; % % o . . o % - o o $ $ $ o o X 1 1 * 5 ; > q 1 + - ; 6 o % - o % o o ; 1 / t .   % .   ",
"o . . .   $ o   . . . o $ % $ % o - % $ o $ o o o o . .   . $ ; ; 1 1 ; o m.1 . $ o $ $ . $ $ . o ; ; o . . o o o $ % - 1 1 1 1 1 ; ; ; % ; - % - - ; 1 2 1 1 1 ; ; - % $ o . $ % - $ o $ $ $ % $ o o > ; ; 6 > ; 1 1 $ - ; q - - -   $ $ - v t - - v D $ $ $   ",
"o $ . . .   $ o   . . . . % % % - o % % $ $ o $ $ $ % o o . X $ > , % - % :.- o ; % o $ % o O ; $ . $ - $ $ o . . o o o $ $ $ - ; 1 1 6 - ; - ; 1 - 1 - ; - - % % $ . . . $ - - $ o $ $ $ % - % o $ 6 ; ; t q ; > 6 $ ; 1 t - - 1 o o $ ; 1 ; . . .   - 1 o o   ",
"o o $ . . . . $ - .   o o o % - % $ - % ; - o o $ $ - % o o o . . ; 1 % % 1 ; . . % 1 $ . $ o o $ - $ . $ ; 1 - O . o o o o o o $ O % o $ - ; $ % $ % % $ o o . . . $ - - - $ $ $ $ $ $ * $ o o ; q ; 1 Z q ; 6 t $ - > D ; $ - . . $ 1 t $ .           ; % o   ",
"o o o o . . o . $ % o . . o . $ - % % $ % - % $ o o % - ; o o $ o . $ - $ - v t v ; - * $ . o o o o % - $ . O - 1 1 - $ o o . o o o o o $ o o $ o . . .   . . $ - ; ; - $ o $ $ o % % % $ . + 1 5 ; 1 h 1 > 6 5 % * 1 t > - 1 . . % 1 1 $               . ; o o ",
"$ o $ . . o . .   o ; o   . o . $ - $ $ % $ % - % $ $ o % ; % o $ o o . o $ o $ / :.5 1 o $ $ o o o . o $ - % o o $ - 1 1 1 ; - $ $ o o $ o o o $ $ % ; : ; - - % $ $ o % $ $ & - % - O o ; t > > Z v 1 1 5 1 $ ; 1 _ 1 - 1 . o - 1 ; .   . % 1 6 6       1 - $ ",
"; ; o $ . . o . . . o - %   . . o o $ ; $ % $ % ; 1 % + o $ ; - % $ $ % o $ $ % . . $ ; o o - $ . . o $ % $ $ % - % $ o % % - ; ; 1 1 - 1 1 - 1 : ; ; - - $ $ $ $ % $ $ % - - - % o o - h 5 > q h Z 5 5 q ; * ; 6 r.6 $ > . % 1 6 1 .     % ; ; * 1 D     - ; o ",
". - 1 % o o . o . . . . % - .   . o o % ; % $ % $ ; 1 - $ o % - ; ; - o ; % o o % - $   . . . o $ $ . . $ - - % % % - - - % $ $ O $ % o $ o % o . $ $ o $ % % % % % % ; ; - % $ o - 1 t 1 > t v q 5 6 5 - % > D f.q * ; . - 6 1 -   . .   o ; ; t 1 5 2   o -   ",
"o o % 1 1 o o . o o o o . $ - o   . o o o - ; % $ $ ; 1 ; $ @ $ % - ; % $ o % o o $ - - $ o .   $ o o o . o $ - ; % - % $ $ % $ - - % % - ; % - - % - $ % $ % ; - - - - % o . - 6 t 1 1 v v v 1 5 6 1 * ; > &.u.> - - $ % 1 ; $   o . . - 6 t 6 $ v v v . o %   ",
". o $ o ; 6 % . o o $ $ o o o $ - . . $ O o $ 1 1 $ $ - 1 ; - $ % * * ; 5 - $ o $ o o o $ % - $ - 1 . $ $ $ o % $ $ $ % % % o O % $ o . o - $ - - % ; 1 1 ; ; - ; - $ . $ 1 h v 1 1 t v Z Z q t q > * > 1 9.5.% ; ; O % 1 ; -   . $ - / / 6 %.%.[ 1 v / $ $ % . ",
"o . o o . % t 1 $ o o $ $ o . . o - % . O % o o - 1 % $ $ - 1 1 * % * ; > 1 5 - . o $ $ o o % ; % % $ . . . o $ - ; - % ; - ; 1 6 1 t ; 1 ; ; ; - : ; - - % % % $ o % 6 [ R 6 ; 1 v D v v q Z h * > 1 Z h.[ % 1 - o 1 1 1 -   o o 6 %.[ 1 o . 1 [ t 6 / -   $ o ",
"  o $ . o $ o 1 v - o o o o o o . o - - $ o % $ O $ 1 1 - o $ ; 1 1 - % * $ - 1 1 % o $ - - o o % ; - o . o o ; t t ; $ o - % - - $ % % $ % % % - - $ $ $ . . % ; v [ h 1 ; t R R h q q v v 1 * 1 6 X.x.q * 1 * + 1 t 6 $   $ $ v :.6 o         - %.1 C 1   o $ ",
". . o % $ o $ . % 1 1 $ $ o o o o o o % - % o o $ $ $ % 1 ; $ o ; 1 1 - @ o $ $ 1 t 1 % $ - ; $ o $ - % % % % $ t ; . $ ; 1 % $ % - % % - 1 - - % $ o o o - h v t q > 1 h R D R t 5 Z D q - ; 5 v r.6.> ; 1 $ $ t t 1 o . % $ 9.2.% X . X X   .   D u 1 t . $ o ",
". o . . $ $ $ o $ o ; 1 ; $ o o O $ o o o - ; $ o % $ $ o - 1 * + - 1 1 ; $ o % % $ 6 v 1 % - ; % o $ % % - 1 $ 2 . : D % $ ; 1 1 1 - % % o o $ % - ; 6 [ [ h 1 1 q Z v h q t t h R R > ; 1 Z 2.d.%.* 5 1 % * 5 q 1 $   o $ x.k.$ X     o     X   v 6 - 6   $ o ",
"    . o o . $ o $ $ o % 1 2 - $ $ $ $ o o . o : 1 $ o % % o $ 1 1 $ $ ; 5 1 ; % $ * % ; ! q - $ % % $ o $ % 1 1 o   / - o / %.; $ o $ * 1 v 6 6 v [ %./ 6 > / X.X._ v 1 q 6 6 v _ q - 1 h D 9.h.6 - 6 ; * ; 5 6 t $ . $ $ m.m.$ .   h m.S.:.  X   h - 1 1   $ o ",
".   . . . o . o $ o o $ $ - 1 5 $ $ $ $ o o o . % 1 - % % % O $ % 1 1 $ $ > 1 - * $ - * % ; q 1 $ % - % o - - ; -   t % 1 d.- % $ o > 1 1 > 5 &.2.q * 1 _ 2.%.Z q t / v h Z [ Z > ; 1 Z &.6.&.* 5 Z ; o > h 6 1 $ . * % m.C.$ o o 9.d.R 6 A.-     1 - - - . $ . ",
"D -   . o o o o o o % o o % % > q 1 $ $ $ - $ $ o o - ; % % $ $ $ $ ; 6 - o - ; * * $ $ - % * 6 2 % $ ; % $ % - 1 o ; t - %.1 ; $ t / * $ ; &.q o 1 6.r.R t _ 1 D &.v t D / 1 * 1 t v %.5.D * h h * + 1 h q 5 + o % % d.C.$ o $ k.[       d.t     1 $ ; $ o $ . ",
"% t 1 % . . . o o . o o o o % % % 1 v 1 % $ % % % o . $ - - % $ o $ % % 1 1 - % - 1 ; * $ - ; + ; q - % ; ; $ $ ; 1 o R ; %.1 1 > f.; + 1 v * $ %.k.2.1 t q * [ X.5 h D Z > > 1 t R _ 8.h * / 1 o o 1 [ v t . . % - u.h.$ o o k./   . .   x.;   o 1 . ; . $ $ o ",
"    $ 1 1 $ . o . o . o o $ o o $ $ - 6 t : $ - % $ $ o o $ ; - $ . o % $ - t t 1 1 > 1 ; % * > $ % 6 1 $ * 1 % o 1 5 - t h 6 ; 1 / % % 1 % $ / 5.X.1 Z 1 $ d.v , v R 6 - ; 1 / 6.6.:.q ; &.h $ $ ; 1 / D   o % % 5.m.; X   2.:.  .     1 k.    - 1 O ; o % o o ",
"        $ 1 1 $ . . o o o . o $ $ o + + - 6 6 - % % $ $ $ $ $ ; ; % o $ % $ % 1 q 1 1 ; > 1 ; * 1 - $ 1 5 - - > $ o t 5 ; v D 1 1 t - % $ $ 1 5.X./ _ 6 + h.1 5 / D t 5 % ; _ k.&.6.5 > %.q $ $ > > v / o o $ % / S./ . X q A.  .   .   6.6   . 1 $ % % $ $ . o ",
"; $         $ 1 6 % . . . $ % o o % $ % $ o ; v 6 - $ $ $ $ $ % - ; - $ o % $ o - 6 1 ; - 5 q > $ ; ; $ > q ; - : % $ 6 1 1 _ D 1 R 1 ; % o R 6.2.&.&.  2.t 1 _ X.v 1 ; - _ c.&.&.1 $ :.h $ $ % 5 / _ $ . - o 1 D.h.@ o   v.6.  o X   [ 6.    - ; . - o % o o   ",
"6 t 6 ; o       % 6 t - .   o % $ $ $ % $ o $ ; v D 1 $ $ $ $ $ % - % - $ $ $ ; % % 6 1 ; ; > t 5 $ ; 1 $ ; q 1 % ; * % q ; 1 _ q q h - - o h d.6.%.; + _ - t %.t 1 ; + _ m.5.&._ * R %.; * 1 1 / :.; X $ o o &.j.c o o   J._     X :.f.    . t O - $ $ $ o .   ",
"o o $ ; 6 1 *       - / / -     o % % o $ % $ + ; 6 / 6 ; % % $ o $ % % - % $ o % - $ 5 q ; > - 6 1 % - 1 $ % t 1 % - - $ > - 6 [ 5 v > % + ; [ 2.5.- - D 1 D v h ; % * C.d.Z X.o q R h 1 5 > h X.5 + o - $ 5 5.r.% . o   h.U.r.u.Z.[     . t - $ ; o % o o   - ",
"        . % 6 6 % .   . ; / v %   . $ ; ; $ $ o o > h v D 6 ; ; $ + % ; ; ; - $ o % ; % 1 v - 1 ; ; 1 ; ; > * % 6 1 % & ; % 1 % q R 1 Z % $ o Z %.f.1 1 Z Z _ t 5 $ + h H.R Z 1 o / _ 6 - t $ &./ ; o o q 1 D 5.D.+   . . o _ v.%.-   .   6 1 o 1 O % $ o . . 6 ",
"- - % + o .   $ 1 t -     o t f.D     o % 1 - o o o * 1 t _ %.1 - % o $ - > ; - ; o $ % - ; Z ; ; ; - 5 1 ; 1 - $ 1 6 - % - $ > * h v t h $ $ 1 %.u.R > D 1 %.t t $ * R b.h 6 1 $ 6.R > % q ; X._ * o + _ 6 h ;.C.h   o o + X   . .   $ t 6 o 1 o % % O o   - - ",
"$ . . $ % * o o o % v t o     - 6.9.$   o $ 1 6 - $ % % q 1 q %.q ; ; + o % 1 > 1 ; % o - 1 * Z 1 > 1 - 1 ; ; 1 ; $ 1 6 1 - - - ; - u q v 1 $ * 5 5.6.; Z ; _ t %.- % %.c./ 1 1 $ c._ ; % q ; _ 6 o o o 6.5 [ q v.u.-     X o     o 1 v - o 1 % % % o $ . o : $ ",
"  1 :.5.r.5./ ; o o . 1 D 1 . . . Z u.Z o $ . - 6 ; - - * 6 v 1 %._ > 1 * $ - 1 ; ; 1 % o - 6 % t u ; 1 * > > - 1 > $ 1 t ; - ; * > * 5 t v > * - q :./ > 1 t D D 6 $ t m.9.> 6 o r.R 5 $ 5 * R &.; @   D 2.R ' 6 9.5.h 1 ; % ; 1 v t $ % 1 $ - % % $ $ . 1 - $ ",
"  6 r.h.u.2.d.x.Z $ $ o $ v D $ . o ; 5.9.; o o o 1 ; - 1 - > h > X.&.5 5 - $ * 1 1 ; 1 - o % v ; v 6 ; 1 $ 1 1 - 6 6 * ; v 1 - 1 % ; * 5 5 h > - - 5 %.1 Z q _ > h $ 5 u.x.q Z + [ _ 6 % ; 1 > u.5 o + . :.:./ X.q R [ %.[ / v 1 % $ 1 1 $ $ - % % $ . 1 ; o % ",
". % [ v.1   o > u.u.5 - .   1 D $   o % _ x.1 o o o 6 - $ 5 ; - t ; Z u.1 6 ; o $ t 5 - 6 ; . - D % 1 6 1 1 % > 1 > 1 > * ; 6 ; - * * 1 - > 6 q * - * 5 _ 5 X.q t 1 ; > 6 d.[ 1 q - c.> - $ 1 ; 5 d.5   o . R u.6.5.[ 5 - $ % $ % - 1 % o - - $ % $ o ; 1 $ $ - ",
"o . 1 r.X.  ; ; . &.C./ - $   % [ 1   $ + D H.6 . . . ; - $ 6 1 ; h $ v u.1 x ; ; 1 h 1 ; ; - . * v - ; Z 1 5 + ; , ; ; 6 $ - v 5 ; % * 1 * 1 t 5 * ; ; h R 6 Z 5 5 5 - > h u.v 5 1 6 9.; * - 6 ; ; 5.6 $ o   * 6 R 5.%.[ 5.' v 6 - % % ; - $ % $ . : 6 $ $ % . ",
"  o o 5 h.Z . - $   ' Z.6 $ $   o :.t . + o v Z.D o . o t 1 ; t ; % 1 + / d.1 6 ; ; ; v ; - 6 ; o $ D - , q ; 5 * - 5 , ; 1 $ * h > - > $ ; ; 1 h 1 * ; $ h R q 1 1 > 1 $ ; Z 2.q v ; D f.* + + 1 ; ; D v 1 ; $ o $ % ; 1 ; * o o ; 1 ; o $ % $ . ; 1 o $ - o   ",
"    + $ 6 m.r.5 $ * X.H./ X o .   o d.1 . $ . t H.v $ $ $ 1 - % D ; * 6 + 6.5.* 6 ; ; ; v 1 ; q ; . > X.; 1 6 1 q + % t ; 1 1 $ $ 5 ; - > $ ; - q / t 6 5 o R [ q > * 1 1 + ; Z 5.q 6 > X.:.1 + . > q 1 ; t D h t 6 ; ; ; % ; 1 ; ; - o $ $ . . ; 1 - o O $   . ",
"1     o o ; O.v.x.F.J.m.q . . . .   6 k.$ o - . f.m.; $ o % ; % 1 1 $ ; q $ c.v ; 1 - ; 1 Z - - 1 % $ 5 &.% 6 1 ; q $ > 1 5 - 1 ; - t > - - $ 1 % 1 q 5 t h o R h 5 ; > 5 ; + ; _ 5.6 6 q v 5.t * o $ ; 1 1 ; 1 1 1 ; $ - - - % % % - % o . $ 2 1 % $ % $ . . ; ",
"6 t .   o o + # 5 Z u * X   o o . . $ A.6 . % $ 1 H./ o o - 1 ; - 1 - ; 6 $ 5 v.> q > 1 ; 5 q - ; % - $ Z X.$ 5 ; > 1 + ; ; ; > 1 $ ; v ; * * * ; % ; 1 ; 1 1 + ; 1 1 - ; 1 > $ ; D &.h ; 1 1 Z R 1 $ . o $ % - $ % % * ; ; % % - % o . o 1 t - % % * $ . . 1 $ ",
"  ; v -     . o o . X   . . $ o . o o A.q . $ % $ F.f.% o $ 1 ; * > 1 1 > 1 $ %._ ; 5 % > 1 h 5 > ; * - $ [ 6 * h * 1 : $ - ; 1 5 1 $ - q > - $ ; 1 * 1 v > 6 1 - > * 1 1 1 1 1 * ; q Z 1 1 ; t q 5 6 5 ; o . o $ % $ $ $ $ $ o . . % 6 v 1 % $ % ; o   . 1 - $ ",
"    $ 6 1 % .   X o + . o . . . o   [ A.- . % ; $ C.Z.> $ $ - - * ; 5 1 1 q 1 ; 2.; 1 1 - * q v 1 1 1 - ; 1 %.; 1 5 ; 6 ; * ; 5 ; 5 > * 1 t - % * > 5 - h t - 1 5 ; ; * > ; ; ; 1 - - - * 1 1 1 t q 6 6 R q , $ o o . . o o $ - 1 6 t 1 ; % & - - o   o : % o $ ",
".       - 6 t ; $ X           o - r.D.; . + - - - F.k.; % $ - ; $ > 1 > 1 h 6 * R 5 ; 1 1 - 1 h X.1 1 % * * D t $ 1 6 6 t % ; > q ; h ; * 1 t % - $ ; 1 ; ; ; 1 1 5 > * * ; > * ; ; ; * > > ; - - 1 6 h t q q 1 v q 1 1 1 6 6 t 1 ; - % - ; ; - . . $ 1 $ % o - ",
"o o X .     $ 6 D / D t v v [ f.r.5.> X $ - ; * R P._ - $ $ - % + 1 ; 5 % ; 6 % / v ; 1 1 > 1 q _ h ; 1 * ; 5 [ - ; 5 1 q 1 * ; 6 q 1 q - - q t % - $ - q - ; 1 1 1 6 1 - 1 1 ; 5 1 * - ; ; 1 1 - ; - > q q 6 1 1 1 % $ - ; - ; - - - ; 1 - o o . - 1 o $ % - 1 ",
"- . . . . .   . o % 1 1 t D D 1 o X o $ - - $ % H.A.h + % - - $ + ; 1 t $ ; 1 $ / Z ; 1 > ; ; t / R ; 1 - 1 1 d.1 * 5 1 5 5 * > 1 h - h 1 * ; q t % - + 1 h * 1 1 ; 5 5 1 1 1 ; ; q 5 - - % $ > - > 1 ; 1 5 6 6 q q 1 1 ; 1 ; 1 ; ; - % o o o o ; - $ $ $ - ; $ ",
"k.D o   . . o o .               o o $ $ % o t H.Z._ % $ - - ; + % - 5 1 $ 1 1 $ [ Z * 1 1 ; 1 h D Z > 1 ; ; ; 9.t $ 6 t 1 q 1 * ; t t % 5 ; - 1 v 1 % * + 1 q % ; 1 1 1 5 1 1 1 > ; 1 5 1 1 1 ; $ * 1 1 > > ; - ; ; 1 - % % - % O o $ o $ $ ; ; $ $ $ $ ; ; o - ",
"D f.h.R * . X . o + o o o . $ $ $ + o o * &.L.m.D - o % $ - - $ - % 6 ; * 1 1 * X.5 * q 1 - 5 6 / R > 1 ; - ; 9.v o - q 1 1 5 $ ; 1 Z + 1 > * > v D ; - * + q t - > 5 1 1 1 1 ; 6 1 ; 1 1 6 1 1 1 ; * * - > 1 > - - * * ; - % % $ $ $ - ; ; - $ % $ % 1 % o - O ",
"o ; %.h.h.9.v > $ o $ o . o * $ $ 1 _ m.H.K.r.q > - + $ - 1 % - - > q $ > 1 - 6 _ * ; 5 5 - 1 1 v q ; ; ; ; ; [ h o $ v q 1 q $ 1 ; Z - * 1 * ; q [ v $ - * $ t 6 * 1 6 1 1 > 1 > > ; ; ; 1 1 > 1 1 1 1 ; * - 1 ; ; > 5 1 - % % - 1 1 1 % - % $ $ ; 1 $ o ; % $ ",
".   $ 1 v &.c.x.x.5.2.X.%.6.5.h.Z.D.S.h.[ D ; $ ; $ % > t 1 - > ; h - - 1 1 $ [ Z * 1 1 ; > 1 6 D 1 ; ; % ; > _ 6 % * q h 1 1 - > - q ; $ 5 ; 1 6 6 / ; $ > $ - q 1 - - 5 6 1 > > > > - - ; 1 6 q 1 1 1 1 > > 1 1 ; ; 1 ; % % & 1 1 , 1 - - o - 1 1 O $ ; O $ ; ",
". . . X . + ; D %.9.f.h.x.k.f.c.5.R 1 $ $ . . $ o * ; q 5 ; ; > D 1 > 6 t - 1 6.1 ; 6 6 ; 1 1 h / ; ; * ; ; q R ; $ * 5 6 > > ; > 1 h 1 % q $ ; 1 ; 5 h * - > o - h ; - ; t 1 > * - 1 1 ; ; 1 q 1 1 h 1 ; ; ; * > 1 6 t 5 1 t 6 t > * * $ - 6 v - % - % o $ 1 . ",
"    . o . . . . . o + o $ $ * * - % $ o + + o . ; 1 D Z > ; 1 5 5 1 6 q 5 ; / R - 5 5 5 ; 1 5 / t ; 1 ; ; 1 _ D ; - ; 1 5 ; 1 - > 1 D 1 * 6 o % ; > > R ; ; 1 $ + 5 h ; * > q ; > > > 1 > ; % ; h t 1 1 1 1 > - % - ; ; 1 ; ; * % * ; 6 v t - % % ; - o - 1 $ $ ",
"o $ o . o o . o . . . . o $ o . o $ * * + o . * 5 / h $ % 1 t ; ; t 1 h % v 6.1 1 q 1 ; 1 5 q Z ; 1 - > 1 h _ 6 ; ; ; 5 1 1 6 1 1 1 h ; 1 1 o % q ; 1 D - ; ; 1 @ $ h v > - > 6 5 > 1 ; 5 1 - % $ > h t > ; 1 > h v h q - % 1 1 1 6 6 1 % $ % ; % $ $ 1 ; o % . ",
"o . o o $ $ $ o o . . o o o $ $ $ o + o X $ 6 Z 6 1 * ; > h 1 $ 1 > 5 $ - t.Z - 6 > ; ; 5 5 / 5 * 1 * 1 5 / Z - - ; 1 1 ; t ; q - 5 > $ 6 - - ; 5 ; 6 h $ % $ 1 % $ 1 R q - 1 > Z 1 > 1 - > 1 ; * $ $ > t h h 1 ; ; - - + $ % % O $ $ * 1 1 - % $ $ 1 ; o - . o ",
"- ; % $ o o o o o . o . o o .   o $ $ ; 5 R %.t - % > Z v q $ * 1 t * $ d.6.- 1 1 1 ; > q R _ > ; $ - ; v [ 1 - ; 1 5 1 5 5 1 1 1 v * 1 > $ - t 5 t h 1 o ; $ 1 * $ - Z v 1 * > 1 t ; ; 5 * ; 1 > ; > ; $ $ 1 R [ %.[ X.v ; 1 t 1 1 ; ; * o o + - 1 $ $ - . o 1 ",
". + % - - ; ; - - 1 1 % - ; 6 1 6 _ %.5.:.h > % * ; t v t $ > 1 h 1 o r.x.1 > h ; > ; 1 6 %.q ; ; * - ; / v ; ; > 6 > 1 6 > 1 > t ; 1 q $ $ 5 Z 1 1 t $ % ; - 1 $ % % 1 6 5 $ ; 1 6 D > - 5 * $ 1 1 $ ; 6 ; . o % > h D v q 6 1 - % $ o . o % 1 ; . % - . . ; - ",
". X .   . o + % - 1 1 1 6 2 t t 1 5 ; - ; 1 1 5 1 D R 1 * 1 1 > 1 o [ S.D - Z ; ; * 1 q Z Z - 1 ; ; ; t / ; - 1 1 1 > 5 > 1 ; v 5 1 5 % $ 1 v 1 1 v > $ - % - ; 1 * % * % > 5 + q > / t ; ; t > $ ; t ; $ 1 6 ; * * * $ + + $ .   . $ % - 1 ; o o ; $ . o % $ o ",
"> - % + o .               . o . o $ o o ; > - > 1 1 - ; 1 ; h - o ; F.:.1 6 q - > > 1 D / 1 > 1 ; - 1 [ 1 * ; 5 6 1 q 1 5 ; h h 1 h + $ h [ 1 1 t ; + ; - $ ; - 6 $ - $ ; ; > o 6 h 1 R h $ 1 v ; o % t 1 % $ - q h 1 6 t 1 - 1 6 t t 6 1 o . - 1 $ o   $ % . % ",
"1 1 6 2 1 ; ; ; - % % o o % $ % $ * 1 t 1 $ + % $ % 1 > * / v + $ c.r.5 > R % 1 1 1 v Z q 1 1 - > - / v % * 5 q 1 1 1 1 > 5 5 1 v % $ h 6.1 ; 5 - % 1 - % - % 1 $ $ ; 1 - 5 1 $ 1 v > D q 1 + q h ; o $ 1 1 1 1 > v / [ / D 6 v v 1 - . . o ; ; $ $ . . 1 . o $ ",
"$ O % % ; 1 1 6 1 v 1 1 6 1 1 6 6 1 1 ; $ + % % $ 1 1 h 5.1 - * r.h.h 1 [ ; 1 1 - h Z 5 > 1 ; * ; / 9.% $ 1 q 1 > 5 1 1 5 t 1 h $ + v %.1 1 5 $ % > - ; - $ $ o o - % % ; v $   D R > 5 1 5 + > v 1 % $ . - 6 _ [ 1 ; 1 q 1 % o o % $ o % 1 % o - .   % O $ $ o ",
". . . o o $ $ % % % % $ $ o o $ - % + @ + o + $ 1 5 / _ * > ; 2.c.h ; v t * > - 1 D q 1 1 ; $ ; - 2.6 $ 1 v q > 1 1 1 ; q ; 1 * % _ R 1 q t * - - - ; % - o % % * 1 v 1 1 $ X t f.1 6 * q 1 $ ; 6.- - % $ . ; 1 5 9.:.; X o $ $ % o % 1 - . . % . . o -   % o . ",
"1 ; - % $ $ o $ $ o o . . . o * % - * % % $ ; 1 5 D 1 o 6 > 6.Z./ 5 R t ; ; > > D / 1 ; ; ; - * v D % 1 v 5 1 5 1 ; ; t - 1 - + / _ ; q 5 ; ; ; 1 ; $ o $ % ; 1 q v > $ o - 6 R [ :.Z 1 1 - o / %.- - % ; o   ! t % &.A.v $ % ; v t ; $ o o > >   . o ;   $ 1   ",
"$ - - ; ; ; ; ; - ; 1 1 1 1 1 1 ; 1 1 - % - ; h _ h > R 1 :.H.%.Z 5 Z > % ; 1 t _ t ; - ; * % ; R 5 $ 6 q 1 6 1 ; 1 Z 1 5 1 $ q D ; 1 ; % ; ; ; - $ $ % ; 1 Z t * o % 1 h _ v / 5.D h h - * D :.$ 1 - - $ o X h t * 1 Z U./ . $ / %.. o o ; q t   .   % 1   ; 6 ",
"o o $ o o o $ $ $ % - - % ; > ; * - * $ ; 1 ; 6 R / &.6 5.H.2.6 1 Z 1 ; $ ; 1 v D * 1 6 > $ $ 1 X.; 1 t 5 v 1 $ > 5 h ; q % 6 q ; 1 % % - ; - - * % - ; t t ; - ; q / X.X.[ h v 1 t h 1 5 t v * 1 h 1 o X @ 1 G > u 6 / &./ t t > 1 $ $ $ % 5 6 %       $ ; o $ ",
"o o O O o $ $ % % - $ $ o % ; ; ; ; > ; 6 ; % 5 R h * 6.m.Z q 6 D h 1 - $ - ; D 5 ; 5 Z - % ; X.v % 1 6 q 6 ; ; 1 h $ 5 * 1 v > 5 ; - - ; % % % - 1 1 ; % 1 h X.X.R D h v 5 D D v q _ %.> + % > 6 - % 5 Z R 5.2.X.2.9.6._ t t v h 1 ; % % $ $ - 1 6 % o     $ $ ",
"$ $ $ % % - - - % % $ $ $ $ * ; 5 1 ; ; % % 1 q ; 6 A.c.q v > q v ; ; $ $ ; 1 X.; > 6 6 + $ > 6.- ; / 1 v 1 * 1 Z 1 ; > $ 6 1 5 % - - - $ % % 1 1 % ; t R [ Z q 5 5 v _ 6.&./ t 1 > % o * 1 _ R Z 6 R [ S 5 1 ; = $ X   . .     X o o % $ $ $ $ o % ; 1 ; o . . ",
"$ $ $ + $ $ $ - * - ; ; - % + % - % ; > ; % # 1 h.L.m.> 1 > 6 _ 1 ; ; $ 1 1 1 q ; ; 6 ; + $ h R * 1 5 - h $ ; 1 v $ 5 $ 1 1 5 ; - - - % $ ; h 1 - 5 _ &.Z 5 q Z :.6.2.R h 1 - * * * 1 q D D h 1 ; ; - $ $ % % $ @ $ ; 1 ; - - $ $ o o . o o . o o o o $ % % $ o ",
"5.2.X./ Z t q h 1 h 5 5 1 5 h R 1 5 t q Z 2.C.I.v.t 1 > 1 R q 6 - - * $ ; ; v 1 1 1 1 $ + $ [ 1 $ _ * 1 1 $ > v 5 ; 1 ; 1 q ; % ; % $ % ; t ; 1 R _ h 5 D %.5.[ D > * % - ; 1 - * > ; * - % + + - - - ; - ; > 1 5 > 1 1 1 ; - 1 - ; ; % % - % o o o . o o o o $ ",
"_ :.9.k.r.r.c.c.v.C.Z.v.h.j.C.A.v.Z.S.D.F.Z.j.c ; 1 1 * Z 6 q * * ; - * $ 1 / 1 1 6 > * $ 1 :.$ - [ % v % - ; t 1 v > 1 5 5 % ; ; % $ 1 6 % q &.h 1 D :.:.q ; % $ - ; > ; > ; ; ; > ; ; - - % $ * ; * ; 1 * ; - - % - 1 > ; $ % % % % % ; ; ; 1 6 1 ; % $ $ o o ",
"  X . o + ; 1 q q h [ _ c X.X.X.;.4.` h 1 ; # Z c $ * / 5 > > + ; > - $ ; h t 1 > 1 * ; + t [ o _ x > 5 $ ; q 1 > q ; 1 t 6 - 1 > % 1 5 * v :.Z q 2.X.1 * $ * ; - ; > ; > 1 1 1 5 t / D q R R %.h 1 ; ; > $ + $ - - ; 5 1 ; - - 1 1 - % $ o o % % ; 1 1 1 1 1 1 ",
"% % $ * $ * $ $ * ; $ $ + % = * > q l q 6 q 1 - + ; h Z t 1 o % 1 - - % , 5 5 > q 5 % ; o t 5 o 9.> 6 1 % 6 q , q 5 ; 5 Z 1 1 5 > > t * v &.v _ 5.q % 1 > - ; 1 1 5 Z v D / R / R R x Z t h q v h t 1 > > - - - - ; > ; ; % % $ o o o o o . . . .   . o o $ $ % ",
"% $ $ - * - * ; > ; > ; - > > 1 1 5 t > ; % $ > 1 v h h / ; o 6 1 - $ % 1 5 ; ; q ; % ; @ 5 * ; 5.% Z 1 ; q 5 > 6 ; * t v > 5 ; > 6 - q &.t R _ ; 1 ; > ; 1 1 t / [ / h 6 1 1 1 6 t t D h 6 h 5 1 6 5 1 > ; - % $ - * - 1 - - ; - ; ; ; ; ; ; % $ o . X       X ",
"$ O $ $ $ $ % - ; - - % % % $ $ # $ $ * - * 6 / %.2.t 5 * o ; h 6 + ; > 4 5 $ 1 1 * % % ; 1 + v [ $ h * 1 h 1 ; h ; * / v > > $ 1 1 - [ q D 6 $ ; * ; * > h / Z 1 > 1 Z / [ [ / / Z h D t 6 1 1 1 > ; 1 1 q h h 6 ; * - * $ - % $ % % % % - ; ; ; 5 v Z 6 5 1 - ",
". . o o + @ . . $ $ o $ $ o % - - ; ; 1 5 q v q 1 * 1 - $ 1 [ D * % 1 > 1 1 = t ; - % $ 1 1 o Z v 1 1 ; v h 1 - h $ 6 %.1 ; - q q > / X.h 5 $ 6 * > 1 t :.%.1 1 D &.X.X.R Z t 6 v v _ / q h q 1 1 1 > 1 > ; ; ; ; , 1 , 1 1 ; - - - % % % $ $ $ $ % 1 1 1 v D D ",
"- $ % ; ; - $ % - - - 1 1 ; ; 1 ; - % % > - - + $ ; * $ 1 _ &.1 + 1 5 * 1 ; 1 h 5 % % ; 1 * $ R q q 5 1 v 5 ; % 1 - &.h - > ; X.1 6 R t t > v ; ; ; v :.v 1 _ 5._ h D v / Z 6 1 1 1 ; > 5 1 ; > > 5 1 1 5 5 q 5 5 > > - % * ; 1 6 5 ; 1 1 1 1 ; - ; 1 1 ; % $ $ ",
". o o . o o . . o o $ % $ o $ % % % - % % $ o $ o o ; q 1 D q X 1 1 ; ; > * Z q - % % > > * $ R t v 1 t 1 1 - ; 1 ; _ 1 1 - 1 6 > 6 6 5 1 _ 1 $ 5 _ X.5 t &.R 1 R _ v 5 1 1 > 1 ; ; - - ; * ; , ; 3 3 , > ; ; ; > 1 5 5 1 ; > 5 1 ; - ; - ; ; ; 1 ; ; 1 1 1 ; ; ",
". . .   . . . .   . . . . . . o o $ $ . + + % 1 Z :.v ; Z h $ > 1 ; * 1 * $ / 1 * $ $ ; ; * - X.Z 1 ; t ; q * ; ; h v > 1 $ 1 ; 1 q 5 1 Z 1 % ; / X.1 R D ; q Z 1 > 1 1 > ; - * - ; % - ; > * $ % $ * $ + $ * > ; > 1 1 > ; > ; ; ; ; % % ; 1 ; ; % $ $ - 1 > 6 ",
"    . . X + o $ % ; ; - 1 1 1 h D h h h / _ X.%.D 6 1 / 1 o * ; o , 1 - o q D * 1 ; + ; 1 % 6 %.1 ; 1 t 6 1 - 1 > / 5 ; * * 1 ; q 5 6 q 1 - 1 1 h 6 t > - t 1 ; 1 1 * % % 1 1 q v v D R R R D v v 6 5 1 ; * % $ $ $ % % * ; > ; $ - - % $ % - 1 1 1 1 1 * $ $ o ",
"> 1 5 q t q 6 Z v D h q v [ R D [ / Z Z / h 1 ; - > 1 % $ * 5 $ - - > @ + 8.5 ; q ; $ ; > $ Z [ * * q Z v > ; 5 5 Z 1 ; $ * > 1 q 1 1 q > > ; ; > h - 1 6 1 6 6 ; % ; 1 Z [ [ %.5.:.u.%.R / 5.&.&.5.%.&.:.Z v q 1 ; ; ; - $ $ $ + $ % - - * ; 1 1 ; - ; > 1 > ; ",
"D t 1 1 1 ; ; ; - - + % * - $ ; > 1 6 t q 5 ; ; 1 * % - 1 q % ; ; % ; . [ 5.> > 6 - - - > $ :.t % 1 R v h 1 > 1 v 5 * ; + ; 1 6 1 1 ; > 1 1 ; ; t - q 5 1 1 $ $ 1 6 Z 2.9.2._ D v q 6 h h q 5 1 1 5 v Z R _ [ &._ Z 1 > > - * - ; ; * $ . X o - > > ; $ + $ $ % ",
"- % * ; ; - ; * * % + $ + $ * 1 ; 1 6 1 > ; ; ; - % 1 6 1 - ; 1 $ ; - - c.v 1 > q ; > ; ; > 2.> * > q Z q > ; ; R 1 > % $ 5 - t 5 1 1 1 6 5 > 1 ; 1 6 1 1 + > 1 Z &.5.&.h 1 1 q Z D v Z D Z t 5 D q 1 5 1 1 ; 1 q Z t 1 * * % $ - 1 1 6 6 1 % . o + * ; ; ; - $ ",
"> - % $ + o o o + o + % % * % % % - % $ $ % % ; 1 1 1 - 1 1 % o - 1 o v :.6 1 ; 1 6 1 1 - 5 / 5 * > q Z 1 ; 1 1 q ; > * ; 1 ; 6 5 > 1 > - > 1 q 1 > q 1 % 5 6 [ :.R h 1 1 _ v 5 t R R &.&.%.%._ / Z v D v 6 6 1 ; * - - 1 5 q > % $ $ $ % ; 1 ; ; $ . o + % - 1 ",
"$ o .   X o $ % % % $ $ % $ $ % ; > - ; 1 1 _ h 1 * ; 1 1 $ o * 1 - ; 9.v 1 ; * 6 ; ; 5 % %.t 1 1 5 v h 1 - 1 1 1 ; 1 * 1 1 5 1 ; ; 5 % 1 1 h 1 ; ; ; % 6 ; 1 R q ; 5 Z D v ;.5.h.c.u.d.k.f.v.f.u.h.u.2.[ D t q 1 t R D 1 $ - ; 1 , - % % $ + $ 1 t 1 % . . o % ",
".   o $ ; - + o $ - 1 1 5 1 ; ; 1 6 5 t t 1 1 6 1 1 5 ; $ $ % q > * 2.6.6 ; $ * 1 ; - 1 ; :.5 6 6 6 _ Z 1 > 6 1 q > 1 1 t 1 q , ; 5 5 ; v t q 5 1 ; $ Z ; * h q ; %./ 1 %.d.u.:.Z 1 > * ; - ; * > 1 q D R [ %.:.Z 1 1 6 R X.R 1 * % ; 1 1 > * - $ o ; 6 1 ; o $ ",
". % % $ . $ ; 1 1 ; - * ; ; 1 5 6 6 t h 1 1 > ; ; - % 1 1 % 5 5 > _ r.D 6 ; - - ; > ; ; q [ > R 1 q R 6 ; 1 6 > h ; 1 ; 5 1 t 5 ; h 1 v q Z 1 5 1 * 1 t $ 1 5 ; k.D 1 5.[ 1 ; - $ o + + $ $ $ o o + $ + * * ; 5 Z D [ :.Z 1 > t [ _ t - * 1 5 1 6 1 $ . $ 1 q * ",
"- $   % 1 1 % o . - 6 v R v h 1 ; $ + + . + % - ; 1 5 1 * ; > * 1 k.R D % ; - ; ; ; > ; v v > D 5 h / q - q t - 6 1 1 ; > 1 5 1 - 1 1 X.6 1 6 5 5 % h ; 1 q 1 5.1 _ r.1 ; $ + + % > 1 h t h h 5 5 1 ; % o $ $ $ % * - q &.5.&.Z 1 1 h R Z > ; 1 6 6 > $ o o % ; ",
"  o 6 1 $ . % 1 v t 6 1 % o o + * ; 1 1 1 1 1 5 5 1 ; ; 1 ; $ 1 k.%.t 1 - % ; 1 1 ; 1 - D ; t t 1 5 / t - q 1 > 6 1 > ; 1 t t 6 > ; 1 Z t 1 1 6 > 5 1 q R 1 %.q X.%.- $ + * ; - ; 1 5 q 1 1 1 h > 1 5 1 % % % ; * $ $ + $ % > h &.X.u * * v v > ; > 5 1 $ + $ . ",
"; v % . % 6 Z 6 - $ . o % ; 1 6 6 > ; ; ; ; 1 > ; - 1 5 - $ 1 x.f.1 ; - ; o t 1 - % ; - v - Z 1 ; 6 [ ; $ 5 1 6 > 5 ; ; - t v h 1 1 1 1 1 5 / 5 1 q - v v D > R [ + $ + 1 5 ; - ; 1 5 q Z D h v h 5 1 1 ; - $ - 1 1 ; - + + o o $ 6 6.9.1 o - v 1 ; 1 1 t $ $ + ",
"1 o o 1 v t ; + . O % 1 1 - - $ $ % % $ $ $ * ; * $ * * ; _ Z.2.1 1 - - - ; v ; - 1 ; ; t ; q $ > 5 %.* ; q 6 6 * - > ; * / Z q - 6 1 q t q h 1 1 5 ; h h q 1 6.% $ * ; Z 6 $ q R 6 1 1 1 1 1 1 1 1 ; > 1 h t ; $ > t t > $ $ * + . + q 5._ * + Z 5 % % 1 6 o $ ",
". $ 1 v 1 % o + ; 1 ; $ . . o $ $ % $ $ + + + + $ > 1 %.H.S.%.v 6 - ; 5 - 1 6 1 $ 1 > 1 D ; 1 * 1 t 5.$ ; 1 h D - 6 5 % 1 _ R ; 1 > 1 h t 1 q Z ; * t 6 q ; &.> o - 1 1 1 ; D _ 1 6 1 5 q % o $ - 1 1 1 1 1 t Z D 1 ; ; ; > ; ; - $ + o * &.f.> . Z 5 $ . D 6 . ",
"o 2 / > o o % 1 ; $ o o o o o $ $ o . o $ > v 2.v.v.D.D.r.1 / h > ; - q $ 6 t ; % 6 ; 1 t ; 1 ; Z t :.$ D 6 6 Z ; 1 1 ; 1 q 1 ; q ; ; 5 h ; t t $ 1 h > h h 5.+ ; ; h 5 ; h 1 1 v 1 * * 1 / [ / v 1 ; % 1 6 5 1 6 h t > % ; 1 1 ; $ % $ o % 6.h.1 o %.- $ $ :.% ",
"6 t % o $ 1 1 $ . . o o o % * $ > _ u.D.H.Z.v.k.5.v 5 > 1 Z 6 - ; * q % ; [ 6 $ 1 1 * 6 t ; 1 1 v / :.$ q 1 q q ; q 1 > 1 > - + v q 1 6 R ; v h $ 1 5 1 5 Z D ; ; Z X.% 5 1 ; h 1 $ 6 6.r./ v h v P :.[ * $ % 6 5 $ ; v 5 % * t R * - % $ ; 1 m.6.$ ; [ o   v 1 ",
"v % . + 1 1 . . . o o $ - % v C.L.H.h.:./ q 1 ; q Z [ Z X.1 $ 1 % > - + 1 _ 1 $ 1 - 1 t X.% - ; 6 h &.% > 6 h t % q 1 ; 5 6 ; X h D _ ; X.; 1 1 * 5 q v q Z t * - r.> ; h ; X.q ; 5 q ; o + + o o O o - 1 q - ; 1 q 1 * 5 1 o ; &.2.; - $ * ; 6 h 5 . / 6   6 ; ",
"- . o 1 q o . o + o % $ 6 S.L.9.6 ; 5 [ 9.r.f.h.d.X.Z h > - 1 $ - $ $ $ t v % $ / % 5 v / $ > ; Z h :.$ > 6 > h 1 q ; 6 q 5 h o h v o.> [ 5 5 > * * 1 t 5 R 1 * q / X [ h q 6.; - - * 1 % + - - % % o o % $ * 1 + q %.6 % D 6   ; %.f.o o o 6 1 h _ % 1 t $ 1 1 ",
"o . - 6 $ $ o $ o % + f.Y.6.; 1 [ h.v.u.%.h 1 1 1 1 q D q ; ; ; $ % % - 6 Z - - / $ 1 / [ * 5 1 h t %.* 1 5 1 _ h 1 q [ 5 % 1 * 1 Z R v / 5 h ; 1 ; > h 5 t ; - %.h - f.h &.X.1 - * :.1 ; 2.2.h.2._ t + ; v - + + $ R 6.> > 6.; + > X.; % + ; 5 1 9.1 1 t - - - ",
"  % 1 % o $ o . % % D.H.> 5 2.k.d.6.q > 5 q q X.[ v 5 > $ 1 1 % % $ % $ v 6 ; 1 %.; q v v $ > 1 / 6 X.> 1 h v _ h 1 t q t ; 1 $ > 6 v 5 D D q 1 1 6 % [ 1 %., - X.5 > %.h k.R R q t > - S.C.U.R.R.L.m.c.% 1 [ o 1 1 6 u.[ q ! 2.. $ / D - % $ 1 1 5.o - v % $ $ ",
". - 1 $ o o o o $ Z.H.% R f.f._ 1 > / 5.:.D 1 > $ + + - ; 1 % + * $ o % D ; $ v 6.; / / 6 * 1 > 1 q X.; t h 1 v / > q Z q * 1 - > 5 v > 6 v 1 t - h $ / ; D t ; _ 5 - R h D.q %.> 1   r.5.Z.C./ &.m.A.d.S.  1 1 1 / * u.Z.D q 9.$ * 5 Z ; o o 1 6 %.$ 6 h O $ . ",
"o ; % o o o o o 6.H.$ Z r.2.5 1 2.h./ 1 o o . o + $ * * ; % ; ; 1 + . 1 h $ ; :.X.- _ R v * 5 ; ; 1 X.6 6 q 1 v :.; q h 1 % 5 > - 1 q q 1 h / t * D * [ 1 Z D 1 Z / ; 1 v Z.5 6 $ ; * 9.m.f.o + . + v h.d.R   1 o 9.; f.H.R - 2.o % > R 1 o + v :.1 $ t Z o . o ",
"$ 1 % $ o . $ 1 H.1 q r.%.> t k.%.* o o $ $ - ; 1 ; ; $ $ 1 h - $ o $ v 1 $ * h._ 1 %.v / > 1 > 5 1 &.1 1 6 q h 2.- 6 h 1 ; 6 1 o 1 1 5 1 / / h ; q > v q v h > 5 6 ; 1 Z m.x $ $ h * 9.X.Z o o o o o X.:.c.o ; o 1 ; _ H.R % q X v t R t $ q R X.o $ Z 5 o . ; ",
"% % $ o   $ $ x.9.o %.f.> q u.1 . $ $ % - ; ; - % $ o o 1 v * - $ o ; 6.% $ - k.6.v X.6 h 1 t 1 1 1 2.5 > 6 5 6 2.; q Z q > 6 t o 1 ; ; 1 _ v v v ; ; Z 1 ; q Z 6 R * t h C.2.$ o D ; 1 1 o % 1 ; 1 + + q f.o R $ % + X.H.R 1 - . v 1 v 1 % Z 6 [ + $ R 1 $ o t ",
"% - % o   $ 1 H.% ; d.D q :.1 $ $ % 1 % o $ o o $ % - , 6 * ; 1 . $ t Z o 1 1 m.[ t t 5 [ 1 Z 1 6 > 2.t 1 t 1 1 &.6 1 v D ; 1 v + 1 1 * 5 Z &.1 R 1 $ 6 h * [ R 1 _ > ; 1 &.c.- - ; D o : $ % 1 1 ; $ . 1 % $ X.$ o $ &.A.9.1 1 o ; ; 6 % 6 q u _ + > Z 1 o - 1 ",
"- ; $ o . $ 6.9.$ [ :.1 &.h $ ; $ * $ o o $ - ; ; % o o - 1 - . . % Z 5 $ ; * v.5.1 t 1 [ > q 6 1 * &.R 5 D 1 5 R R ; 1 Z 5 1 D > ; h ; 1 v R 1 t t * * D 1 h [ q t 6 o h - k.Z ; o 6 6 % % - ; > > % * % + 1 Z o ; $ 9.Z.6 1 t o - / 6 $ R q t 1 . > v > . - $ ",
"1 % % . $ 1 m.q 1 6.5 6 :.$ * % - $ $ $ ; ; $ . o ; 5 D 6 ; $ o $ $ 1 ; $ - - r._ ; / 1 [ 1 6 D 6 $ _ / > R 1 ; h _ > 1 1 Z > t v - 6 ; 1 6 D t ; R % $ u 5 > [ %.; v - 1 1 Z 6.+ + o q > $ $ ; 1 1 $ $ $ - D * o > 1 b.%.% 1 ; . ; t t $ 6 1 _ $ $ ; / $ . O $ ",
"; $ $ . $ v Z.- v %.1 _ t - 1 ; % $ % 6 ; . ; q 6.6.&.t ; $ . o - * q 1 - 1 % u._ ; _ 1 %.1 5 R 6 $ t X.1 5 6 ; t [ > 6 > Z 1 1 R * 5 D > 5 Z D ; R ; $ 5 _ * :.o.1 > / $ v o / / $ $ o % $ @ $ % $ o o $ ; -   o o 1 A.q o v $ o 1 6 - 6 :.S x o 1 1 v X o . ; ",
"- $ % . $ X.h.o D v q 9.- 1 ; ; $ - 6 ; . 6 v 5 q ; ; * o . o   t > 1 - - 6 % u.2.> 9.1 %.5 6 D h * 1 &.t 1 v * t t 1 t 1 v 6 ; Z 1 ; %.; 1 t h u t 6 $ ; R 5 Z X._ - R h > t $ %.Z ; $ o % $ $ o o o o O $   o $ % X.2.o $ v   1 t % . &.[ 6.1 . ; t > o $ o $ ",
"$ $ % . % 2.%.o / Z 6 :.* ; ; % $ ; v o - D ; - ; $ o o . o +   _ 1 ; * 1 6 - X.f.- f.q [ Z 1 v v q ; &.q 1 6 ; q 5 1 6 q Z %.* > 5 - Z 1 1 q v 5 q Z % - > v - &.%.h > &.> q 1 % 9._ * o + $ $ $ % $ $ O o . % 1 v h.% o t 1 o D 6 + % 2.1 v.1 o t [ o - o o - ",
". $ $ . - f._ $ %._ q X.* ; ; % % 1 6 . t 1 - ; + o o o o o o   %.Z - 1 - 6 ; R c.% r.R R X.1 h R 6 * X.R 1 1 6 1 t q 1 5 1 8.5 > 6 > 1 Z 1 6 D 1 / R v % 1 1 ; / R D 5 6 [ - R 5 1 u.5.; $ $ $ $ % $ O $ o o - / Z.q % * R o > 6.1 - q %./ 2.$ ; D t o % $ . t ",
". % O . % 9._ ; _ _ R :.$ ; ; $ % 1 1 . v ; ; % o . . . . o o   6 / % 5 1 6 1 > C.1 D :.t 9.> t R 5 % S u.; * h - 1 q 1 1 1 / R > q 1 1 R 5 ; q h Z q t ; > q t ; [ 1 &.q q X.; _ ; ; :.[ h % X o o $ $ o $ % 1 H.:.v X / 1 o v v % - R 5 &.:.o - - % - - o % C ",
"o % o . $ r.&.> D Z 6 %.% - ; $ $ - 1   D D ; ; $ $ $ - o   o o o R * 1 1 - 1 ; c./ > 5.; 9.5 5 h q ; - 5.5 % t 1 ; 5 5 - ; 1 9.; > 5 1 1 Z 1 6 h 5 t ; D * ; _ 1 ; q q / ; t D - h * o 1 / D ; $ o o . o $ v 6.D v . % [   6 v 1 1 6 _ o D q o ; 1 - - ; . 1 1 ",
"o % o . $ f.6.$ q R q :.* ; ; - o + > . $ f.h 5 1 1 - 1 / t . . . h D ; 1 1 ; $ 5.f.$ 6.1 _ R ; 6 t ; $ q D 1 > Z > > t > 1 * 9.D ; 1 1 > R v 1 h q 1 1 h 1 ; 1 _ * 5 Z 6 [ v Z %.> 1 1 . - t t t 1 1 1 1 C / t 1 . . v $ ; v / % ; h 1 - v % o 1 D $ ; $ o 6 % ",
"% - . o o 9.u.* 5 S 6 2.5 ; ; ; o o % 1   o v f.9.%.D ; % t %.- . % [ ; 5 t % % 6 C.% Z D Z :.> 5 h 1 % > :.D * q 5 ; 5 6 1 ; 6 &.> 1 5 ; q Z 1 6 5 ; v ; D ; 5 6 t + Z Z 5 &.v t %.6 6 h % . $ ; 1 1 1 2 1 - -   o v 1 o %.D t : 1 q ; _ t X $ 6 ; % - $ % 1 % ",
"$ $ o o . &.n.= v / t / X.+ 1 - % o . ; ; .     o . . o % - v &.; + 6 v $ h ; * $ m.h ; %.1 f.1 > Z 5 ; * [ _ 1 ; h ; ; q 1 6 * D q > 6 1 > h t t q > q 5 1 6 q Z h 1 + R 5 1 D q 1 / Z q _ D % o o $ $ % $ .   - [ D $ / t 1 % / 6 ; 6 %.; . % t . D : 1 % 1 o ",
"- $ . . . D H.> 5 6 h 6 5.% 1 % ; % O . % 1 1 - % ; ; - % o $ Z [ 1 % D > ; / - % _ k.o _ 6 X.v $ q h 1 * 1 _ t % Z 1 * u v 1 5 1 [ 5 5 5 D h q 5 Z 1 1 h ; > 1 _ v q ; $ [ q - D 6 ; / h > Z D h - o . o o $ 1 [ t O 1 / 1 $ 1 6 ; % R R $ o > 6 . :.1 6 . % . ",
"1 $ . . $ 6 F.h > v v 1 :.R . 6 % 1 $ . . o % ; 1 6 1 1 1 t 1 % 5 [ * 1 &.$ v 6 $ - k.1 t _ 5 X.$ 1 5 1 > $ D D 1 5 D $ 1 q 1 1 1 q [ 1 1 t S 6 % v 5 1 Z v % * 1 &.1 ' - * R 1 > [ D ; 6 1 > > 1 1 1 ; 1 ; ; 1 % o 1 1 $ 1 $ D 1 % ; q 5   o _ - 1 f.; - o $ . ",
"- o . . o - A.r.% q _ h q &.; $ % o ; % o o o $ $ % % % % - 1 ; - ; [ % R v ; D % . [ &.* X.1 [ 6 - 6 q ; $ 1 _ h $ R 1 - 1 5 > q ; _ Z 5 5 v X.1 ; Z ; D Z ; - ; q &.1 _ o > t 1 1 2.%.- Z v ; 1 ; * % % % $ o % 6 1 - [ o q &.1 $ ; 6 >   o v + h 9.- % % - o ",
"- . o . o ; u.F.; 5 Z / 5 v :.% $ + o - $ $ $ $ $ $ % $ $ ; 1 ; ; * q v $ %.> 5 1 $ ; f.> 1 Z 1 &.$ 1 6 > % $ _ _ - 1 _ - 5 5 * 1 1 5 D 5 6 6 t / ; q 1 1 X.; * > ; Z Z 5 q . 1 / 1 6 u.5.- / 6.5 1 ; * - - ; 1 1 % $ m.1 X f.[ 1 1 ; [ * . - t   D :.- . ; 1 o ",
"% . o   o - _ H.D > h &.6 q _ 5.$ . o . o $ $ - % - % % 1 - $ % 1 t ; t 1 > / ; 5 * + X.[ o %.1 2.q - t 1 * $ 1 R q $ X.1 ; 6 5 $ h 1 t q 1 t 5 t 1 ; Z - v _ % 1 1 ; X.1 t 5 o / h 6 5 6.u.1 1 5.2.q ; % ; - o $ / v.q   _ :.q > 1 $ / + . % 1 X X.v ; o 1 1   ",
"% . . o . 1 t A.r.$ h / [ q t %.r.- . o $ % o . . o . $ 1 6 6 6 @ 6 v 1 h * 5 q 1 1 $ 1 f.> 1 Z 1 _ % q t - ; % h D - 1 D - 1 h - 5 1 6 5 1 > 6 5 6 - 6 q * %.6 ; 6 > 5 9.; q - o D 1 ; 1 t 2.R $ ; 5.D.c.5.%.h.I.A.%   X.m.% ; > ; v !   o $ ;   %.6 ; o t ;   ",
"$   . o   ; > Z.Z.1 5 6 :.D 1 t R 9./ %   . o . . . . o .   o 1 / - 1 v 5 6 $ v 1 1 ; + _ [ + D 1 X.1 1 v q > - 1 D t $ 6 1 > q q % t - v ; ; 1 q 6 1 - q ; 1 5.; > v ; h _ ; 1 * o R h 6 > $ 2.H.X.$ ; %.k.z.f.D + X X.T.&.1 + q 1 f.Z   $ $ %   v ; - . 1 1   ",
".   . .   ; 1 u.C.5.o 1 q &.v 5 [ t h.S.&.q - o . .       . o . % / ; 1 D 5 > ; v 1 6 ; - 6.; > q Z v ; 6 6 > > * R Z % * 1 > q D * 1 > 1 1 1 ; q ; 1 * - 6 ; / Z $ 5 v ; / v % 1 % $ &._ q 1 - [ F.U.:.o         * 8.R.C.1 h $ 2.h r.1   $ % 1 . 1 % % $ $ h + ",
"    o     % * 2.n.c.$ 1 ; &.X.t > &.> q j.C.Z.5._ 6.f.9.%.6 $   . . 6 1 1 Z ; % 5 6 > 6 * v R + 6 1 _ ; 5 Z ; > * 6 %.q % q > 5 t 6 - 1 $ 1 1 5 ; 1 - ; % q 1 5 [ 1 - h q 1 / 1 * > % % r.%.[ v ; q &.U.Y.F.x.c.x.J.R.F.< 6 * Z %.R 9.- X $ o % o 6 1 $ % o 6 1 ",
"    o o   ; 6 R A.u.v o Z - h./ _ $ 2.v * > t [ 6 ; ; 6 D ) 6./ $ X . t 1 1 v - o 5 ; 1 ; ; X.5 * h x Z * Z 6 ; ; - h R ; 5 h ; h Z > > ; ; 1 1 % > ; - ; 1 h 6 t Z % % h > 1 q - 1 ; $ * d.&.5.X.q q 5 2.L.U.P.J.F.S.h - X.1 k.* k.f.o . o - o o 6 v $ . o $ D ",
". - 1 o   :./ R D.:.:.  &.$ h f.[ &.  D 2.v % o . o % o   . % 6 6.6 X o Z 1 t 1 $ - 6 - 1 $ 1 %.+ v 1 / ; > h ; ; % 5 v 6 * v > q q v ; 1 % - 6 t - 1 * 1 ; h h 1 R 1 o 1 D ; ; 5 * 1 ; $ - 2.&._ 9.Z Z 1 1 t D t t ; $ [ t 6.c.% C.x.%     o % o ; / $   . o 6 ",
"1 1 . . v ;.# Z.x.5.&.  [ u.. c.v 5.&.  $ Z %.D 1 - ; $ o $ o . o :.[   $ D 1 [ > o 1 ; ; 1 + R 1 $ 5 q h $ 1 > 1 ; % q v > 1 v ; D [ 1 ; ; ; % t ; - > % 6 ; Z t h D * $ h 1 % 1 6 - ; ; $ $ m.m.5 x.9.v _ > + o + o D 5.5 P.6.t H.u.$   . % 1 o o D - . . o o ",
"% * 1 v ; % u.J.R F.;   R k.v _ C.o C.q       $ % % - o o $ o $ $ . 2.D   ; t 6 v o o t - 1 * - Z % 6 > / ; - 1 ; > $ > D v % h > Z v 5 % 1 ; % : 1 % > - 1 > 1 q 1 _ t $ > v $ ; v 1 % ; - o q J.c.> F.v._ _ [ / R _ R $ v.K.- [ H./   . . $ 1 o   t D   o . o ",
"X.' [ Z 9.F.Z._ v.&.  * v 6.D [ k.o 1 / . . .   .   .   . . $ - o o . ,.; . v 5 v 1 . 1 6 ; 1 $ q 5 * Z q v $ 1 1 1 ; - q [ ; ; 1 1 6 t - ; ; - % 1 ; % - - 6 1 q q 6 R ; $ t ; % 1 %.- % - o X / J.D.1 C.L.X.; ; - $ * 6.H.v.+ 2.v.t . o % % 6 % o % D % o $ . ",
"X.:.9.2.:.v 5 Z * X - 1 o ; > v ;   o % o . . .     o $ o . . % $ . o 1 6.. $ R 6 D $ o h > 1 ; ; D $ Z q R > ; 1 ; > * > [ Z $ 5 > 1 D 1 $ 1 ; ; 1 1 - 1 ; 1 5 1 q 5 D h $ - D $ $ D D $ 1 ; + o t Z.D.$ R K.F.C.r.9.C.L.J.q   D k.; . o t $ 1 1 % o - 1 o o o ",
"+ $ % % $ . X   . $ - $ ; / [ % $ 1 ; o o . o % 1 ; .   . .     $ o o   d.1 . q 6 h ;   % 6 ; 6 * v 1 * D t h $ 1 ; * - - ; / ; - ; 1 _ D $ 1 ; ; ; - - 1 1 > > 1 q 5 t / ; + t 6 o % [ 1 ; t $ o . q v.Z.; 5 8.L.U.U.U.H.v.;   v d.6 + X t o $ : $ $ o 6 1   . ",
"; 1 c 5 v Z _ O.c 1 6 6 6 ; o 1 1 $   . o   % % D k.x.%.6 % $ 1 t o % . %.,.. * D 1 h + . t > 1 ; 5 / o h 1 / ; ; 1 - - % % h v + * - 6 X.1 - q ; 1 ; > 1 ; > > 1 6 5 1 t q % - _ - . > X.$ ; 1 $ + o > 6.5.o X u j.C.h.:.R X $ D [ %..   - -   1 - % o o v 1   ",
"$ % 1 1 q 6 5 1 $ o .       . .     % ; $ - . o . o ; / 6.9.k.6.- o 1 o D d.. $ D 5 v $ . 1 1 ; 1 ; [ 1 ; t q h - 1 1 % $ $ 1 X.; $ % > / t + h > 1 > > 1 1 ; 1 1 q h > 1 h 1 * 1 v $ + D v + 6 > 1 - + 5 k.h.* X * 5 u 5   o 1 D q R o X $ t   $ / % o . % 6 ; "
};
