/* XPM */
static const char *morte_EA[] = {
/* columns rows colors chars-per-pixel */
"128 128 197 2 ",
"   c #050505",
".  c #0B0B07",
"X  c #060709",
"o  c #060B0C",
"O  c #0D0E0E",
"+  c #090808",
"@  c #100F0E",
"#  c #07100E",
"$  c #0E100F",
"%  c #10100F",
"&  c #060E10",
"*  c #0C0F11",
"=  c #100F11",
"-  c #061212",
";  c #0D1213",
":  c #051A17",
">  c #0D1917",
",  c #071618",
"<  c #0E1618",
"1  c #051E1B",
"2  c #0E191A",
"3  c #111313",
"4  c #1A1515",
"5  c #121817",
"6  c #1A1916",
"7  c #121619",
"8  c #1A1619",
"9  c #131A1C",
"0  c #1A1B1C",
"q  c #231714",
"w  c #231719",
"e  c #231C1D",
"r  c #2A1D1D",
"t  c #231B17",
"y  c #05221D",
"u  c #09231D",
"i  c #07291E",
"p  c #16201F",
"a  c #1E201F",
"s  c #20201E",
"d  c #2C211E",
"f  c #30201F",
"g  c #151E21",
"h  c #1A1E21",
"j  c #231F21",
"k  c #2A1F21",
"l  c #052321",
"z  c #0B2523",
"x  c #042C23",
"c  c #0B2B24",
"v  c #072C28",
"b  c #162123",
"n  c #1B2224",
"m  c #1D2827",
"M  c #172629",
"N  c #1D2629",
"B  c #1E292B",
"V  c #16282B",
"C  c #043226",
"Z  c #093226",
"A  c #04342A",
"S  c #0A332A",
"D  c #04392D",
"F  c #083C2D",
"G  c #033D30",
"H  c #1F3A35",
"J  c #232324",
"K  c #2B2325",
"L  c #262827",
"P  c #282826",
"I  c #222629",
"U  c #2B2629",
"Y  c #24292C",
"T  c #2B2B2C",
"R  c #322525",
"E  c #3A2526",
"W  c #342629",
"Q  c #332A2B",
"!  c #3B2B2C",
"~  c #392729",
"^  c #2E302F",
"/  c #30312E",
"(  c #252D30",
")  c #2B2D30",
"_  c #342E31",
"`  c #3A2C32",
"'  c #2D3233",
"]  c #253C37",
"[  c #263836",
"{  c #333434",
"}  c #3B3132",
"|  c #343837",
" . c #393936",
".. c #333638",
"X. c #353A3A",
"o. c #3C3C3C",
"O. c #432D2D",
"+. c #4A2C2E",
"@. c #402526",
"#. c #42312E",
"$. c #49332F",
"%. c #432E30",
"&. c #502C34",
"*. c #463031",
"=. c #4B3334",
"-. c #4C3539",
";. c #503638",
":. c #563638",
">. c #623D3E",
",. c #084233",
"<. c #33423F",
"1. c #3C403E",
"2. c #40403F",
"3. c #3B3F41",
"4. c #3E4243",
"5. c #3F4748",
"6. c #334643",
"7. c #434443",
"8. c #464847",
"9. c #494946",
"0. c #424749",
"q. c #45494A",
"w. c #4C4C4C",
"e. c #4F4F4F",
"r. c #4B4C4C",
"t. c #51514F",
"y. c #4C4E51",
"u. c #4D5153",
"i. c #505050",
"p. c #535353",
"a. c #525150",
"s. c #545552",
"d. c #555555",
"f. c #575757",
"g. c #565654",
"h. c #545454",
"j. c #575855",
"k. c #585856",
"l. c #535759",
"z. c #555959",
"x. c #585858",
"c. c #5B5B5B",
"v. c #5D5D5A",
"b. c #5C5C5C",
"n. c #5F5F5F",
"m. c #5D5E5E",
"M. c #5C5C5C",
"N. c #605F5F",
"B. c #5E605E",
"V. c #61615F",
"C. c #62625E",
"Z. c #61615F",
"A. c #5E5F60",
"S. c #5D6060",
"D. c #5F6869",
"F. c #606060",
"G. c #616161",
"H. c #616160",
"J. c #626260",
"K. c #626262",
"L. c #636363",
"P. c #636262",
"I. c #626162",
"U. c #636460",
"Y. c #646561",
"T. c #646463",
"R. c #666662",
"E. c #646464",
"W. c #656565",
"Q. c #656564",
"!. c #666666",
"~. c #676767",
"^. c #676765",
"/. c #636363",
"(. c #686767",
"). c #666866",
"_. c #686967",
"`. c #666668",
"'. c #676968",
"]. c #686868",
"[. c #6A6B6A",
"{. c #706D6E",
"}. c #6F706E",
"|. c #70706E",
" X c #6D6F70",
".X c #757574",
"XX c #777877",
"oX c #797976",
"OX c #777878",
"+X c #7B7B7A",
"@X c #787677",
"#X c #7E807E",
"$X c #81817F",
"%X c #7F8180",
"&X c #818283",
"*X c #969696",
"=X c #B8B8B8",
/* pixels */
"o.W.g.6 O O 3 i.T.t.3 O O O O O O O O O O O @ @ @ O O O O O O O O O O O O O O O O O O O O O @ @ @ O O O O O O O O O O O O O 3 X g.=X0 + 3 O O O O O O O @ @ @ @ @ @ O O O 3 @ @ O O @ O = 3 O O O 3 O o.T.C.T.g.0 O 3 @ 7.T.H.H.H./.H.o.6 O @ 3 O + + O T g.H.b.",
"J b.H.J O O 6 g.C.H.T + % O O O O O O O O O @ @ O O O O O O O O @ @ O O O O O O O @ O O O O @ @ @ O O O O O O O 3 * O @ O O O 3 X &X*XX 3 O O O O O @ O 3 @ @ @ O O O O = 3 @ @ O O O O 3 3 O O O O 3 i.H.C.T.o.O 3 O J v.H.C.C.H.s.T O O 3 3 O O J o.r.b.H.H.b.",
"O o.].o.+ @ O 9.T.T.9.O % % O O @ @ @ @ O 3 3 @ O O O O O O @ @ @ @ @ @ % 3 O O @ @ 3 3 O O @ @ O O O O O O @ @ 3 @ @ @ @ @ O 3 O 3 =XN.  3 O O @ @ @ @ O O O O O O O O O O @ @ O O O O @ @ @ O 3 + { H.H.H.C.J + @ 3 r.H.C.T.T.9.6 + O 3 O O J 9.N.W.W.H.W.W.b.",
"O 3 i.g.6 O O o.W.H.c.0 O 3 @ @ @ @ @ @ O * 3 % O O O O O O O @ @ @ @ @ @ 3 3 * @ @ % = O O % % O O O O O O @ @ 3 @ @ @ @ @ O O 3 X o.*Xs O @ O @ @ @ @ O O O O O O O O O O O @ O O O @ @ @ O 3 O T H.H.H.W.i.3 O O o.H.b.T.g.{ 3 O % % O O { b.W.H.H.W.H.w.{ J ",
"3 + o.H.0 O O  .W.H.W.{ O 3 @ O O O O @ @ 3 3 O @ @ O O O O @ @ @ @ @ @ @ @ @ O O O O O @ = O O * = O O O O @ @ O @ @ @ O O O O O 3 + 0 0 O % @ @ O O O = 3 O O O O O O O O O O @ @ O @ O O 3 O 0 b.W.H.H.L.{ O O J M.H.b.o.0 O @ 3 O O 0 9.H.H.W.W.c.7.{ 3 + O ",
"3 + { W.T O O T W.H.W.r.3 3 @ O O O O @ @ 3 3 O @ @ O O O O @ % @ @ @ @ @ @ O O O O O O @ @ @ O 3 3 O O O O @ @ O @ @ @ O O O O O O 3 O O 3 O @ O O O O % 3 O O O O O O O O O O @ @ O @ O O @ O 9.W.H.H.W.w.3 O O 9.W.r.0 O O % O O J 9.b./.H.H.i.o.0 O O O % @ ",
"3 O J W.{ O O T H.H.H.b.0 O 3 O O O O O @ @ O O @ @ @ O O O * 3 @ @ O O O O O O O O O O 3 @ O O = @ @ O O O O % O O @ @ O O O O O O O 3 O O @ @ O O O O @ @ @ O O O O O @ @ O 3 O O O O O @ O J H.H.H.W.g.0 O O P N.c.0 + 3 3 O 0 7.b.W.]./.c.T 3 O O 3 @ 3 3 % ",
"O O 6 c.w.3 O 0 b./.H.W.{ + @ O O O O O O @ O O @ @ @ O O O 3 3 O O O O O O O O O O O @ @ @ O O @ @ @ @ O O O @ O O @ @ @ O O O O O O O O O @ 3 O O O O @ @ O O O O @ @ @ @ 3 3 @ O O O O O 3 w.W.H.H.H.T + O 0 g.H.J + 3 3 O 0 g.H.T.v.7.{ 0 O O O = O 3 O + O ",
"O O O w.c.6 O 3 r.W.H.W.r.O O O O O O @ @ @ O O 3 3 O O O O @ @ O O O O O O O O O @ @ @ O @ O O O O O O @ @ @ @ O O @ @ @ O O O @ @ @ O O O 3 3 O O O O = O O O O @ @ @ O O O O O O O O 3 O J H.H.H.W.w.3 3 + o.].r.O O 3 O 0 g.H.H.s.J O + O % 3 3 = O + 3 { o.",
"O 3 O 7.W.J O O { W.H.W.g.6 O O O O @ @ @ @ O O @ 3 = O O O @ @ O O O O O O O O @ 3 @ @ O O O O O O O O @ @ @ @ O O @ @ @ @ O O @ @ @ O O O = * O O O O 3 O O O @ % @ @ O O 6 7.T O @ O O O r.W.N./.M.J O O 6 g.W.T O 3 O 3 w.T.T.w.0 + 3 3 O O = O O 6 T w.W.N.",
"3 3 O o.].w.3 O T H.H.T.b.0 O 3 O O O O @ O O O @ @ O O O O @ @ 3 3 O O O O O @ O O @ @ @ @ @ @ * 3 O O @ @ O O O O * 3 O O O O % @ O O O O O O O O @ O 3 % O O O O @ @ 3 O T ].i.3 O 3 + T H.H.H.c.J O 3 O o.H.{ O = O 3 -.T.v.7.6 O 3 O O O O 3 T 7.g.W.W.H.M.",
"J O O T C.H.J + 0 g.H.H.H.P O 3 O O O O @ @ O O @ @ O O O O @ % 3 * O O O O O @ O O O @ @ @ O @ 3 3 O O O O O O O O 3 3 O O O O % @ O O O O O O O O @ @ @ @ O O O O O 3 O @ r.(.7.O 3 O 6 i.H.H.b.T + 3 + { W.o.+ O O 3 7.H.H.Q + O @ O O @ 3 + T H.W.H.H.H.W.b.",
"{ O O 3 9.].{ + O o.W.C.U.s.0 O 3 @ @ O O O @ @ O O O O O O O O % @ O O O O @ @ O O 3 @ O O O O @ @ @ @ O O O O * O O O O @ @ @ O O O O O O O O O 3 @ @ @ O O O O O @ 3 O T H.W.T + 3 + T E.b.H.{ + 3 O 0 g.c.0 O 3 + T H.U.r.3 O 3 O @ 3 O O T b.H.H.H.H.H.g.9.",
"{ O 3 O T W.9.O O 0 c.T.C.T.o.+ 3 @ @ O O @ @ @ O O O O O O @ @ @ O O @ O O @ @ ; O O O @ O O O % @ O @ O O O O 3 O O O O @ @ @ O O O O = O O O O @ @ @ @ @ O O O O 3 O 3 w.T./.T O @ O r.W.H.9.3 O O 6 e.W.{ + 3 O 3 w.W.i.0 O 3 3 @ O O 6 o.H.H.H.b.o.T T 6 O ",
"o.O 3 O J b.v.J O + o./.H./.k.6 O 3 O O O O @ @ O O O O O O O O $ @ ; * O O O $ O 5 9 ; O O * O O O O O O O @ @ 3 3 O O O O @ @ O O @ @ 3 3 O O O O @ @ @ @ @ @ O O 3 + T H.H.9.6 O O T H.H.o.3 O 3 O 9.(.o.@ 3 3 O T H.g.J O ; O O O 0 T i.W.W.W.w.J O + + O O ",
"r.3 O O 6 j.T.T + O 6 g.W.H.W.o.O 3 * O O O @ % @ O O O O O O O $ @ 0 8 O O 3 O 5 Y Y 5 O ; ; O O O O O O @ @ @ @ % O O O O @ @ O @ @ @ @ @ O O O O @ @ @ @ @ @ O ; O 3 r.W.g.0 O O 3 i.W.b.0 O 3 + T W.r.O O 3 O 3 g.i.6 O 3 ; O 0 7.c.b.W.W.g.o.6 + % 3 3 O 6 ",
"i.6 O O T C.T.7.O 3 O { /.H.H.b.J O 3 O O O O O O O O @ @ O O 3 O 3 ` Q O $ O ; L g g 5 O * * 9 h ; O O O O O O O O @ @ @ O O O O O O O @ % O O O O O O O O O O O 3 + J C.W.{ + 3 O { H.H.r.3 3 O 6 i.E.J + = 3 + J H.J + 3 O O 6 i.W.H.H.H.o.6 O O 3 = 3 O 3 7.",
"g.6 O + o.T.H.c.6 O O 3 w.W.H.W.7.O O O O O O O @ @ O O O @ O 3 O e :.Q 5 O 9 I I < g 3 O * h ) I ; O 3 O O * ; O O @ @ O O O O O O O O @ @ O O O O O O O O O O ; O O o.(.c.0 O O 0 c./.b.J + 3 O o.W.i.6 O O O O 9.g.6 O 3 @ O J H.H.H.g.T O O 3 O 3 O O 3 { b.",
"i.6 O 3 w.W.H./.T O 3 O 0 c.H.H.S.J O 3 O @ O O @ $ * ; 7 * O % O O.%.g g * 7 Y h ; 0 % O n ( I N ; @ 3 O O O O O @ @ @ O O O O O O O O @ @ @ O @ @ O 3 O O O O 3 + Q H.g.J O 3 + o./.T.7.O 3 O 6 g.W.{ O 3 * O o.W.{ + 3 O 3 + o.W.H.b.J + 3 3 O 3 O O { g.H.b.",
"7.O O 0 b.W.H.W.g.T O O O r.W.H.~.7.O 3 @ @ O O @ $ * 7 Y h O = % =.0 2 7 ; 7 N 7 < 7 O 0 Y 9 h n * @ $ O O ; 0 0 O % @ O O O O O O O @ = = @ O @ @ 3 3 O O O 3 O 0 c.b.J + 3 O 3 i.H.b.J O 3 + T W.g.6 O 3 O 0 c.W.) + 3 = O 0 g.T.g.J O 3 * O 3 O O o.H.H.W.H.",
"{ O O 0 b.W.H.H.H.o.@ = + { W.H.W.g.6 O 3 @ @ @ O ; * 9 9 h 0 O 8 ! $ 5 ; ; 9 N ; < < ; I 9 ; n n O = O ; 9 9 T h O % O = 3 3 O O @ @ @ @ @ O O @ @ O O O @ O 3 + o.].i.3 O 3 O e b.U.9.% O O O r.].{ + 3 3 O  .H.H.T + 3 O 0 g.W.g.0 + * O O O O O { H.H.M.7.o.",
"J O O 6 c.W.H.W.9.0 3 O O 0 b./.H.H.L O 3 @ O @ O * * 7 9 ; h ; e R $ 3 ; ; g 9 ; < ; g 9 ; < n 7 O ; 7 0 < 7 Y 6 O O O 3 O O * 3 O @ @ @ @ @ @ O O O O @ @ 3 O 0 b.W.w.3 O 3 + { T.C.{ + 3 O J b.H.J O 3 O 0 g.H.H.T + 3 O 7.W.H.T + 3 O O @ O 4 9.H.b.9.J O O ",
"6 O O 0 b.W.H.W.{ + @ 3 3 * w.T.C.T.{ o 3 O O O O * * ; 7 ; 7 < 0 K ; ; ; ; 0 ; ; ; 7 g ; ; ; h ; * 5 7 < ; n n O @ O $ O 7 h = = O O O O O 3 @ O O O O @ 3 O 3 r.H.W.9.O 3 O 0 c.T.H./ + 3 + { W.i.6 O 3 O o./.H.b.J O O 0 c.W.9.O 3 @ @ 3 O 0 r.W.b.T O O 3 % ",
"3 3 O J H.T.H.H.J O 3 @ 6 O T C.C.W.o.+ = O O O 3 ; ; O ; < < 5 0 0 ; * ; ; 7 ; ; ; 7 < ; 3 ; 9 ; ; < ; ; < B 6 O 3 * ; n T T 3 3 O * O O O @ O O O O O @ 3 O 3 i.H.W.9.O 3 O 7.W.U.c.0 O 3 O 7.].7.O @ O 3 i.T.E.i.6 O O o.W.H.J + 3 O @ O O o.W.W.9.O O O 3 3 ",
"3 3 + T W.H.H.c.0 O O 3 6 3 % t.T.H.T O = O O 3 6 < 7 * ; < < 5 0 7 ; ; ; ; < o * ; ; ; % ; 5 ; ; 7 ; < ; g n O O * 0 J h n n O * O @ O @ @ O O @ @ O @ O O 3 + 7.W.H.{ + O 6 g.H.W.{ + 3 O 6 g.H.U O 3 O T H.H.W.o.O O 0 c.W.b.0 O 3 @ O 3 9.H.b.g.T O 3 O 3 3 ",
"3 @ + { W.H.H.g.6 O 3 O 3 O 6 i.T.H.T + = O $ ; 3 5 5 ; ; ; ; ; < < ; ; < ; O t t O ; ; 3 3 ; * ; ; ; ; < n ; O 5 n h 5 ; N 9 O O O @ @ O O O O @ @ @ O O O % O o.].7.O O O 0 v.H.b.0 O 3 + T W.g.6 O 3 O  .W.H.W.{ O O T W.H.b.J O 3 O O 7.W.C.c.e 6 3 O O O O ",
"@ O 3 r.W.H.W.o.O O O O 3 O J b.H.g.0 O * * ; O 3 5 3 < ; 3 5 ; ; ; ; 3 ; O r >.q o O O O 3 ; ; ; ; ; ; 7 ; * 0 b 7 ; ; 0 I ; O O O O O O @ O O @ @ O O O O 3 O 7.].T + 3 + T H.H.i.6 O 3 O r.].r.$ $ ; + o.W.H.b.J O O r.W.H.b.J O 3 O 0 b.H.T.r.O O 3 % O 6 T ",
"% O J b.H.H.H.J + = O O 3 + { W.W.o.O O O O ; * ; 5 ; ; ; 7 h ; 3 O * 0 ; 3 Q K O ; 4 ! 3 5 3 * ; < 2 < 5 ; 7 7 ; ; ; < J 7 * O O O O O O @ O O O @ O O O O 3 O 7.W.J + 3 + / T.T.i.3 O O s 7.H.o.o 5 O 0 c.H.W.r.3 3 O 9.W.H.i.6 O 3 + T H.T.T. .O O O @ O 7.i.",
"@ O { H.H.H.H.J O 3 O 3 6 0 w.W.c.0 O 5 3 ; * * * ; ; ; ; 7 I 7 ; * 0 0 + 7 8 7 ; 3 0 J O h O * ; 0 < ; ; < ; ; = 3 ; 0 9 * * O 3 6 3 @ @ O @ @ O O O O O O 3 O 9.c.6 O @ O o.T.b.o.O O O J I w.' 7 n + o.W.H.b.J O O O w.W.W.o.+ @ O O 0 b.W.7.0 3 O O O o.H.c.",
"= + | W.H.W.c.0 O 3 O 3 @ { H./.o.O * n Y 9 9 7 * * ; ; * 7 N 9 ; ; n ; ; < e U j K @ O < 5 o 7 h ; ; ; < ; < 7 * ; < 7 * 3 9 n N Y n O @ O @ @ O O O O O 3 O ; u.' o % O { C.W.r.n 5 O 3 I I 4.Y N I O w.W.T.q.O O O O o.W.W.o.O O % O T T.c.0 O 3 @ + J N.T.v.",
"* O { 8.r.].r.3 O O O O O 9.H.H._ + $ * h 7 5 9 7 * ; ; O 5 g 7 ; 7 h * ; ; < 0 U e o 7 I 9 o 7 n ; * ; < 9 n n ; < < ; 9 h 7 2 b I 3 O O O @ @ = O O O O O O | c.n 0 3 6 c./.W.r.I I O 0 Y 9 N n 0 I 3 w.W.T.| O 7 n O T T.W.7.O O 3 O { _.7.O 3 O O 6 i.H.T.b.",
"0 n n n r.].T + 3 @ @ O { H.H.g.0 O % @ ; 0 5 ; 3 ; ; ; o ; g ; * 9 9 O e k J 0 0 O ; 7 9 9 # < 0 ; 3 5 9 < 9 9 ; < 9 g 7 ; ; 9 N ; O * O O 3 3 3 O O O O + T H.L.) I Y J v.H.W.i.N Y 9 I n < < 9 3 0 5 y.(.g.L n B n + 7.].c.J O @ 3 O { (.{ + 3 3 + { W.H.T.b.",
"n 7 < n g.c.0 O $ 3 O J N.H.b.I o < ; O @ ; < 3 ; ; ; ; * O 9 5 ; < < 3 J e e ~ R 7 ; ; 3 h ; ; 7 ; < < ; < n ; ; < 7 ; ; ; 9 N 7 O * * * O @ @ @ @ O = 3 O o.T.W.{ 9 ) Y | H.W.r.h N n N 7 ; < 7 < 2 0 b.h.L N g g o I g.r.{ 3 O = 3 + o._.{ + 3 O 3 w.W.H./.b.",
"; ; 2 Y c.T O 3 $ 3 O 0 h.T.9.O < 2 < * @ * * ; 5 5 ; * 3 * 3 5 3 ; * 9 2 4 ! E :.W 3 3 0 I 7 5 ; < ; < ; 0 5 O ; ; ; ; 3 ; 9 ; O O O O O O @ @ @ @ O = 3 + { H.E.o.* Y n 9 4.r.J < 2 < < ; 3 ; 3 < ; J y.n 9 7 7 ; * T T L J ; % 3 O 3 w.H.J + 3 O J c.H.H.W.b.",
"< ; 7 8.i.; ; + + 6 J # 7 Y 0 < < 2 < ; ; O * O O O ; 9 * 3 ; < ; ; * 9 7 n n U =.e Q R e J o n 5 ; < ; 9 9 O * ; * ; ; ; h q.) ; 3 5 ; * O O O O O O O ; + o.3.' ' o J < < 9 ' n 7 ; ; 3 * #.r * < ; 0 9 < ; 3 < 7 n n N I 0 O 3 3 O 3 g.b.0 O 3 O 6 o.W.H.W.b.",
"< ; I r.{ J T / { i.T ; ; ; 7 0 < < ; < < 9 0 J { { J I * * 3 ; ; ; ; 7 < 7 9 n I n T Q 4 0 ; h 5 $ ; 5 9 O * ; * ; 5 ; n 4.o.I n N Y 9 O O O O O O O O ; + { 3.n n ; ; < < < 9 g 9 7 ; # ; d K ; < 9 3 ; ; 5 5 0 0 7 < g r.) + 3 3 + J b.i.6 O O O 3 6 r.H.H.b.",
"; 7 n Y I I 4.~.H.`...* < 7 < ; < ; < < < 9 T ) W.q.0 h 7 + * * * * ; < ; < < 7 g 9 I J ; 7 L 7 $ o O 5 O $ ; * ; < ; 9 Y b 2 9 2 g n O O 3 O O O O O * 3 o J g.I Y N 9 ; ; ; ; * O 5 6 e 3 3 3 * ; n 3 ; ; < 5 ; ; < 0 I o.I O @ O O 7._.7.O % O O 3 + J H.H.b.",
"; 0 N n 9 7 r.U.B.].u.< < ; < < < ; ; 7 < I ) J y.' ; 7 9 O * O * 9 5 ; ; < < 5 ; 7 7 9 ; 0 0 ; o ; 9 * ; ; 7 g n 7 < 9 < < 9 2 < h { o.6 O O O O O O 3 = O 3 z.4.g 7 0 7 ; j 0 O R 4 3 ! 0 * 5 0 7 h ; ; ; ; < 7 0 n g g g 9 O @ O 0 c.W.t.3 O O O 3 @ 3 7.W.H.",
"9 N b < ; 0 c.W.M.o.4.h * ; < < < ; ; ; 7 n 9 n ' I 7 ; 7 ; ; 7 N Y 9 ; ; ; ; ; ; 7 7 5 < ; ; ; 7 h 9 ; < 9 9 n g ; ; O ; 5 < < 9 ' N.W.w.J + O 3 3 3 O 3 0 7 4.l.n < ; < ; e e 0 4 3 O O 0 ; 0 I 7 7 ; h ; 7 9 7 < < < < | X.O @ O 0 v./.v.0 O 3 O O 3 O 3 { 7.",
"n 9 < < ; ' U.T.7.h n n 9 < ; < ; ; ; ; g 7 ; 0 h 0 < ; < ; 7 I h g 9 ; ; ; 5 ; ; < < ; < ; ; 5 7 7 ; 5 7 < 5 7 * ; O ; ; < < < n M.W.C.W.c.T * O O O O 6 B n 9 B b < ; J e O 3 6 4 e r 0 ; 5 h I ; * h n ; 5 ; < < 5 < 3.W.H.J O O 3 i.T.T.{ O O 0 6 O $ O + O ",
"7 ; < < < y.W.].o.n 9 7 9 b 7 < * O ; ; h < ; 7 h 7 < < ; 5 I 9 ; 7 9 * * ; ; ; ; ; ; ; < ; ; 3 ; ; 5 ; < 5 < O O ; ; ; 3 ; ; * * { A.H.W.W.H.w.7.o.0 O * h n < 7 0 9 ; e Q e 8 t ~ R T P 7 ; 7 h ; 7 Y ; ; ; 5 5 5 ; n b.H.T.T + 3 O r.W.H.t.3 6 J 0 ; O O 3 * ",
"; < 5 ; ) '.b.0.Y n n n 7 ; g g ; h 7 ; 0 ; < ; 9 ; ; < < N 9 ; 3 7 9 ; O ; h I 9 ; ; ; * < ; O + o O O O O * ; ; ; ; ; ; * ; 3 < ; n ' o.w.b.W.W.W.c.T * * 9 5 9 7 3 7 5 T e K O.+.W g I h ; ; 7 ; b 9 O ; ; ; * * O 0 g.H.T.T + 3 O { /.b.T.o.5 T T Y h 3 O * ",
"; 5 ; 7 u.8.T n h g n I 7 7 < g 9 I h 7 0 < < ; 9 ; ; ; 7 n ; 3 3 7 7 ; 9 n N Y g O O O * 5 7 9 7 7 5 O O * 3 ; ; ; ; ; < < 7 < 7 h 7 * 6 6 0 o.H.W.z.) n 9 ; ; 5 5 * ; 3 0 K k E :.~ 0 9 n ; ; 3 ; 9 * O ; < 5 3 7 5 O w.W.C.J O @ @ O o.E.H.C.{ 0 Y I Y Y n ; ",
"; ; ; N ' n g 7 ; 7 I 7 ; 7 < ; 9 b 9 9 < ; ; ; 5 ; * ; 7 < ; 3 3 9 < h h < 9 B 9 O ; ; ; ; ; ; 7 n 5 O O * * 3 3 ; ; ; ; ; < 0 0 7 * * 3 3 O O ' u.| n b 0 < ; * * 3 O 3 9 J ! K _ 0 7 J J ; ; ; ; ; O O ; 7 9 9 h n n | C.H.J + @ 3 O 6 g.H.C.C.9.I b 2 9 n N ",
"; ; < h 9 < ; ; ; n h ; < ; ; ; < 9 ; 9 < ; * ; ; * * 0 < ; ; ; ; 7 h 9 ; ; 7 n 5 O ; ; ; < 7 ; ; ; O $ $ ; 3 3 ; 3 3 ; 5 0 0 ' J 6 % O O 3 3 O o ; 9 Y 9 ; * ; * * ; O O ; 9 I n n 7 < 0 n 5 * ; ; O O ; < < ; ; ; ; I n 7.].9.O % @ 3 O J c.T.C.W.r.n 9 9 ; < ",
"; ; < < ; ; ; < 7 h h 5 ; ; ; 3 7 7 ; 7 7 ; ; 7 O ; n 0 ; 9 n ; ; 9 g 3 3 3 3 g ; + * 0 n N I 7 O O O O $ ; ; < < 9 b n 0 N Y B Y ' o.| 0 O O O * O O n T g < ; O O ; 9 ; O < 9 2 5 ; < > < 5 * 3 O $ ; ; 5 < < < 7 h h o.b.H.H.T O 3 O 3 O s s.T.v.T.w.g 2 9 ; ",
"g h ; ; * ; ; 5 9 * h 9 ; ; ; * 7 7 ; ; ; ; N n o 0 9 ; 9 I I ; 7 g ; 3 3 3 7 9 O 5 J I h n h * ; ; 3 O $ ; 7 7 ; < < 9 ( ' Y N B N X.`.g.T 3 O @ O ; 5 N N n 0 5 * O 5 7 ; O < < 5 3 ; < ; ; ; * O $ ; ; O # 5 3 6 5 O { W.H.T.i.3 O O O 3 + J c.H.T._.u.n ; 5 ",
"N 9 * * ; ; ; 7 * O 3 g < 7 5 # ; 7 ; ; ; 7 N 9 ; 0 ; 7 h 7 n 3 9 ; ; 3 ; ; 7 7 7 9 5 ; 7 n ; + * ; ; 3 ; ; < ; < ; ; < ' u.M.z.h.c.B.C.H.H.o.3 O 0 n b 9 9 < ; ; ; ; * ; 3 % * ; < 5 ; * ; $ O O O $ $ 9 { o.6 O O O O O 9./.H.H.{ O O O O O * 0 4.u.h.S.A.' 5 ",
"b * O ; ; ; 7 7 9 I Y Y I Y I * ; 7 ; ; ; 9 9 ; 5 7 ; 7 7 ; 9 7 ; 7 N 9 O ; 5 9 7 ; ; ; h 9 * 0 n 5 O O $ ; * ; 3 ; 5 9 b m o.A.`./.H.H.H.H.W.r.6 ; < 7 9 < ; * * ; ; ; * O * * * ; ; ; * ; O $ O O O $ 9 4.W.J O 3 O 3 + T H.H.H.W.{ + $ 3 0 n 9 9 9 g n ' | 0 ",
"= O ; < 9 n N Y Y Y I h Y Y h 7 ; 7 * * ; g ; ; ; ; ; ; ; ; < * 7 h n ; O ; ; 5 ; ; ; 9 h 7 7 9 b ; ; O 3 3 3 ; 3 J 5 9 n N b n u.W.H.H.H.H.H.W.g.0 O * * ; 0 < * O O * 7 7 < < ; * * * O $ $ ; 3 3 $ ; $   T 9.O * O 3 O { W.H.H.H.H.{ + @ n g < ; ; ; ; o o 6 ",
"O ; 9 n n g n n h 5 ; n Y 9 ; 9 ; ; 9 0 ; 7 ; ; ; * 3 0 5 ; 5 ; 7 ; 5 ; * ; g 9 ; ; ; 7 7 < ; g 9 o ; * Y | o 3 3 0 ; 9 0 < < O 5 o.b.W.H.H.H.H.W.s.J ; 9 g 9 ; ; O 5 9 7 ; * * O O O ; ; ; < 5 % $ ; * 0 ' T c.T + O $ O 0 b.'.W.C./.b.o.6 + 7 9 9 5 5 # 4 *.;.",
"7 h g 2 7 9 7 ; ; ; h I g ; ; ; 7 ; J I 7 5 ; ; * 7 J Q 3 * * ; ; ; ; * 7 9 n h ; ; 5 7 < ; < n ; ; * * p n O $ O 0 { 9 < < ; ; O + J g.W.W.H.H.W.H.o.h n 2 ; # O O ; ; O * * * O 5 6 * < ; ; ' J + * h T 7.W.E.9.O O O 3 O { w.h./.C.C.T.w.J 0 + O - - 4 =.} L ",
"9 7 ; 7 7 < < < < h N 7 n 9 ; ; ; ; h h 7 ; ; ; ; < 0 6 O 7 h ; ; ; ; 7 7 ; 0 7 ; ; 5 5 ; ; 0 < + 3 3 ; < 5 O 3 O { Y ; < ; o O ; O o 0 { r.b.W.c.{ n g < ; ; O ; 3 O $ ; O ; ; 3 T T 9 ; ; * 1.{ o 0 ) T I g.T.H.J O 3 O % J I { H.H.H.H.T.H.c.o.T J 0 #.Q n V ",
"; * * * ; ; ; < h n ; o h n ; ; O * h 7 7 ; o O 5 ; 7 ; 0 h 0 ; ; = ; < ; < h ; O ; < ; < 7 ; o O ; 5 < ; 9 6 ; ; a ; ; ; n ' 7 ; 9 N 5 + O J z.{ I I N n 5 3 | | 0 ; ; ; * * 0 I T I Y 7 ; ; 4.t.3 I I n N 7.T.W.w.3 O 3 T I h L g.].T.H.C.C.H.W.W.U.9.J 0 n h ",
"n h 7 ; ; ; 7 h 9 O + O ; n 7 < ; O 9 7 ; 3 O ! R * 9 J J 9 * 7 O Q e ; ; 9 7 * 7 n h ; 5 5 < h g g b b p < 7 3 * * ; ; ; i.M.Y 0 B n = 3 O + J w.M.c.c.B.9.I 5.9 ; 3 3 ; O 9 7.Y h 7 n Y < O 7.T.T Y 9 < n T H.c.H.o.3 I n ; 7 h 0 { w.b.H./.C.v.c.H.L.y.0.1.' ",
"N I 7 ; ; 9 0 ; O ; ; O O 7 9 ; 3 * 7 5 ; ; 0 } w ; n Q 4 ; h h 9 0 J 3 3 9 ; ; < I 7 O 7 0 9 7 7 < < g 0 ; ; ; * O 7 ; N 4.n < < 9 ; O O O % O 0 r.W.C.C._.4.o ; ; ; $ 3 O q.r.h 7 ; 7 Y n & 7.b.Y I 5 ; 0 h o.T c.c.T J ; < 7 n O O 3 0 T { | T L ) h.L.h.1.T ",
"n 7 ; ; ; 3 O O ; ; ; ; ; 3 7 ; ; ; 5 5 ; 7 g 5 ; 0 +.*.0 0 6 3 7 9 0 0 0 * 3 3 7 n * ; 5 ; ; ; ; < 9 n ; ; ; * * < 0 < 7 < ; ; ; n 5.n + $ @ 3 O 6 s.C.C.H.I 7 5 ; 3 O ; O o.3.h < < ; 9 I ; I w.I 9 ; ; 9 9 7 J i.0.n 7 < < 7 h ; 3 3 + ; h I n I J 0 0 O + o ",
"; ; 3 ; ; < 7 0 b b g 9 < 3 ; 9 9 ; ; < O 9 ; ; < I -.8 h 4 . * 9 7 n 6 3 * ; ; h 7 * ; ; 3 ; ; ; 7 b ; O 3 ; O 3 < 5 ; $ < < ; 5 r.[.b.T O % O 3 o J b.].7.5 Y N n 0 * O O 5 ' n ; < 5 ; n g * T I 3 < < 5 0 9 I X.Y 7 ; 5 < 7 7 O O O 9 I I 7 7 Y h 3 $ O ; < ",
"; 3 ; ; ; ; < 7 7 9 h n n g ; 9 N 7 < * * ; 3 4 0 0 9 %.&.6 5 = = e J ; < 9 * 7 5 * ; ; ; $ ; ; 7 7 $ o O O $ ; 3 < ; < 0 5 ; < X.l.X.0.W.T O 3 O @ O ' W.n 7 Y I B Y n 3 O ; h n ; ; < ; 9 N O 6 n ; ; ; < 7 < h h 9 ; ; ; < < 7 O * 0 Y g < < 9 Y 0 3 0 7 ; < ",
"O O O O O ; ; ; ; ; ; g N B 9 ; 0 < < ; O * 3 _ j O Q ;.e K E J 4 ! 0 ; 0 0 ; ; < 7 < n 9 ; 7 7 ; O + O O O $ ; O ; 5 7 7 ; * 9 n 2 o ' ].g.0 O % % @ O 0.8.{ I I b 9 Y Y 7 O 5 N ; ; < 5 3 n 7 7 9 ; ; < < 7 ; 9 7 ; ; ; ; ; ; q.3.h Y 9 ; 5 ; h I O O $ 9 < 3 ",
"O ; ; * ; ; ; ; < 0 n N 9 ; * ; < 7 < 3 O O 0 n 7 0 J 0 0 _ U K ~ e ; 3 7 ; * ; 9 < 9 n ; ; < ; 5 7 5 ; O + O O O ; ; O ; 9 < ; ; < # ' W.W.o.O O O * O T [.q.J N 9 < < n Y 0 * n 5 O ; 5 ; 9 h ; 3 ; ; < < 5 ; 7 ; h h ; ; ; J c.' n 9 ; ; < ; I h 0 T ) 9 ; 3 ",
"9 ; $ ; ; < 7 g n n 9 ; * ; ; * ; ; ; 3 O ; 0 7 < 5 7 3 J I 9 K ! O 0 U * O 3 ; ; 7 h 3 ; 3 ; ; 5 7 9 b 9 * O O * ; 7 9 7 5 ; ; ; 3 5 7.T.U.r.h n 0 5 + J T.s.I B < < < ; 9 Y 9 0 7 * * < ; 7 n < $ ; ; ; ; ; ; 7 I T n ; ; ; J ) 7 < ; ; ; ; 9 J w.c.].u.; ; ; ",
"N 7 ; < < ; 7 7 ; O * 7 7 7 ; ; ; ; O ; 3 ; 7 ; ; < 5 5 7 < 9 0 J ; J J ; 7 9 ; 7 8 O O $ O ; ; ; ; 7 b N n * O 3 5 7 < < * * ; ; O { L.H.U.g.L ) ) Y I I r.'.| N 9 ; ; < ; 9 N 0 7 ; O < 5 ; b < $ ; ; < ; ; ; I h n h O O 0 _ T 0 ; ; ; ; 7 n q.W.c.r.Y 7 9 9 ",
"5 7 9 9 g 7 ; o o O 9 I 9 < ; ; ; ; $ + O ; < ; ; ; 7 g n ; 7 7 7 < 7 7 ; 7 ; ; < ; ; O O ; ; ; ; ; ; 9 N g ; ; 3 ; ; ; 5 ; ; 5 ; 5 5 X.`.A.T.o.N Y h h I N | r.Y g ; ; ; < 3 7 b < ; ; ; 5 ; 9 < O 0 I ; ; ; n h ; n 9 o h I I I 7 * ; ; 5 h 9 T ' L h h h h h ",
"O ; ; < 5 9 h g < + O 9 n b < ; < < * 5 3 O O ; ; 5 7 h 7 ; 7 5 < < 2 ; * * * 3 7 9 b 0 ; ; ; ; < 9 g n 7 * ; ; ; < 7 ; 9 ; 5 7 * ; ; n b.H./.c.Y N n 9 7 9 9 n n n 7 ; < ; ; ; < < ; 7 ; < ; > < ; Y N 5 O 9 9 ; 7 n * 0 n ; b n O ; ; ; 9 < ; ; 5 5 5 < ; ; < ",
"; ; ; ; ; ; ; 9 n 9 o o # 5 9 9 9 < g 0 ; O O $ O ; < < ; ; ; ; ; ; ; * * ; ; ; ; < b b < < 9 9 0 9 7 * O = $ $ ; ; 0 < 9 ; ; ; ; ; ; * T H.W.].w.N b 9 7 ; 5 7 < h g ; < < ; ; ; ; ; I h ; ; < < n g 9 5 O 9 ; ; 9 h 7 0 ; ; n 5 O ; ; 7 7 * < < < ; ; 5 ; < g ",
"; ; ; ; < 7 < ; < B g O + + o O O 7 n < ; < < 3 * * ; * * ; ; ; * O * ; 3 ; < 7 9 7 5 O ; < ; * O O + O O @ ; ; 3 5 ; 7 7 ; * * ; ; ; 5 ; ' r.i.C.0.n 9 ; ; ; ; ; ; h 5 ; < ; * ; ; 5 I 9 7 < ; 7 n ; 7 3 ; < < * 9 9 9 < < 5 0 ; ; ; ; ; ; ; 3 ; * ; ; ; 7 n ' ",
"; ; ; ; ; 7 b b g n N 9 O O ; ; O h N g < 9 7 * * ; O * * ; ; * * * * ; ; ; < ; o + O O O ; < 5 7 ; O O O O O ; ; ; ; 9 9 ; 5 5 * ; O n ) h 0 n Y ' n n 9 ; 5 ; 3 ; ; 0 < ; ; ; O ; 7 9 ; 9 < O 7 7 * 7 3 * ; ; * 7 0 ; ; ; 9 ; O ; < h n J 3 * * * ; ; 5 n 4.h.",
"g < ; 7 9 2 g M N N N 0 ; ; ; ; O ; 9 2 < < O O 7 7 $ O 3 ; ; ; ; ; < < ; ; ; 7 < O O ; 3 ; ; ; 7 n 9 * O O $ ; ; ; 7 9 n < 9 3 * ; ; < I n < < < < 7 9 h 7 ; < ; 3 ; < 7 9 h ; ; * 7 7 ; 5 5 * 5 9 5 5 O 0 0 O * 9 7 ; $ 3 * * 9 n h n Y I O O O ; < 9 n I ( Y ",
"< n < ; 9 g g g 0 9 < ; < O ; ; o o o $ $ $ ; ; 9 9 ; ; ; 7 < ; 7 < * < 9 0 g n N 7 ; ; ; ; ; ; ; < n n ; O $ $ ; ; < 9 7 ; ; * ; ; ; ; 7 Y 0 ; 3 ; ; ; ; 7 7 ; ; * * ; * 9 Y h ; O ; 7 ; ; 5 O 5 n 5 ; 3 T h + U 0 * O * ; * h h 7 < g Y ; o < 0 n n N n n h n ",
"9 b N ; O O O O o + ; 7 ; $ 3 O $ 3 ; ; 5 ; ; ; < n ; 2 < O 0 n n n O * O ; ; < 7 < ; < < < 7 7 2 < < b n < O $ 3 ; ; ; O 0 I ; ; ; ; ; O 7 B 7 ; 3 3 3 * ; ; ; 5 ; O O * 5 I I 9 O O 5 * ; ; ; 5 = O * 0 9 9 6 _ h O 3 9 < n 7 * ; < N 7 O 9 b h 7 < < < < ; 7 ",
"7 n N n * O O O + $ n 0 ; 3 ; ; ; ; * ; 7 ; < < O N 9 2 7 + O ; ; ; * * ; O O O O ; ; ; 7 < < 7 0 n n b n n $ $ 3 ; 7 9 7 J ) N 9 Y 9 * ; n n N 5 ; ; 3 3 * O h Y n 9 * O ; n 7 7 3 7 3 * 0 7 O ; 3 O * * 3 5 5 0 h O J h 7 < ; ; < h 0 < 7 7 < ; ; 3 ; < ; 7 | ",
"< 9 n N 7 + $ O + 7 N < ; ; ; < < ; o 7 5 ; 7 ; + 0 N b < ; O ; O ; ; ; ; ; ; 3 $ O 3 ; ; 9 ; + + O ; ; ; * O O ; ; ; ; 7 Y h N h 0 I * b N 7 9 n 9 * * ; ; * ; B g 9 h 5 O h 7 ; 3 I 5 7 T 7 0 I U 3 3 5 5 ; ; 5 9 ; 9 9 O ; 3 ; 9 7 ; 5 ; ; < ; < 5 < O 9 r.U.",
"b b b n h + O 3 + 9 N g 9 ; < 5 ; O O g ; 9 0 O O ; I n ; < * * ; ; ; ; ; ; < 5 ; ; ; ; ; < n < + + * * 3 $ $ $ O $ O + 5 Y < 7 N < < 7 N 9 3 ; < n 9 ; * * ; O 7 N < ; 7 5 7 9 ; ; 0 ; 7 3 h U 3 3 I n < ; ; = 3 < ; 9 ; ; < ; 7 5 * 3 3 ; ; ; ; < ; 5 { c.z.o.",
"9 b b n h O o O O 7 B N n 9 5 O O O * b g b ; ; O o 9 ; ; 2 ; * ; ; < ; ; ; ; 7 7 ; < ; ; ; 9 b ; O ; 3 $ $ $ O O * 3 * 9 I 7 ; n g - n 9 < < < 5 ; n N ; = O O O 7 n < ; 3 ; 7 ; ; < ; 7 0 4 e 9 3 7 9 U 8 3 U 8 * ; O ; ; ; 9 n 0 * * * ; ; ; ; ; 9 ' 0.' 5 + ",
"* ; ; * O + + o + O < < ; ; O + O O * n g ; O ; O o O ; O 0 < * ; 7 < 7 ; ; ; ; 9 < ; 7 7 ; ; b b O 3 3 O ; $ O 9 < ; 7 n n ; < < n N h < ; ; ; < * h 0.Y ; ; ; O o 5 h 3 ; ; ; 3 ; # 3 9 =.@.0 7 ; O ; ~ K 7 h h * 8 0 O * 9 n I 3 O ; 7 7 7 7 ; 7 n n h n N N ",
"; ; ; O + + O o O * o < 7 o O O $ O O * O O ; ; ; $ $ 3 o 7 n 5 ; < < < b 7 ; ; 7 h O * < 9 9 g V 9 $ O O ; * ; g n 2 ; 0 n ; 5 ; 9 I 7 ; 7 h n n n h h n g 9 9 9 5 * ; 7 5 ; O % Q 3 ; h R q O.t O ; 3 e P 0 0 ; ; T h O 7 9 h * O 7 9 g n I n ; 5 ; ; < < 9 g ",
"; ; ; O + + + + ; 3 ; n b < O $ $ O O O O * < ; ; 3 $ ; + O n b < < h & < b n g 9 n < O O O ; < 9 9 O $ O 3 ; < ; 2 b 2 7 h ; 3 ; 7 9 h N B N g 9 < ; 3 3 3 3 ; ; 5 7 ; * ; 3 $ O K 4 ; 7 r :.f r 3 6 e k 0 e k * h 9 ; ; 7 9 ; O ; ; < g n 7 O O O ; ; ; ; ; ; ",
"* ; 3 O O ; ; o O O < 9 < 7 ; # ; * o O O * 0 < ; 3 3 ; O + < N 9 < n ; + ; 9 b M M g ; 3 ; 5 < O * ; O 0 0 7 2 ; ; < b g g ; ; ; 9 0 0 N Y n g 9 < ; 3 3 ; 3 3 O O O * ; ; * ; ; 7 5 * 9 Q K r ~ R ~ R O.U t >.6 7 ; * ; 7 ; ; 3 < 9 h 7 * O O * ; ; ; ; ; 7 h ",
"; O O + O O ; $ O O > < ; < < ; ; * 7 g ; O 0 9 ; ; 9 ; + + o 9 N g N < + O + ; < 9 9 * 3 5 > < ; * ; ; 9.J 7 9 ; 3 ; < < 7 ; ; ; 7 ; * 2 g n B b 9 7 < ; ; 3 3 3 3 O + + O O O * 5 ; 3 9 9 t ;.~ r *.r ~ T 3 %.6 ; 5 n 6 * ; < 7 7 5 O O * ; ; ; ; ; ; 7 9 9 h ",
"O O O + O + O ; + + ; < ; ; ; * * 7 g n < + 0 n 9 2 0 O * ; O ; 9 N N 9 + O o o O + + * ; ; ; ; ; ; ; 7 h o 7 h ; * ; 5 ; $ % ; < * 3 5 ; o ; 9 n N n 9 2 ; ; ; ; ; 5 9 0 7 3 ; ; ; ; < 7 ; j Q j 6 Q J J J 3 9 < < N J * * ; ; ; * ; 7 0 h h h h 9 7 7 ; O o n ",
"O + O 3 ; O O O + + ; ; ; ; * O ; < ; b ; + 7 N n b < 7 n 0 O 3 O 3 h ; + O O 3 O o O 3 * ; 3 O ; ; ; * ; h ; h 7 * * ; 0 t O ; ; 3 U 0 * * * O $ ; 7 9 2 < < < < ; n N < < < 5 5 < ; ; < ; 0 7 0 0 0 0 0 9 ; < ; 5 5 O ; 5 7 9 9 ; ; < 5 5 7 9 g n I I h 0 3 7 ",
"+ o O n 9 ; O + + + ; < * ; * O ; ; ; 9 $ * ; h n 2 2 g b 0 O ; + + O O O O O 3 O O 3 * O O O O O ; 3 7 n N N n 9 ; * O K -.5 * * h J 0 O ; O 3 O o o ; 9 9 2 3 * O ; 0 g 9 7 < ; ; ; * ; 3 9 ; 7 9 ; 5 < ; ; $ 3 3 o + O O ; 3 9 n h ; O 3 5 7 7 9 n Y T ) T n ",
"O O o 9 < ; ; O + + ; < O ; * O ; ; ; 5 * ; * * ; ; 3 ; 9 < o ; + + + O ; o O 3 3 O O O $ 3 3 O $ 3 ; < 2 < < 7 g 5 * O 0 J J O ; h 3 0 $ O O O + 5 n n g 5 ; * * * * * 5 7 9 9 7 7 ; * * ; ; ; ; < < < ; ; O O O $ ; ; ; ; 3 3 ; g Y I 7 O ; < < < 5 7 9 0 h Y ",
"; O + 5 7 * ; ; O o o ; O ; * * 3 * ; ; ; ; O ; ; O ; ; 7 ; O O O O O 3 3 O O 3 O O O $ 3 3 3 O O O ; n 7 ; 3 ; ; 5 5 O 7 ; 9 3 ; 9 * 0 O O o ; n I h < ; 3 3 ; 3 3 * O + + o * < < ; * O O * ; ; 3 3 ; * O O O O ; $ 5 7 9 9 0 h n h 9 7 ; ; ; ; ; ; ; < 9 n Y ",
"# O + ; 7 * * 3 ; O 0 5 O * 9 9 O * ; * ; O $ O O ; ; 7 < ; O + O O O 3 ; O O $ o O 3 O O O O + O * ; N n ; ; ; ; ; 5 5 ; 3 5 5 < < * 3 O + 5 N N 9 ; 3 5 ; ; ; * * * ; ; * 5 n 9 ; * * ; 7 ; O ; O * * O ; $ O O $ 3 3 7 ; ; 7 ; ; * * ; ; ; 5 7 7 0 n N N n h ",
"+ O O + 3 3 ; O ; ; g < o 5 9 ; O ; * ; < O O O ; ; ; < O * * * * o + * $ $ $ O O $ ; ; ; ; ; ; * O o * I 9 & * * 3 I h 9 * * ; 2 ; * ; o 7 N N 9 < 5 ; ; ; ; ; ; < 7 7 * 7 Y 0 ; ; ; ; h 0 O ; ; * ; ; ; ; ; O * ; ; 3 < 7 o O O ; ; ; ; < 9 9 9 0 9 9 7 7 b ; ",
"$ $ O + O ; ; $ O 7 7 ; ; < ; * O O ; ; 5 ; ; < 7 ; * ; 3 7 7 9 g 9 $ O $ $ O O * ; ; ; 9 9 ; ; ; ; 7 ; ; n 7 O * * 5 ; ; < 9 5 < ; * ; O 5 9 g N N n g g h n g g 9 ; O * I N 9 7 7 ; h n ; ; ; ; ; < ; 5 ; ; ; O ; ; ; ; 7 9 O O O ; 3 ; < ; * O O + + + 7 N < ",
"; ; ; ; O O ; 3 O 3 < * ; * O # < ; * ; ; ; ; * O O * 3 * ; ; ; < b b O $ O O ; 5 < ; ; 9 0 7 9 < 7 0 9 ; ; 7 ; O O o o O 5 0 n 9 * ; 7 # O O * ; < 5 7 7 7 9 9 < ; O + ; h h g < * 9 N ; ; ; ; ; ; 5 < 7 9 ; 9 * O 7 9 < ; b 5 O O O * ; < 9 9 ; ; ; O + 7 n ; ",
"; ; ; 3 3 $ O ; O ; 3 * O * < > b 9 ; 5 5 ; O * O O O * ; 3 3 3 5 n 7 * O O ; ; ; ; < 0 0 5 9 5 7 < ; ; ; ; ; O 9 9 O 0 n ; 7 7 5 ; ; 9 $ O ; O O ; ; O o ; 0 7 ; O O O O O * ; * * I 0 ; 7 ; ; 3 ; 0 < O 0 n n 7 O O ; h b n 0 * ; ; ; ; ; ; 9 N 7 ; < O 7 h ; ",
"$ 3 ; $ $ $ O ; ; O 3 * * ; 7 7 7 9 h 0 9 ; 7 ; 0 O $ 3 ; ; ; 5 g 7 * * O $ O ; ; < 9 h n 3 * < n 9 < ; ; ; ; * 3 * * 9 ; 7 h 9 5 ; ; ; O ; $ ; ; ; ; ; 7 N 7 ; ; ; 3 3 ; 3 3 3 O 9 Y 2 2 9 o 5 0 < b ; O O 9 n 7 ; $ O o < 7 7 ; ; ; ; ; ; ; ; 7 N 9 < ; < 9 ; ",
"o O 3 3 $ O + 5 7 * O * ; ; ; n I J n 9 < ; 0 * ; O O O ; ; 7 7 O O ; ; O O ; ; ; < 2 9 9 $ O n Y n 9 < ; h 0 ; O ; 5 ; 7 6 J I 9 ; O ; $ $ ; ; ; ; ; 7 B 7 ; ; 3 3 ; 3 < < ; ; O h I n g * o ; N n 0 O ; ; O * * ; ; ; 3 O ; 7 9 < < 7 ; ; ; ; ; 7 N 0 ; < < ; ",
"O + + O ; $ O < 5 * O ; < < 0 n 0 h 7 ; 3 9 ; 5 ; O O $ * ; * O + o O * O O ; ; ; 2 g N 9 O ; 7 n g 7 < ; < g ; 3 ; 5 ; ; O 0 U I 7 ; ; O $ $ 3 ; O ; B b < < ; ; < 7 0 7 * ; * O 0 N 0 O O $ o 0 N ; ; ; 3 $ O O 3 < < ; 3 ; ; 2 g < ; 9 h n n 0 9 n B 9 ; 7 ; ",
"O O ; 7 < ; 3 $ 6 ; O ; 5 7 9 h _ K ; * O * 9 ; h 3 ; 7 9 ; ; 3 ; O + O O O ; < < < 7 5 7 7 ; ; < ; 7 9 7 ; ; ; h ; 5 3 3 e T 0 7 < < * O * ; ; + O n B < ; < 2 0 b b ; o ; ; O O ; < O * ; $ o O ; O ; ; 7 ; ; * ; 3 9 ; ; ; ; ; < g < o ; 7 9 b n n N g * I 9 ",
"$ 0 0 5 ; ; ; ; $ 3 * ; ; ; < g J j k 0 7 7 0 7 h 3 ; < < ; ; 7 7 7 5 ; O O * 7 9 ; ; ; 9 < < < 0 0 7 < ; * O * 7 9 h 7 J P T J 9 ; ; * O 5 9 7 ; ; Y B n h n b g < O + 5 3 O $ O $ ; * ; ; ; O O 3 * ; ; 9 < ; ; ; ; 9 < ; ; ; ; ; 2 b * O O * * * O ; $ ; h 9 ",
"b 9 ; ; * O O o O + O * ; < 7 9 h _ ! K g J J ; < ; O O O * * ; ; < 7 9 ; * O O ; ; ; 9 9 2 b 0 5 < ; O O O * * O 9 0 J Q h n 9 < < ; $ ; 5 < b N 7 7 7 7 3 ; o o + + ; 0 * ; O $ ; ; ; ; ; 3 o O 3 ; < * 7 b ; < ; ; 7 g ; ; ; 2 ; ; 9 h O * n g 7 ; O O 5 7 ; ",
"9 b 9 ; * * * O * ; 3 ; 5 5 7 7 9 J 7 J J 0 I * * ; ; O O @ O $ 3 ; ; g b < O O O O ; 7 g B 2 ; < ; ; ; $ O 0 7 ; ; 5 0 J I < 7 < < ; * ; ; ; 5 ; O O O o + + O O o o h 7 ; ; 3 % ; < 7 * ; 3 O ; ; ; 9 5 O n 9 < 5 7 9 n ; 7 < 2 0 < ; n 3 + h n < ; ; O ; 7 < ",
"* 7 < 7 7 7 ; * < < * * ; < < ; < 0 9 T h ; < * 3 ; 7 7 O o # ; < 7 g b g ; $ $ O O O ; T Y n 9 < 7 3 ; $ o 5 7 ; ; ; ; ; 7 < ; ; ; * ; < ; o + O O ; ; 3 ; O O + + < n ; ; ; ; ; 9 g ; O < 3 O ; ; $ 0 7 + 7 n 2 * 7 b n ; 2 b 2 g b 2 n 9 o ; n 7 ; ; ; ; ; < ",
"3 3 O O O O O ; 7 ; * ; O ; < < 5 7 9 h 7 ; ; * 3 ; 7 < O < 7 < 7 9 < ; * ; O % O O O 3 0 h N N n n 0 7 5 3 O O O ; ; ; * * ; ; O ; ; ; ; 9 9 ; ; * * ; ; ; ; ; O + b n ; ; ; 2 b n ; + O 7 ; O ; ; ; h 5 + O 9 b < < n N < o < n N N n n n O + < 0 < ; ; ; ; ; ",
"; ; O O + + O 0 9 ; 3 ; O * ; < ; < ; ; ; ; ; * O * * * ; ; 7 9 ; o O O O % o O 3 O O O O ; 7 * - 2 9 < * * * * < < ; ; ; ; 3 * ; ; < ; ; < n 9 ; 7 9 7 7 7 < ; O * b 9 ; 7 n N 9 * O o + 0 < ; < ; 3 n < O O O g N g n N 7 O O * 9 n N N n O o o ; 9 7 ; * O O ",
"; ; O O O * ; * O O 3 ; ; O O o ; ; 0 7 ; 5 9 * * * * O * ; ; 5 g 7 O ; O 3 O O ; ; ; O o O * < b b 7 ; * ; < 0 7 ; ; ; ; 7 ; ; ; O 5 7 < ; 7 h O * ; < 7 5 * O O 7 N n n n 0 ; + ; $ o + 0 7 ; 9 3 < b ; 3 3 3 * 0 N n N 3 O O + + * < 9 9 * * * O O 5 7 ; ; * ",
"; 3 3 O 3 ; * O * * 5 ; ; $ $ O * ; ; * * ; ; O O ; ; ; ; ; ; ; < g 9 * ; ; $ * O < ; O O + 7 n 0 ; ; ; ; O 0 9 ; ; O * 9 ; < 5 O O o < g g g n * O O O ; ; * + * 7 h h 7 ; o + O $ 3 o + 7 g 3 g 7 7 n * O O * $ * 9 n N * O O O + o ; ; 3 3 ; ; ; O < n n 7 < ",
"; ; ; ; < ; * ; 3 O 9 2 ; O 3 $ O ; O O = * 3 ; O ; ; * ; ; ; ; ; 2 n < O $ ; ; O O ; O * 0 B b < < < ; ; 3 ; ; O O O 7 7 9 0 $ O ; O O * < 2 7 ; * O * ; ; ; O 3 3 3 * * ; o o o O 3 O + 5 N < n 7 9 g * 3 * ; 3 3 O ; 7 + O ; + & g n 9 ; ; * ; ; ; N N 2 ; ; ",
"; ; < 9 ; ; ; ; * O 7 n ; O 3 % O O 5 ; * * O * 3 ; ; 5 ; < < 5 7 9 b b O O ; ; ; O O O 7 n 2 2 9 2 ; ; 3 ; ; ; ; 3 * h n 0 ; O ; 3 O O O O O ; * 3 O ; ; ; ; ; * 3 * ; * * O O O o ; ; + O n 9 b 9 b < O 3 * ; 3 3 O o + o O * O g N 9 ; ; 3 3 * O O h n 2 < < ",
"+ o g 0 ; ; ; ; O O * 5 O ; 3 7 ; * ; 9 9 7 ; * O ; ; < < 9 n 2 9 b b b ; O ; ; ; * ; O ; * < n < ; < ; ; ; $ ; 5 ; * 7 < $ O $ ; ; O + O ; ; * ; ; ; ; 9 7 * 0 ; * ; 9 O O $ 3 O + ; < O o 7 n n b n * + O % ; 3 ; o o + + + O 3 N b < ; ; ; ; * * * O < 7 9 7 ",
"+ * b < ; 5 ; O * * * * ; ; O 0 9 * O * 7 b 9 * * ; ; ; < 9 b ; ; ; ; ; ; ; ; ; ; ; * * ; ; N n 7 7 < ; ; < < 5 ; ; ; ; * O ; $ ; 7 9 5 ; * ; * * 7 2 ; 9 9 ; 7 7 O 7 h * ; ; ; O + O ; O O o b N N 0 O O + O O O O O o + + + O * b N n < ; ; ; ; 3 3 ; ; ; ; * ",
"+ 5 n 9 g 5 + * * * ; ; ; ; O ; ; O * O O O ; * ; < ; ; ; 7 7 ; ; ; * * ; < ; ; ; 4.n * * h N 9 < ; ; ; ; < 9 ; % ; 5 ; n I $ $ 0 Y 7 7 7 ; ; * O ; < ; O ; ; ; 5 * ; 7 ; ; ; O O O < 0 g g 9 ; n N ; O O O O + O + O 3 O + O % O o 7 g 7 7 5 < < ; O 3 5 ; O O ",
"+ 3 0 5 O O ; ; * ; < ; * ; O * O ; ; O * O * ; ; O ; < ; 7 n 2 ; ; ; ; ; < ; ; * W.S.O ; ; ; - * 5 ; < ; g 7 $ ; 2 b ; 8.H.; ; < b < ; * * O O ; 9 ; 5 < # # O * * ; < ; ; $ O < 7 9 7 9 N g + ; ; + O O O O ; O O o O 3 O 3 ; ; b < O * O * O O o 7 9 3 ; ; 3 ",
"O O + + O O 7 < ; ; < ; = 3 * * * * ; ; ; * * * J ' < < ; ; 9 b * ; < < < < < ; < C.$Xo.o % ; < ; ; 3 ; 9 n ; ; 2 n 0 ; ; J 5 ; ; 0 9 ; 3 3 * 0 9 7 h 0 0 U U 7 ; $ $ 3 ; * O ; 7 ; ; ; < b * O + + + O O O O b 9 O o O ; O + O b b 9 O + + O O + 7 9 ; ; < 5 * ",
"+ o O * O O 9 9 ; < 9 O 5 ; ; ; ; ; ; ; ; ; * O 3 B.u.N g 9 2 n < * ; < ; < 5 < < 0 M.+XJ o 3 < * X * 3 n 0 ; g m 0 ; < < O ; ; 9 b.Y ; * * 3 7 * 5 7 5 3 h h 9 < 3 $ O * 9 7 * 3 3 3 < 0 ; o O O o + O O O * g 7 ; + O O O O 9 7 < 7 O * o ; O ; n 7 7 0 0 # * ",
"+ + O ; ; ; g 2 ; g ; o 9 < < < ; I h ; ; ; ; O X { &X..; g b N 0 ; < < ; < ; ; < < 2 S. X0 O ; I o.h 7 B 7 b B 2 ; ; < 5 $ O ; 0 Y 7 ; ; * * 0 7 * ; 3 7 0 J J 9 ; * O ; h ; ; ; ; < < O ; O O 3 $ O O O + 3 7 ; 5 O O O o 3 5 ; ; 5 ; O ; ; + 7 b b g < ; o ; ",
"o O O * 3 ; b 9 g ; O O 9 9 ; < o 0.5.; ; ; ; O + O h.Y * ; ; < ; < < ; < < < < ; 3 < 9 [.[.0 X { %XW.N B B N 7 ; ; ; ; ; < 2 ; 5 ; ; ; ; ; 9 0 ; ; * ; ; 8 Q I 0 ; * ; 7 7 O ; ; < < ; O O O o 3 ; ; O O O 5 5 ; 3 ; O + O 3 $ ; ; ; ; O 3 O + O O O o * ; + 7 ",
"O + O * 3 ; 0 n ; o O * 7 n ; < < n n 9 7 ; ; * O + 9 7 < # < n n ; 5 ; ; < < < y y 2 , n H.[.J I oXU.n n 9 ; O O o % $ 3 Y B 9 ; ; ; * ; ; < 0 7 * * * 0 W 0 7 5 < * ; 5 ; ; 3 < 5 7 0 0 5 O + ; ; ; ; O O ; 5 ; 3 3 O O * 3 ; $ 3 O O 3 O + O o O O ; ; O + 7 ",
"5 ; O O 3 $ O * O O O ; * b 9 9 9 * * < b < 7 ; $ O * < ; ^ U.XX[.L - 7 < < < , l D A c # 3 7.c.z.oX_.0.M.' 0.b.7.n o + O O 0 n g 2 ; ; ; 7 < 0 0 0 7 h K ` I h 7 < ; * O O * ; < < ; ; 2 b g O O ; $ ; ; O * 3 ; ; 3 O O ; ; O 3 O + O ; 7 g ; O O < < ; O O O ",
"; ; ; O ; O o O O + O ; * 7 N n ; 3 7 ; g g g 7 O O < ; { OXoX.X.X].T ; 2 2 u c y Z D D c ; + 5 J t.+X+X+XXX.X+X#X.Xw.J J T I 9 0 b 7 < ; 9 < 3 h h I J J J J < 7 < * O O * * ; ; ; < 7 9 b 7 ; O $ ; ; 3 O O 3 * * ; ; 9 3 * O 3 O O ; < 9 n 7 O 3 g ; ; 3 O 3 ",
"3 O O $ O O o + + + O ; ; ; n 9 O O < < ; b B g O ; 2 & ) .XXXXX.XXX.Xq.2 < 1 D D x A A x c < O + % o.[.OXXXXX[.| 0.[.oXXX.XoXW.| ; < < ; O $ ; 7 7 7 I h < < 5 ; ; * 3 O O * ; 5 0 g g 7 ; ; * O O 3 $ $ % O 3 * O ; 0 9 ; O * O O ; ; ; < b ; o h 9 3 3 ; $ 3 ",
"O $ $ O O O o + O O ; ; ; O ; O O o.9 < ; 7 n 7 ; 5 < ; O 7.oXXXXXXXXX+XH.n : y x A F D S Z u ; @ O + J u..XoXoXJ o 2 ' W.+Xc.{ 0 ; ; ; $ $ $ O * ; ; ; 7 < < ; ; * * 9 7 * * ; ; ; * O + * 3 O O + O 3 O $ $ 3 * O 7 5 * O * 9 7 * ; ; ; 9 < o * n 9 ; ; ; 3 O ",
"O O 3 $ O O 3 O + O ; * O ; ; + 6 oXo.- * ) l.0.5 < ; $ O $ r.XXXXXXXX.XoX[.' b 0.n u F ,.D Z , O $ 3 O O J 7.|.B.; < & 7 ..n 9 ; 3 * * O O O O O ; ; ; ; ; ; * * = 3 < g ; 3 ; ; ; O + O * ; ; < $ O O O O O 3 * 3 5 ; O ; 7 7 7 * * $ ; < O $ 7 B b < 9 9 O o ",
"7 9 ; ; ; $ 3 9 ; 3 * 9 J ; ; + 0 [.].7 & T &X| * O O O % O 3 o.].XXXXXXXXoXXX[.oX{.1.> i F G x O @ O % @ O + T [.{ O < < b n ; ; 3 3 ; ; 9 ; ; ; ; O O O O * O * O * < 9 O $ 3 ; ; 7 ; + O 9 b 0 9 7 ; $ O ; 9 * 3 ; O $ ; ; ; O O ; ; ; ; ; ; 3 n M g 7 o o O ",
"b 9 ; ; < 3 O g 7 ; O J { o $ o O c.+X' X ' y.o ( q.3 O $ O 3 + 0 M.oXXX.X.XXXoXXXXXoXH.L - S S ; ; $ @ $ ; ; O J | ; < N Y n 2 7 ; < ; 9 N 9 ; ; ; * O * O O O 3 ; + O * O O * ; ; < g O O b g ; ; ; ; $ O 7 7 ; O O O O * ; O O 3 ; ; ; ; * * ; 5 7 < < 2 2 ; ",
"h 0 9 < 9 ; ; ; ; o $ $ $ ; $ O o 9.&X4.o 0 7 7 l.u.0 < 2 ; O 3 + 0 i..X+XoX.XXXXXXX.XoX|.{ # , 3 O O O O ; ; ; O O ; ; 7 0 b g h I 7 ; ; ; O * * ; * ; ; 3 ; ; $ 3 O ; * O ; 7 7 < 2 N 9 O 7 g < ; * O % * 7 ; O O % ; ; ; < 9 < * ; 5 5 O * * ; * ; < 9 b b ; ",
"; n h n 9 < 7 ; O O O $ ; ; ; 3 O 9.+X4.& ; < 7 0 o ; 2 < 0 5 # ; O + J r.W.XXXXXXXXXX.XXX.X9.4 @ 0 J J 5 < 2 < < < ; ; ; O ; ; ; 5 3 3 O O ; 3 ; * 5 ; ; < ; ; $ 3 O * ; O O ; 7 9 9 9 5 3 * ; 7 < # + O * ; ; O 3 3 ; ; 7 < 9 0 * ; 5 3 O O O O O ; ; ; 0 < O ",
"* 9 9 9 g 9 7 ; * O ; ; ; ; ; ; O J .Xo.& < < < : l 1 < < : u c c Z x 1 - 6 9..XoXXXXXXXXXXXoXH.i.H.y.X.) 5 < < < < ; * ; ; ; < ; ; 3 * = ; 7 < < 7 5 O 9 < 3 * O 3 * * 3 O + + + O ; ; ; $ O + ; < < 3 O + O O ; 5 5 7 9 n I 0 9 0 3 ; ; ; 5 5 ; ; ; 5 7 5 O 3 ",
"* * * < I 7 ; 7 * O O ; < ; $ 9 O 3 [.' o < 2 z v x 1 u S A S S S S D F D y o Q ].oXoXoXoXXX.XoXoXoX].w.w.r.Y O * ; ; ; * O ; ; < ; * ; 3 ; g 9 b 7 O O g 2 3 O O ; ; * ; * O O O 3 ; ; ; $ O O + O * * ; * O O * * ; 9 n 0 0 n J n 9 5 * ; ; 3 ; ; < 5 < O O O ",
"O ; * 9 9 ; 9 7 * O O O ; < O 7.7.n g.9 ; < ; ; , 2 l S D D D D A A A D G ,.c o s 7.7.r.].oXXX.X.X.XXXoXoXoXXXu.' 7 ; 3 3 * ; 7 < ; < < * 7 N n < O O O b 9 O + O < < ; 5 5 o O O O ; ; 3 3 o o O O o ; 5 ; % O ; ; ; < n ` K 0 5 7 ; ; 5 O O O * ; ; o O O + + ",
"* ; ; * * ; ; O ; ; ; * ; 3 ; c.oX[.' O 3 * O @ O 9 b y A D S c ] ] H S x x c ; O + + + 0 7.[.oXoXoXXXXX.XXXz.' n 7 < ; ; ; 7 n ; 7 5 O + 3 ; O O O O ; 5 # O O O ; ; ; 7 7 + + + + O < < ; ; ; ; O 2 b < * O * ; < 5 7 g K e ; * 3 3 0 7 7 3 + O ; ; 5 5 * o o ",
"5 9 < ; ; ; * O ; O ; * ; ; 0 .X+Xj.- n I O $ $ $ 3 h Y z x A C 6.oX.X~.| ; O @ 3 3 3 = O + J 2.w.i.W.XXoX+Xo.o * ; ; ; ; * h h 9 7 O + O + + O ; O ; ; o o O O + O 9 < 9 7 + O + + o * > 9 5 ; * O O ; ; ; * * ; < 7 9 0 Q ~ 4 @ O 6 4 * ; 3 o $ $ * ; < 9 < o ",
"O ; 5 O ; 5 O O $ $ 3 3 * ; 9 c.].0 o u.o.+ 3 O O O O J r.q.<.] <.|..XoX@Xz.h O O O O O @ 3 O O O O 0 { 9.i.H.q.Y h 5 ; ; ; 9 9 ; ; O o O $ O $ ; ; 3 O o O O O O o 5 n n 3 + O + o O 7 n < ; * O O O * * ; * O 3 < < ; 0 Q R J 7 ; 9 3 3 O O $ 3 3 3 ; ; ; g 7 "
};
