/* XPM */
static const char *morte_NO[] = {
/* columns rows colors chars-per-pixel */
"128 128 197 2 ",
"   c #111111",
".  c #121212",
"X  c #131313",
"o  c #141414",
"O  c #151515",
"+  c #161616",
"@  c #171717",
"#  c #181818",
"$  c #191919",
"%  c #1A1A1A",
"&  c #1B1B1B",
"*  c #1C1C1C",
"=  c #1D1D1D",
"-  c #1E1E1E",
";  c #1F1F1F",
":  c #202020",
">  c #212121",
",  c #222222",
"<  c #232323",
"1  c #242424",
"2  c #252525",
"3  c #262626",
"4  c #272727",
"5  c #282828",
"6  c #292929",
"7  c #2A2A2A",
"8  c #2B2B2B",
"9  c #2C2C2C",
"0  c #2D2D2D",
"q  c #2E2E2E",
"w  c #2F2F2F",
"e  c #303030",
"r  c #313131",
"t  c #323232",
"y  c #333333",
"u  c #343434",
"i  c #353535",
"p  c gray21",
"a  c #373737",
"s  c #383838",
"d  c #393939",
"f  c #3A3A3A",
"g  c #3B3B3B",
"h  c #3C3C3C",
"j  c #3D3D3D",
"k  c #3E3E3E",
"l  c #3F3F3F",
"z  c #404040",
"x  c #414141",
"c  c #424242",
"v  c #434343",
"b  c #444444",
"n  c #454545",
"m  c #464646",
"M  c #474747",
"N  c #484848",
"B  c #494949",
"V  c #4A4A4A",
"C  c #4B4B4B",
"Z  c #4C4C4C",
"A  c #4D4D4D",
"S  c #4E4E4E",
"D  c #4F4F4F",
"F  c #505050",
"G  c #515151",
"H  c #525252",
"J  c #535353",
"K  c #545454",
"L  c #555555",
"P  c #565656",
"I  c #575757",
"U  c #585858",
"Y  c #595959",
"T  c #5A5A5A",
"R  c #5B5B5B",
"E  c #5C5C5C",
"W  c #5D5D5D",
"Q  c #5E5E5E",
"!  c #5F5F5F",
"~  c #606060",
"^  c #616161",
"/  c #626262",
"(  c #636363",
")  c #646464",
"_  c #656565",
"`  c #666666",
"'  c #676767",
"]  c #686868",
"[  c #696969",
"{  c #6A6A6A",
"}  c #6B6B6B",
"|  c #6C6C6C",
" . c #6D6D6D",
".. c #6E6E6E",
"X. c #6F6F6F",
"o. c #707070",
"O. c #717171",
"+. c #727272",
"@. c #737373",
"#. c #747474",
"$. c #757575",
"%. c #767676",
"&. c #777777",
"*. c #787878",
"=. c #797979",
"-. c #7A7A7A",
";. c #7B7B7B",
":. c #7C7C7C",
">. c #7D7D7D",
",. c #7E7E7E",
"<. c #7F7F7F",
"1. c #808080",
"2. c #818181",
"3. c #828282",
"4. c #838383",
"5. c #848484",
"6. c #858585",
"7. c #868686",
"8. c #878787",
"9. c #888888",
"0. c #898989",
"q. c #8A8A8A",
"w. c #8B8B8B",
"e. c #8C8C8C",
"r. c #8D8D8D",
"t. c #8E8E8E",
"y. c #8F8F8F",
"u. c #909090",
"i. c #919191",
"p. c #929292",
"a. c #939393",
"s. c #949494",
"d. c #959595",
"f. c #969696",
"g. c #979797",
"h. c #989898",
"j. c #999999",
"k. c #9A9A9A",
"l. c #9B9B9B",
"z. c #9C9C9C",
"x. c #9D9D9D",
"c. c #9E9E9E",
"v. c #9F9F9F",
"b. c #A0A0A0",
"n. c #A1A1A1",
"m. c #A2A2A2",
"M. c #A3A3A3",
"N. c #A4A4A4",
"B. c #A5A5A5",
"V. c #A6A6A6",
"C. c #A7A7A7",
"Z. c #A8A8A8",
"A. c #A9A9A9",
"S. c #AAAAAA",
"D. c #ABABAB",
"F. c #ACACAC",
"G. c #ADADAD",
"H. c #AEAEAE",
"J. c #AFAFAF",
"K. c #B0B0B0",
"L. c #B1B1B1",
"P. c #B2B2B2",
"I. c #B3B3B3",
"U. c #B4B4B4",
"Y. c #B5B5B5",
"T. c #B6B6B6",
"R. c #B7B7B7",
"E. c #B8B8B8",
"W. c #B9B9B9",
"Q. c #BABABA",
"!. c #BBBBBB",
"~. c #BCBCBC",
"^. c #BDBDBD",
"/. c #BEBEBE",
"(. c #BFBFBF",
"). c #C0C0C0",
"_. c #C1C1C1",
"`. c #C2C2C2",
"'. c #C3C3C3",
"]. c #C4C4C4",
"[. c #C5C5C5",
"{. c #C6C6C6",
"}. c #C7C7C7",
"|. c #C8C8C8",
" X c #C9C9C9",
".X c #CACACA",
"XX c #CBCBCB",
"oX c #CCCCCC",
"OX c #CDCDCD",
"+X c #CECECE",
"@X c #CFCFCF",
"#X c #D0D0D0",
"$X c #D1D1D1",
"%X c #D2D2D2",
"&X c #D3D3D3",
"*X c #D4D4D4",
"=X c #D5D5D5",
/* pixels */
"O O O O O O O O O O O O O # > # O O O O O O O O O O O O O O O O # O O O O O O O O O O # # O O O O O O O O O O O O O O O O O O O O O O O O O O O O O O O O O O O O O O # O O O O O O # O O O O # O O # O O O O O O O # O O O O O # # O O O O O # O O # O O O # # ",
"O O O O O O O O O O O O O O ; # O O O O O O O O O O O O O O O O O O O # # O # O O O O # # O O # O O O O # O O O O O O O O O O O O O O O O O O O O ; # O O O O O O O O O O O O O O O O O O O O O O O O O O O O # O O O O O # O O O O # O # O O O O O O # O O O O ",
"O O O O O O O O O # O O O O O O O O O O O O O O O O # O O O O O O O O O # # O O O O O O O O O # O O O O O O O O O O O O O O O O O O O O O O O O O # # O O O O O O O O O O O O O O O O O O O O O O # O O O O O O O O O O O # O O O O O O # O # O # # # # O O O O ",
"O O O O O O O O O O O O O O O O O O O O O O O O O O O O O O O O # O O # # O O O # # O O O O O O O O O O O O O O O O O O O O O O O O O O O O O O O O O O O # O O O O O O # O O O O O O O O O O O O O O O O O O O O O # # O # O O O O O O O # O O # O # # O O O O ",
"O O O O O O O O O O O O O O O O O O O O O O O O O O O O O O # O O O O O # O O O O O O O O O O O O O O O O O O O O # O O O O O O O O O # O O O O O O O O O O # O O O O O O O O O O O O O O O O O O O O O O O # # O O # # # O O # O O O ; > # O O O # O O O O O O ",
"O O O O O O O O O O O O O O O O O O O O O O O O O O O O O O O O O O O O O O O O O O O O O O O O O O O O O O O O O O O O O O O O O O O # O O O O O O O O O O O O O O O O O O O O O O O O # O O O O O O O O O O O O O O O # O O O O O O ; > O # # O # # # O O O # ",
"O O O O O O O O O O O O O O O O O O O O O O O # O O O O # O O O O O # # O O O O # # O O O # O O O O O O O O O O O O O O O O O O O O O O O O O O O O O O O O O O O O O O O O O O O O O O O O O O O O O O O O # O O O O O O # O O # O O # O # # O # O # # O O O O ",
"O O O O O O O O O O O O O O O O O O O O O O O O O # O O O O O # O O O # O O O O O O O O # O O O O O O O O O O O O O O O O O O O O O O O O O O O O O O O O O O O O O O O O O O O O O O O O O O O O O O O O O O O O # O O O O # O # # O O # # O O O O # O O O O O ",
"O O O O O O O O O O O O O O O O O O # O O O O O O O O O # O O O O # O O # O O O O O O > > O O O O O O O O O O O O O O O O O O O O O O O O O O O O O O O O O O O O O O O O O O O O O O O O O # # O O O # O O O O # O O O O O O O O # O O O O # # O O O O O O O O ",
"O O O O O O O O O O O O O O O O O O O O O O O O O O # O O # > O O # # # O O O O O O O # # O O O O # O O O O O O O O # O O O O O O O O O O O O O O O O O O O O O O O O O O O O O O O O O O O O O O # O O O O O O O O O O O O # O O O O O O O O O O O O # O O O O ",
"O O O O O O O # O O O O O O O O O O O O O O O O # # O O O # ; O O O # # # O O O O O O O O O O O O O # O O O O O O O O O O O O O O O O O O O O O # O O O O O O # O O O O O O O O O O O O O O O O # O O O O O O # O O O O # O O O O O O O O O O O O # O O O O O O ",
"O # O O O O # O O O O O O O O O O O O O O O O O O # O O O O O O # # O O O O O O O O O O O O O O O O O O O O O O O O O O O O O O O O O O # O O O O O O # O O O # # O O O O O O O O O # O O O O # # O O O O O O O O O O # ; O O O O O O # O O O O # O O O O O # O ",
"O O O O O O O O O O O O O O O O O O O O O O # O O O O O O O O O O O O O O O O O O O O O O O O O O O O O O O O O O O O O O O O O O O O O O O O O O O O O O O O O O O O O O O O # O O O O O O O O O O O O O O O O O O O O # O O O O O O O # O O O # O O O O O # O ",
"O O # O O O O O O O O O O O O O O O O O O O O O O O O O O O O O O O O O O O O O O O O O O O O O O O O O O O O O O O O O O O O O O O O O O O O O O O # O O O O O O O O O O O O O O O O O O # O O O O O O O O O O # # O O O O O O # O O O O # # # # O O O O O O # ",
"O O O O O O O O # O O O O O O O O O O O O O O O O O O O O O O O O O O O O O O O O O O O # O O O O O O O O O O O O O O O O O O O O O O O O O O O O O O O # O O O O O O O O O O O O O O # O O O O O O O O O O O O # O O O O O O O O O O O O O O O # # # O O O O O ",
"O O O O O O O O O O O O O O O O O O O O O O O O O O # O O O O O O O O O O O O O O O O O O O O O O O O O O O O O O O O O O O O O O O O O O O O O O O O O O O O O O O O O O O O O O O O O O O O O O O O O O O O O O O # # O O O O O O # # O O O O O # # O O O # # ",
"O O O O O O O O O O O O O O O O O O O O O # O O O O # O O O O O O O O O O O O O O O O O O O O O O O O O O O O O O O O O # O O O O O O O O O O O O O O O O O O O O O O O O O O O O O O O O # O O # O O O O O O O O O O # # O O O O O # # # O # O O O O O O O O O ",
"O O O O O O O O O O O O O O O O O O O O O O O O O O O O O O O O O O O O O O ; # O O O O O O O O O O O O # O O O O O O O # # O O O O O O # O O O # # # O O O O O O O O O O O O O O O O O O O O O O O O O O O O O O O O O O O O O O O O O # # # O O O O O O O O O ",
"O O O O O O O O O O O O O O O O O O O O O O # # O O O O O O O O O O O O O O O O O O O O O O O O # O O O O O O O O O O O O # O O O O O O O O O # O O O O O O O # O O O O O O O # # O O O O O O O O O O O O O O O # O O # O O O O # O O O # O # # # # # O O O # # ",
"O O O O O O O O O O O O O O O O O O O O O # O # O O O O O O O O O O O O O O O O O O O O O O O O # # O O O O O O O O O O O O O O O O O O O O O # # O O O O O O O O # O O O O O # O O O O O O O O O O O O O O O # # O O O O O O O O O O O # O O O # O O # O O O # ",
"O O O O O O O O O O O O O O O O O O O # O O # O O O O O O O O O O O O O O O O O O O O O O O O O O O O O O O O O O # O O O O O O O O O O O O O # # ; # # O O O O # O O O O O O O O O O O O O O O O O O O O O O O O O O O O O O O O O O O O # O O # O O O O O O O ",
"O O O O O O O O O O O O O O O O O O O # O O O O O O O O O O O O O O O O O O O O O O O O O O O O O O O O O O O O O O O O O O O O O O O O O O O # ; O ; # O O O O O O O O O O O O O O O O O O O O O O O O O O O # O O O O O O O O O # O O O O O # # # # O # O O O ",
"O O O O O O O O O O O O O O O O O O O O O O O O O O O O O O O O O O O O O O O O O O O O O O O O O O O O O O O O O O O O O O O O O O O O O O # ; > W 2 ; # O O O O O O O O # O O # O O O O O O O O O O O O O O O O O O O # O O O O O O O O O O O # O # O # # O O ",
"O O O O O O O O O O O O O O O O O O O O O O O O O O O O O O O O O # O O O O O O O O O O O O O O O O O O O O O O O O O O O O O O O O O O O O # ; 0 H.i ; # O O O O O O O O O O # # O O O O O # # O O O O O O O O # O O O # O # O O O O O O O O # # O # # O O O O ",
"O O O O O O O O O O O O O O # O # O O O O O O O O O O O O O O O O O O O O O O O O O O O O O O O O O O O O O O O O O O O O O O O O O O # O O ; > i H.s ; ; # O O O O O ; # O O O # O O # O O O O O O # O O O O O O # O O # O O O O O O O O O # # # # # O O O O O ",
"O O O O O O O O # O O O O O O O O O O O O O O O O O O O O O O O O O O O O O O O O O O O O O O O O O O O O O O O O O O O O O O O O O O # O O ; > i Y.x ; > O O O O O O # # O O O O O # O O O O O O O O O O O O O O O O # # O # O O O O O O O O O # # # O # O O O ",
"O O O O O O O O O O # # O O O O O O O O O O O O O O O O O O O O O O O O O O O O O O O O O O O O O O O O O O O O O O O O O O O O O O # # # # ; > i W.Z ; > # O O O O O O O O O O # # O O # O O O O O O # O O O O # O ; 2 O O O O O O O O O O O O O O O # O O O O ",
"O O O O O O O O O # O O O O O O O O O O O O O O O O O O O O O O O O O O O O O O O O O O O O O O O O O O O O O O O O O O O O O O O O O O # # ; > x /.m > > # # O O O O O O O O O # O # # O O O O O O O O O O O # # O > 6 O # O O O O O O O O # # # O O O O O O # ",
"O O O O O O O O # O O O O O O O O O O O O O O O O O O O O O O O O O O O O O O O O O O O O O O O O O O O O O O O O O O O O O O O O O O O O # ; > m Y.i 2 > # # O O # O O O O O # O O # ; O O O O O O O O O O O O O O ; ; O # O # O O O O O O O O O O O O O # # O ",
"O O O O O O O O O O O O O O O O O O O O O O # O O O O O O O O O O O O O O O O O O O O O O O O O O O O O O O # # O O O O O O O O O # ; O O # > 2 N K.P 6 > # O O O O O O O O O O O O # O O O O O # O O O O O O O O O O O O O O O O O O O O O O # # # O O O O O O ",
"O O O O O O O O O O O O O O O O O O O O O O O O O O O O O O O O O O O O O O O O O O O O O O O O O O O O O O ; > O O O O O O O O O O O O O # > 2 N /.w.0 > # # O O O O O O O O O O # # # O O # O # O O O O O O O # O O # # # O O O O O O O O O # O O O O O O O # ",
"O O O O O O O O O O O # O O O O O O O O O O O O O O O O O O O O O O O O O O O O O O O O O O O O O O O O O O O O O O O O O O O O O O O O O # 2 t W [.p.6 > # # O O O O O O O O O O O O O O O # ; # O O O O O O O # O O O # O O O O O O O # # O # O O O O O # # # ",
"O O O O O O O O O O O O O O O O O O O O O O O O O O O O O O O O O O O O O O O O O O O O O O O O O O O O O O O O O O O O O O O O O O O O # > > T z./.p.6 2 # O O O O O O O O # # O # # O O # # i i # O O # O O O O O # # # # O O O O # # O O O O O O # # O # O O ",
"O O O O O O O O O O O O O O O O O O O O O 0 > O O O O O O O O O O O O O O O O O O O O O O O O O O O O O O O O O O O O O O O O O O O O O # > > +.Z.[.p.6 2 # # # O O O O O O O O O # # O O # # 6 t # O O O O O O O O # # # # O O O O # # # # O # # # O # O # O # ",
"O O O O O O O O # O O O O O O O O O O O O ; # O O O O O O O O O O O O O O O O O O O O O O O O O O O O O O O O O O O O O O O O O O O O O # > 2 ;.H.[.p.6 2 # # O O O O O O O O O O O # O O # # O # # O O O O O O O O # # O O O # O O O O O O O O # # O # # # # O ",
"O O O O O O O O # O O O O O O O O O O O O O O O O O O O O O O O O O O O O # # O O O O O O O O O O O O O O O O O O O O O O O O O O O O O # 2 2 >.H.[.p.6 2 # O O O O # O O O # # O O O O O O O # # O O O O O O O O O O O O O O O # O O # O O # O O # # # O O O # ",
"O O O O O O O O O O O # O O O O O O O # 6 O O O O O O O O O O O O O O # # O O O O O O O O O O O O O O O O O O O O O O O O O O O O O O O # 2 2 w.Y. Xd.6 2 # O O O O O O # O O # # O # O O O O # # O O O O O O O O O O O O O # O O O O O O O # # O # O # O O # # ",
"O O O O O O O O O O O O O O O O O O O # ; O O O O O O O O O O O O O # # # ; # # O O O O O O O O O O O O O O O O O O O O O O O O O O O # ; 2 6 p./.[.d.0 2 # O O O O O O # O O # # O # O O O # # O O O O O O # O O O O # O # # O # # O O O O O O O O O O O # # # ",
"O O O O O O O O O O O O O O O O O O O O O O O O O O O O O O O O O # # > 2 # > # # O O O O O O O O O O O O O O O O O O O O O # # # # ; ; 2 0 t z._. Xk.t 6 ; # O O # O O # O # O O O O O O O O O O O O O O O # O O # O O # # O # O # # O O O O O O O # O O O O O ",
"O O O O O O O O O O O O O O O O O O O O O O # O O O O O O O O O O O # 2 p.N # 2 ; # # O O O O O O O O O O O O O O O O O # # ; > > 2 2 2 2 t x b.[. Xk.t 0 2 ; # # O O O O # O O O O O O O O O O O O O O O O O O O # O O # 2 ; O # O O # # O O O O O O O O O O O ",
"O O O O O O O O O O O O O O O O O O O O O O O O O O O O O O O O O O ; # Z Y.m > 6 > ; # O O O O O O O O O O O O O O # ; > 2 2 2 2 2 t x Z N N B. X[.Z.P j 6 2 > # # O O O O O O # O O O O O # # O O O O O O O O O O O O O > ; O O O # # # # O O O O O # # # # O ",
"O O O O O O O O O O O O O O O O O O O O O O 6 6 # O O O O O O O O O # > # T W.Z 6 0 > > ; # O O O O O O O O O O # ; > 2 2 2 i T ;.d.K./.Y.z.{ p././. Xw. .{ t > > ; # # # # O O O O # # # # O # # O O O O O O O O O O O O O O # O O # O O O O O # O O O # # # O ",
"O O O O O O O O O O O O O O O O O O O O O O t N 0 O O O O O O O O O # ; 2 ; +._.F #.{ > 2 ; # O O O O O O O # ; > 2 2 6 N 5.W.[.W.z.2.+.W P P Z z. XOXz.` { ;.x 6 2 > ; # O O O O O O O O O # O # # O O O # O O O O O O O # # # O O O O O O O O O O # O # O # # ",
"O O O O O O O O O O O O # O O O O O O O O O ; > > O O O O O O O O O # # ; i j Y./.+.Y./ 2 2 ; # O O # O # # ; 2 2 0 W z.[.W.k.5.>.5.k.H.Z.#.s j Z #.;.B.[.Z.>.Z t t > 2 ; # O O O O O O O O # # # O # O # # O O O # # # O O O O O O O O O O O O O O # O O # O O ",
"O O O O O O O O O O O O O O O O O O O O O O O O > # O O O O O O O O O O ; t 6 #.$XK.#.W.F 2 2 # ; # O # # > 6 6 P B. XY.d.p.B./. X$X$XOXW.H./ t t 0 0 t N y.[.b.T y.W > 2 ; # # O O # # O # O 2 2 O # O # O O O O O O O O O O O O # O # # O O O O # # # O O O O ",
"O O O O O O O O O O O O O O O O O O O O O O # O O O O O O O O O O O O O # ; 2 0 y.$XZ.2.Y.x 6 > ; # # ; > 6 t 2. XW.p.k.Y.OX$X XY.k.;./ P Z x t t t t t 0 6 m b.[.5.H. .> 2 ; # # O O O O O O # # O # O # # # O # # O O O O # O O # O O O # # O O # # O # O # # ",
"O O O O O O O O O O ; O O O O O O O O O O O O O O O O O O O O O O O O O O # > 6 j K.$Xz.5.Z.i 6 > ; ; 2 2 j b.OXB.k.Y. XOXY.y.` N j s s i t 0 0 6 6 6 0 t t s t >.[.2.K.P > > # # # O # O O O O O # O O # ; ; O # O O O O O O O O # # O O O O O # O O O O # ; O ",
"O O O O O O O O O O O O O O O O O O O O O O O O O O O O O O O O O O O O O # ; 6 0 / _.OXy.d.b.0 0 2 6 6 j H.[.z.K. XOXW.>.N s s s s s j N W ` { { ` P i 6 0 s s 0 +._.d.B.t 2 ; # O # # # O O O # # # O O O O # O O O O O O O O O # O O # O O O O O O O O # # # ",
"O O O O O O O O O O O O O O O O O O O O O O O O O O O O O O O O O O O O O O ; 2 0 N /./. X5.B.p.0 i t s Z.[.B./. X/.p.F s j j i m ` y.B.Y.W.Y.K.b.Z.W.K.2.m 6 i s 0 +.W.Z. .> > # O O O O O O # # # O O # # # # O O # O O O O O O O O O O O O O O O O O # O O O ",
"O O O O O O O O O O O O O O O O O O O O O O O O O O O O # O O O O O O O O # ; 2 6 w.Y.K. X[.5.K.5.i s p.[.H._.[./.b.` j m s N 5.K.[.OX$XOX_.W.Y.z.y.>.>.k.K.2.i t j 0 #. X+.2 2 # # O # # O O O O O O # O # # # O O O O O O O O O O O O O # O O O # O O O O O O ",
"O O O O O O O O O O O O O O O O O O O O O O O O O O O O O O O O O O O O O O ; 2 j K.K.[.Z. X_.w.Y.;.+. XK._._.[._.d.P F T { W.OXOX[.Z.w.;.#.>.y.B./. XZ.;.W y.z.Z 0 j 0 >.K.t > ; # O O # # O O O O # O O # # # # O O # O # O O O O O O O O # O # O O O O O O O ",
"O O O O O O O O O O O O O O O O O O O O O # # O O O O O O O O O O O O O O O ; > T W._.z.x p.OX/.y.H._._._._.[.W.+.m W Z y. XOXW.p.{ { 5.z.{ t t t N ;.Y.=XB.Z T b.` t s 2 k.y.# > # # O O O O O O O # O O O # # # O # ; O O O O O O O O O O O # # O # O O O O O ",
"O O O O O O O O O O O O O O O ; # O O O O # ; O O O O O O O O O O O O O O # > 2 / Y._.F s j d.OXW.B.[._._.[.Y.W j 2.z.d.OX_.y.{ 2.K.Y.k.2.F 0 { / 0 Z +.y.OX/.W x b.` 0 t s w.6 > ; # # # O # O O O O # O O O O # O # # # O O O O O O # O O O # # O O O O # O O ",
"O O O O O O O O O O O O O O O # # O O O O O O O O O O O O O O O O O O O O # > 6 N [.p.0 s i s k.[.[._._._. X .j / Y.B.OXY.{ >./. Xw.N t 0 0 6 P F 6 s T 5.2.[.[.W x z.Z 0 6 2 2 ; ; ; # # # O # O # O # O O O # # # # O O # O O O # O O O O O O O O O O O # O O ",
"O O O O O O O O O O O O O O O O O O O O O O O O O O O O O O O O O O O O O # > > ` OXF 6 0 t t Z /._._._. Xk.N N z._.[.W. .b./.p.F s j s i t 0 2 > 6 0 6 W p.#. XY.m W p.0 0 6 > s t ; ; # # O O # O # # O O O O O O O O O O O O O O O O O O O O O # O O # # O O ",
"O O O O O O O O O O O O O O O O O O O O O O O O ; 2 # O O O O O O O O O O ; 2 > d.H.6 6 2 6 0 +. X_._._.[.;.x  .[._.[.#.H.d.m s Z j m m i 0 6 0 t 6 0 t 6 ` 2.w.=Xb.j +.N 6 0 ; / B.2 > ; # O O # O # # O O O O O O O O O O # O O O O O O O O O O O O # > ; O O ",
"O O O O O O O O O O O O O O O O O O O O O O O O # > ; O O # O O O O O O O 2 6 6 Y.;.> 2 > 6 0 z. X_._._.[.2.m B.[. Xd.z.d.t s F 2.` b.B.z.w.;.F 0 0 0 0 i 0 +. .H.OXw.s m i t t t Y.#.; 2 # # O # # O # # O O O O # O O O O # O O # O O O O O O O O O # # # O O ",
"O O O O O O O O O O O O O O O O O O O O O O O O O O O O O O O O O O O O O ; > s _.F > > > 2 x W.[._._._./.P ` [._._. .p.x s i T B._. X X X X X_.y.W / t t i j ;.>. X[.W T ` t i j K./.s 2 ; # O # O # # O O O O O O O O O O O O O # # O # O O O O O O O O O O O ",
"O O O O O O O O O O ; # O O O O O O O O O O O O O O O O O O O O O O O O # > ; F W.i 2 > > 2 F [._._._. Xk.x w. X[.z.{ s i i t W H./._./.W._. X[. X/.k.+.t i t T W Z.$X5.#.H.s j x Z.$X+.2 > # O # O # # O O O O O O O O O O O O O # O O O O O O O O O O O O O O ",
"O O O O O O O O O O O # O O O O O O O O O O O O O O O O O O O O O O O O # > ; { B.2 2 > 2 2 #./.W.[._. X#.x z. X_.>.N s i i 0 ` Y.W. Xw.W { 2.Y.[._._.H.P 0 i i { k.OXB.P W.T P s 5.OXk.6 2 # O # # O O O O O O O O O O O O O # # O O O O O O O O # # O O O O O ",
"O O O O O O O O O O O O O O O O O O O O O O O O O O O O O O O O O O O O # > ; 2.p.; 2 > 2 2 y.Z.Y.[._./.T m Z. XH.K.` t i i Z >././._./.W.z./ F b.[./. Xd.t i i N #.[.W.F Z.;.` m T K.H.i > ; # O O O O # O O O O O O O O O O O O O O O O O O O O O # O O O O O ",
"O O O O O O O O O O O O O O O O O O O O O O O O O O O O O O O O O O O O # > ; d.5.; 2 ; 2 6 p.p./._.[.H.N Z K. XH.W.T i i { ;.z.[._.[.d.y.[. X>.Z H.[._.W.m t t m >.K.[.P d.z.Z Z j ` B.N # ; # # # # O # O O O O O O O O O O O O O O O # O O O O O O O O O O O ",
"O O O O O O O O O O O O O O O O O O O O O O O O O O O O O O O O O O O O # > ; k.5.; 2 ; 2 6 p.p./._. Xb.x P /.[.K.W.Z i / #.d.OXH./. X+.i P K.W. .{ [._.[.T 0 i m 2.B. XT ;./.x s s 2 ` N # ; O O O O O O O O O O O O O O O O O O O # O O O O O O O O O O O O O ",
"O O O O O O O O O O O O O O O O O O O O O O O O O O O O O O O O O O O O # > ; d.5.; 2 > 2 2 w.k.W._. Xk.j W _.[.K.w.m j ;.2.Y.5.H./. X+.j s T W.k.T B.[.[.` x i j W z. XW { _. .m t 0 2 > ; # O # O O O O O O O O O O O O O O O O O O O O O O O O O O O O O O O ",
"O O O O O O O O O O O O O O O O # O O O O O O O O O O O O O O O O O O O # > # ;.5.# 2 ; 2 2 2.b.Y._. Xp.j T _.[.H.{ s P >.B.#.+.Y./. X .t j i b.y.P 5. X_.T s s s s d. X/ / W.Z.T 6 2 ; # # # # # O O O O O O O O O O O O O O O O O O O O O O O O O O O O O O O ",
"O O O O O O O O O O O O O O O O O O O O O O O O O O O O O O O O O O O O # > # #.p.# 2 ; > > #.B.H.[. Xk.x m b.[.H.F j P >.Z.T ;.Y./. X{ t s i d.y.P #. XW./ Z t j +.z.[./ #.K.K.P 2 > # # O O O # O O O O O O O O O # O O O O O O O O O O O O O O O O O O O O O ",
"O O O O O O O O O O O O O O O O O O O O O O O O O O O O O O O O O O O O # ; # +.5.# > ; > > / Z.b.[.[.B.m j ;.H._.T j N  .B.P #.Y./. X{ t j i b.y.F >.OXB./ T 0 j P Z._./ >.K.w.x > ; # # O O O # O O O O O O # # # # O O # O O O O O # # O O O O O O O O O O O ",
"O O O O O O O O O O O O O O O O O O O O O O O O O O O O O O O O O O O O # ; > 6 6 > > ; > 2 N H.d.[.[.Y.Z s / d.W.z.j x m y.T +.K./. X .i s N /.>.+.k.$Xk.N i i i m /.H.{ 5.W.F 6 2 # O O O O # O O O O O O O O O O O O O O O O O O O O O O O O O O O O O O O O ",
"O O O O O O O O O O O O O O O O O O O O O O O O O O O O O O O O O O O # O # > # P Z # > ; 2 i H.w./._.W. .j x 5.d.OX .i m F { +.K._. X+.j s d.b.2.>.W./.2.#.0 s t +.OXZ.w.>.Y.N 6 > # O O O # # # O O O O O # # 2 6 > O O O O O O O O # # O O O O O O O O O O O ",
"O O O O O O O ; O O O O O O O O O O O O O O O O O O O O O O O O O O O # # # > X y. .X > ; 2 6 B.y.B.[._.d.x i P ;.H.[.T s m x  .K._. X#.j >.W.p.5.b.=X;.5.T 0 i s Z. Xw. .{ W.x 2 ; # O O O O O # O O O O O O O 6 t 0 O O O O O O O O O O O O O # # # # O O O O ",
"O O O O O # > 6 O O O O O O O O O O O O O O O O O O O O O O O O O O O O O # # # t t ; ; ; 2 2 >.Z.2. X[.Z.x j i Z T K._.P i s { K._.[.5.d. XY.d.H.=Xk.{ 2.t i 0 { OXK.5.` / /.s > ; # O O O O O O # O O O O O O # ; # O O O O # # O O O O O O O # # # O O O O O ",
"O O O O O ; ; O O O O O O O O O O O O O O O O O O O O O O O O O O O O O O # # ; ; ; ; > ; > 2 F [.+.Y.[.[./ i s t j #.B. Xd./ { W._._.W.W.Y.Y.[.OXk.+.5.j i i x K.OX2.W N P z.6 > # O # O O O O O O O O O O # # O # O O O O O O O O O O O O O # O # O O O O O O ",
"O O O O # O O # O O O O O O O O O # O O O O O O O O O O O O O O # O O O O O # ; ; j N # > > 2 0 K.k.2. X[.Z.j s i i N i ` z././._._._._./.[./.B.5.>.>.j i s i d.OXK.F s j i j > ; # O O O O O O # O O O O O O O O # O O O O O O O O O O O # O # O # O O O O # O ",
"O O O # O # # O O O O O O O O O O O O O O O O O O O O O O O O O O O O O O O # ; O P Y.0 ; > 2 2 W  X{ K.[. X;.t i t 6 6 2 0 m 2.[._.[.k.>.+.{ 5.5.W i s s t 5. X_.Z.P t 0 6 > ; # # O O O O O O O O O O O O O O O O O O # O O O O O O O O # # O O O O O # O O O ",
"O O O O O # O O O O O O O O O O O O O O O O O O O O O O O # O O O O O O O # # # ; O B.w.X > ; 2 2 2.K. .[._./.` m 0 0 6 0 t 0 W [._. X` P / m P j t s i i 5. X_.W.;.t 0 2 > > ; # O O O O O O O O O O O O O O O O O O O O O O O O O O O O # # O O O O O # O O # ",
"O # O O O O O O O O O O O O O O O O O O O O O O O O O O O O O O O O O O O O # # ; # j m # ; ; > 6 6 k.k.;. X[.Y.5.x t 0 6 0 i P Y.[. X .m m j i s i i Z k. X[.Y.z.W 6 2 ; ; # # # # O O O O O O O O O O O O # > O O O O O O O # O O O O O # # O O O O O O O O O ",
"O O O # O O O O O O O O O O O O O O O O O O O O O O O O O O O O O O O O # O # O # ; # O ; # # # > 2 t b.w.5.[.[./.y.j 6 0 t s j Z.[.[.` s s i i s T p./. X XH.b.p.t 2 ; # # # # O O O O O O O O O O O O O O O # O O O O O O O O O O O O O O # O # O O # # O O O ",
"O O O O O O O O O O O # O O O O O O O O O O O O O O O O O O O O O O O # O O O O O O # # # # # # # > 2 i T m k._._.W.y.;.m i s Z H.[._.k.>.2.2.y.B.[. X X_.5.w.K.m 2 > # # # # # O O O O O O O O O O O O O O O O O # # O O # O O # O O O O O O O O # # O O O O O ",
"# O O O O O O O O O O # # O O O O O O O O O # O O # O O # O O O O # # # # # O O O O O O # O O O # # > 6 t j w._._._.[.[.Y.5./ y.Y.[._. X X X X X X_.[.Z.+.p.b.x 2 > # # O # O O O O O O O O O O O O O O O O O O O ; # O O O O O O O O O O O O O O O # O O O # O ",
"O O # O O O O O O # O O O # O O O O O O O O O # O # # O # O O O O # # O # # O O O # O O O O O O O # ; 2 i i 2. X_._._._.[. X_./._._._._._._././././.H.d.H.5.t 2 > # # O O O O O O O O O O O O O O O O O O O O O O O O O O O O # O O O # O O O O O O O O O # # O ",
"# # O O O O O O O O O # O # # O O O O O O O O # # O # O O O # O O # O O O # # # O O O # O O O # O # ; 2 0 F W.[._._. X[._._._._._._._._._._.[. X_.Y.H.p.Z 2 2 > # # # # # O O O O O O O O O O O O O O O O O O O # O O O O # O # O O O O O O # O O # O O O O # O ",
"# O O O O O O O # O O O # O ; # O O O O O # # O O O O O # O O O # # O # O O # # O > ; O O # O O # # > 6 s H. X_.K.B.k.W./._._._._._._._._._.K.B.w.{ m 2 2 2 ; ; # # # O O O O O O O O O O O O O O O O O O O # O O O O O O # O # O O O O O O O # O O O O # O O O ",
"O O O O O O O O O O O O # O O # # O O O # # O O O O # O # O O # # # O O O O # O # 2 # O O # O O # ; 2 6 5._._.K.Y./ j d. X X[._._._._.[./.[.w.x s 0 6 2 > ; 2 > O O O O O # O O O O O O O O O O O O O O O O O O O O O O O # O O O O O O O # # # # # O O O # # # ",
"# O O O O O O O O O # O O # O O # # # # O # # # # O # O # O O # O # O O O O # O O O O O O # # # # > 2 / K.W././.5.i s N >.B.Y._._._._._._.Y./.P s i 6 2 > ; 2 > O # # O O # # O # O O O # O O O O O O O O O O O O O O O O # O O O O O O O # # O O O # O # # # # ",
"# ; # O O O O O O O O # # O # O # 2 ; O O # O O O O O O # # O # O O # O # # O # O # # O O O # # ; 2 s p.K._./.B.j i t 0 6 i m Z 5. X_._.[.Y.W.z.i s 0 6 > # ; # ; # # # O O O # # O O O O O O O O O O O O O O O O O O O O O O # # O # # O O O O O O O O O # O # ",
"; # # # O O O O O # O O O O O O O ; > 2 > O O O # O O # O ; # O O O # # O # # # O O O O # O # # > 6 N k. X/./.F i i t 0 t t i i +. X_._._.[.B./. .0 i 6 0 x ; # # # O # # O O # # O O O O O O O O # O O O O O O O O O O O O O O # O O O O O O O O O O O O O # # ",
"> > # # # O O O O # O O O O O # O O > ; # # # O # O O # # O # O O # O O O O # # # # O # O # # ; 2 0 W [.W._.2.W x 6 2 6 0 t s j +. X_.[._.[./.z.K.#.w.;.B.W # # # # O O O # O # # # O # O O O O O O O O O O O O # # O O O # O # # O O O O O O # O O # O O # # # ",
"# ; > # # # O O O O O O O O O O # O # ; O O O O O O O O O O # O O O # O O O # # # # O O # # # > 0 i Z.[.Z.Z.m p.W k.>.T m j j s  .OXY.b.[._.[.Y._. XY.z.F ; > # O O O O O # # # O # O # # O O O O O O O O O # # 2 # O O O O O O # O O O O O O # # O O O # # # # ",
"> O # ; # O # # O O O O O O O O # # O ; # O O O O O O O # O O # # O O # # # O O O O O O O # ; 6 6 >.=X5.B.T t t i  .Z._./.Y.H.b.H.[._.W. X_._. XK./.2.0 0 6 ; # # # # O O # # # # # O O # # O # O O O O O O O # # O O O O O O # # O O O O O O O O O O O # ; # # ",
"> ; O O > # O # # O O O O O O O # # # O # O # # O # # O O # O ; # O O # O O O # O O # # # # 2 2 P $Xd.>.>.6 t 6 6 > T p.k.Z.K.Y.Y._._.Z.z._.[. XZ.w.Y.m t 2 ; # O O # O O # O O # ; O O O # O O O O O O O O # O O O O O O O O O # O O O O O O O O O O O # # # # ",
"# > ; O # > # O # ; O # # O O O # O # O # # O # O O O O O # O # # O O O O O O # O # O # ; ; 2 t Y.W.x / i 2 > > > 2 Z 5.p.z.B.B.H.[._.b.5.5.[./.OXp.b.>.6 6 ; # # O O O O O O # O O O O O O O O O O O O O O # O # O O O O O O # # O O # # O O O O O O O ; # O # ",
"O > > # O # ; O O # ; O O O O O # # # # O # # # # O O O O # # # # O O O O O O O O O # # # 2 # ;. XN 0 6 > > # # ; > > > t x P W #._._.` m s p./.H. X>.2.j 0 > # # O O O O O # # O O # # O O O O O O O # # O O O O O O O O O O O O # O # # O O O O O O # > O # # ",
"O ; > ; # O ; ; # O # ; # O O O # # O # O # # O O O O O O O # O # # O O # O O O # O O # ; # m K.N 2 6 > ; # # O # # ; > 2 2 0 t N /._.F s s m W.p.Z./.{ { 6 6 > # # # O O O # O O # # # # O # O O O O # # O # O O O O # O O O O # O O O O O O O O O # ; ; O O # ",
"O # > ; # O O ; # ; O O ; ; O O O O O # # O # # O O O # O O # # # # O O # O O O # # # # ; > ;.m ; 2 ; # # O O # O O # ; ; > 2 0 x Y./.Z 0 t t W H./ [.B./ W 6 2 ; # # O O O # # # # # # # O O O O # O # # O # O O O O # O O O O # O O # O O O O O # > # # O # ; ",
"# O ; > O # O # ; O ; # O ; ; O O O O # ; # # # # # # O # # # # O ; # O O # O # O O # # # 2 0 # > ; # # O O O O O O # # O # ; 6 t k.B.N 6 6 0 2 5.2.` $Xw.b.F > > # O O # O O O # # # # O O O O O O O O # O # O # # O O O O O O O O # # # # O O O # ; ; # O O # ",
"# O # > # O ; O ; # O ; # O # > # O O O # # # # # O # O # # # # # # # # # # O O O O O # # # # ; # # # O O O O O O O O O O O ; 2 6  .d.m > 2 2 6 t k.F y.[.;.p.6 > ; # # O O O O O # # O O O O O O O O O # # O O # # # # O # # O # O O # # # O O O # ; ; O # O # ",
"O O O ; # O # O # > O O ; ; O # 2 > O O O ; # # # # # # # # O # # # # O # # # O # # # # # # # # O O # O O O O O O O O O O O # ; 2 t >.m ; > ; > > m +.j K.Z.m i 2 ; # O O # O O O # # O O O O O O O # # # # O # # # # # # # O O # O O O O O O O ; ; ; # O O O # ",
"O O O # ; O O # O > # O O ; > O # 2 > O O ; O # # O O O # # # # ; # O # # # # O # # O # # O O O O # # O O O O O O O O O O # # ; 2 ; / s ; ; ; ; > 2 t t x [.>.2 6 ; # O O O # O O # # O O O O O O # # # O # # # # O # # # # O # # O O O O O # O > ; ; # O O O O ",
"O O O # 2 # O # O ; ; O O O ; > # O 2 > O # # O ; O O # # O # # ; ; # ; O O # # # O # ; O O O O O O O O O O O O O # O O O O # # > ; s 6 ; # # # ; > > 0 6 / OXF 2 2 # O O O O O O O O O O O O O O O O O O # # # # ; # # # # O # # O O O O O # ; 6 > # O # # O O ",
"O O O O 2 ; O O ; O ; O O # O # 6 ; X > 2 # ; O ; # O # # # O O ; > O # # O O O O O O O O O O O # O O O O O O O O O O O O O O # # ; ; ; # # # # # ; ; > 6 > 2.Y.0 2 > # # O O O O O O O O O O O O O O O O O # # ; # ; ; # O O O # O # # O # # > t 2 O # # # O > ",
"O O O O > > O O ; # 2 ; O O # t 2 t 2 O ; 0 2 O ; > O O # # # # # > O # ; O O O O O O O O O O O O O # O O # O O O O O O O O # # O # # # # # # # # # ; > > 6 0 W.2.# 2 ; O O O O O O O O O O O O O O O # O O # ; > # > # O # # O # O O O O # # 6 t 2 O # # O # 6 ",
"# O O O ; > O O # ; ; 2 O O O 2 > ; 6 6 O # t 2 O ; # O O O O O O ; # # > O O O O O O O O O O # O O O O O # O O O O O O O O O O # # # # # # # O O O ; 2 ; 2 > P OXF # ; # O O O O O O O O O O O O O O ; ; O O 2 > # > ; O O # O # # O O O O ; t 6 # # O O O O # ",
"O O O O ; > O O O ; ; > O O # O # O # 6 6 # # s t ; # O # 2 2 > O > ; O > # O O O O O O O O O O O O O O O O O O O O O O O O O # # O O O O O O # O O # # # ; > ; T / ; ; # O O O O O O O O O O # O O # O # O O ; ; # > > # O ; O O O O O O O > i 6 # O O O O O O ",
"# # O O # 2 O O O # > 6 ; O # # # # # # 6 6 ; ; t i ; O 6 6 > 6 2 > > O > # O O # O O O O O O O O O O O O O O O O O # O O O O # # # O O O # # # # # O O # # ; > # # > # # O O O O O # O O O O # # # # O O O # ; > # ; # O O # O O O # # O O 2 0 ; O O O # O # # ",
"O O O O ; 6 O O O O > 0 ; O O O O # # # O ; 6 0 2 2 0 6 2 O 2 O > 2 6 O 2 ; O O O O O O O O O O O O O O O O O O O O O O O O O # # # O O O # # O # O O O # # # # ; ; # # O O O O O # # O # O O O O # # O # O # > ; # ; O O O O O # # O O O O 0 2 ; # # O # # O O ",
"O O O O > 2 O O O O > t > O O O O O # # O O > t i 2 0 t 2 O > ; # > 0 O 2 ; O # O O # # O O O O O O O O O O O O O O O O O O O O O O O O O # O O # > O O O O O O O O O O O O O O O # # O # # O O O # # O # # # ; # # ; O O O # # O # O O O O i 6 ; O ; O O O O O ",
"O O O O ; > O O O O > i 2 # O O O O # # # # O > 0 0 0 0 0 > 6 ; O > i 6 > > O O O O # O O O O O O O O O O O O O O O O O O O O O O O O O O # O # # > # # O O O O O O O O O O O O O # # O O # # # O # O O # # O ; ; # # O O O O # O # # # O ; t 6 2 O # # O # # O ",
"O O O # > > O O O # ; t > ; O O O O # # O O # # ; ; 6 0 0 i 0 2 O 0 s 6 ; > O O O O O O O O O O O O O O O O O O O O O O O O O O O O O O O O O # # O O O O O O O O O O O O O O O # ; O O O O O # # # O O O # O # ; ; # O O O O # O O O O O 2 t 2 # O ; # # O O O ",
"O O O O > ; O O # 2 # t > ; O O O O O O O O O O > # > 0 t t t i 2 s s ; # 6 O # O O O O O O O O O O O O O O O O O O O O O O O O O O O O O O # # ; # O O O O O O O O O O O O O O # # O O O O # # O O O O O # # # # ; # O O O O # ; O O O O 0 i 6 2 > # O O O # # ",
"O O O O > # O O O O # i 2 ; # O O # # O O O O O ; # # > > t s i s i 0 2 # 0 O O O O O O O O O O O O O O O O O O O O O O O O O O O # O O # O O O # O # O O O O O O O O O O O O # ; ; O O # O O O O O O O O # # ; # ; # O O O O O 2 # O # O 0 t t t > # O O O # O ",
"O O O # 2 O O O O O # 6 2 ; # O O # # O O O O O > # # ; O ; 0 j s i 6 2 # i # O O O O O O O O O O O O O O O O O O O O O O O O O O O O O O O O O O # O O O O O O O O O O O O O # # # O O O O # O O # O O O O ; ; # > # O O O O O ; # O # O t s t ; ; ; O O O O # ",
"O O O ; 2 O O O O O # 6 ; ; ; O O O # # O O O O ; # # > O # 0 s s j i 0 O t # O O O O O O O O O O O O O O O O O O O O O O O O O O O O O O # O O O # O O O O O O O O O O O O # # # # O O O O O O O O O O O O ; > # > # O O O O O O # O # # 6 0 ; O ; ; O O O O O ",
"O O O > 2 O O O O O O 2 > ; # O O O # # O O O O ; ; # ; # 6 s s 6 0 i i O t ; O O O O O O O O O O O O O O O O O O O O O O O O O O O O O O O O O O # O O O O O O O O O O O O # # ; # O O # 2 # O O O O O O O O > # ; # O O O O O O O # O > > > # # # O # # O O O ",
"O O # t > O O O ; > O 6 > # # O O O O O O O O O # ; O 2 6 s s 0 > X 2 x > 6 # O O O O O O O O O O O O O O O O O O O O O O O O O O O O O O O O O O O O # # O O O O O O O O O # # ; O O O # t O O O O O O O O O > > 2 ; X O O O O O O O X 2 6 2 2 # > # # ; ; # # ",
"O O ; t # O O O # # # 0 > # # O O O O O O O # O # ; O t s i t 2 # # O 2 ; 0 ; O # O O O O O O O O O O O O O O O O O O O ; # O O O # O O O O O O O O O O O O O O O O O O O O ; # ; O O O O # O O O O O O O O O # > 2 2 O O X X O O O # O 2 i 0 > O > > # 2 6 ; O ",
"O O 2 6 O O O O O O # 0 > O # O O O O O O O O O # ; t s 0 0 2 O O O O ; O 0 > O O O O O O O O O O O O O O O O O O O O O # # O O O O O O O # O O O O # O O O O O O O O O O O ; # # O O O O O O O O O O O O O O O > 6 0 O O ; ; # O X > ; 2 t i ; O O # # > > # O ",
"O # 0 ; O O O O O O ; i # O # O O O O O O O O O O 0 0 0 0 2 # O O O O # O 6 # O O O O O O O O O O O O O O O O O O O O O O O O O O O O O O O O O O O O O O O O O O O O O O O ; ; ; O O O O O O O O O O O O O O O # 2 2 O O # 6 > O O 2 ; t i i 2 X O # ; ; O O # ",
"O 6 6 O O O O O O O > s # O O O O O O O O O O O 2 t ; 0 0 # O O O # # ; # 6 ; # # # O # ; # # O O O X O O O O O O O O O O O O O O O O O O O O O O O ; # O O O O O O O O O O # # ; O O O O O O O O O O O O O O O # 2 0 O 2 > 2 > ; > ; > i t > 6 O # ; ; ; # O # ",
"; 0 ; O O O O O O O 2 0 # O O O O O O O O O X > i ; > 6 # O O O O # # > # 6 ; O ; 6 2 0 i i s i 0 6 2 > # # O O O O O O O O O O O O O O O O O O O O # # O O O O O O O O O O # # ; O O O O O O O O O O O O O O O O 2 i # > ; ; ; > 2 O ; 6 j > > > # > > # ; # ; ",
"> 2 O O O O O O O O 6 ; O O O O O O O O O O ; i ; ; > ; O O O O O O O > # 0 # O O O O O O # # ; > 2 6 2 > > > # O O O O O O O O O O O O O O O O O O O O O O O O O O O O O O O # ; O O O O # O O O O O O O O O O X > s 0 O ; O > # O ; 2 2 j i # ; > # ; ; ; # ; ",
"0 ; O O O O O O O ; 6 # # O O O O O O O O O 6 ; O 6 # O O O O O O O # 2 # 2 O O O O O O O O O X O ; ; ; ; ; # # # # ; ; O O # # # O O O O O O O O O O O O O O O O O O O O O # # # O O O O O O O O O O O O O O O O # s t O ; # O ; ; ; # 2 t t 2 X 2 > ; # ; # # ",
"2 O O O O O O O O 2 > ; O O O O O O O # O 2 ; X 6 > O O O O O O O O # 2 # 2 O O O O O O O O O O O O O O # # # # # O O # O # # O O # O O # O O O O O O O O O O O O O O O O O ; # # O O O O O O O O O O O O O O O O O 0 0 ; O > O X O X O ; 6 > 6 # # > ; # # # # ",
"; O O O O O O O ; t # > O # O O O O O O 6 > X > 6 # O O O O O O O O ; > ; 2 O O O O O O O O O O O O O O O O O O O O O O O O O O # # ; # O O O O O O O O O O O O O O O O O O ; ; > O O # O O O O O O O O O O O O O X ; t 0 O ; ; O O O O ; i 0 6 > # O > ; O # ; ",
"O O O O O O O X 0 > O > ; O O O O O O > 6 X > 2 # O O ; # > ; ; # O # # ; > O # O O O O O O O O O O O O O O O O O O O O O O O O O # > ; ; # O O O O O O O O O O O O O O O X ; ; ; O O O O O O O O O O O O O O O O O O 6 0 ; O ; # O O O # 0 6 2 X 2 # # ; # O ; ",
"O O O O O O X ; 0 O O 0 > O O O O O ; > X # 6 # # O O O # # # 2 > 2 > # ; # O # O O O O O O O O O O O O O O O X O O O O O O O O O O O O # # ; ; O O O O O O O O O O O O O O # > ; O O O O O O O O O O O O # O O O O X > 0 6 ; # 2 O O # O 2 > ; O ; > # O > ; ; ",
"O O O O O O # 0 ; O # 6 # # O O O # 2 O O 6 # O # O # ; 0 0 2 2 > O > # # # O O O O O O O # # # # # # # # ; ; > > ; # O O O O O X O O O O O O ; > ; O O O O O O O O O O O O O ; ; O O O O O O O O O O O O O O O O O O O 2 2 2 # # > O O O > > 2 ; O # ; O # 2 > ",
"# O O O O O 6 > O O > 6 # # O O # 6 # O 2 # O # # O ; t > 6 > 2 2 > ; O # O O # # # # ; ; > > ; # ; # ; ; 2 2 t i t i 6 2 ; ; > > # # O O O O O O # ; ; O O O O O O O O O O O ; ; O O O O O O O O O O O O O O O O O O O > > > > O ; > O O > 6 2 2 O O # > # # > ",
"# O O # O 2 6 O O # i 0 > # O O 2 ; X 6 ; X O # O O ; # X > > # O # > O > ; # ; ; # O # # O ; > 2 6 6 6 6 2 2 ; ; # # # # O # ; 0 2 2 2 2 > # # O O O # > > O O O O O O O O O > 2 # O O O O O O O O O O O O O O O O # O # 2 > ; > # ; ; O ; 6 ; 6 # # O # ; # # "
};
