/* XPM */
static const char *sangue_NO[] = {
/* columns rows colors chars-per-pixel */
"128 128 227 2 ",
"   c #0E0606",
".  c #0E0907",
"X  c #0E0708",
"o  c #0D0C0B",
"O  c #0D0B0C",
"+  c #0C0B0C",
"@  c #0E0B0D",
"#  c #0C0C0C",
"$  c #0D0C0C",
"%  c #0D0D0D",
"&  c #0E0C0D",
"*  c #0E0D0D",
"=  c #0E0E0C",
"-  c #0F0E0C",
";  c #0F0D0E",
":  c #0E0D0E",
">  c #0F0F0E",
",  c #0D0B0B",
"<  c #110505",
"1  c #100404",
"2  c #100605",
"3  c #100705",
"4  c #110605",
"5  c #100606",
"6  c #100706",
"7  c #110706",
"8  c #100607",
"9  c #100707",
"0  c #130707",
"q  c #120707",
"w  c #110506",
"e  c #150707",
"r  c #150606",
"t  c #160607",
"y  c #160607",
"u  c #170506",
"i  c #140606",
"p  c #190705",
"a  c #1B0605",
"s  c #1A0605",
"d  c #180707",
"f  c #1A0706",
"g  c #190506",
"h  c #1B0505",
"j  c #100806",
"k  c #110907",
"l  c #100806",
"z  c #120807",
"x  c #120807",
"c  c #100A07",
"v  c #120807",
"b  c #1A0C07",
"n  c #100708",
"m  c #110708",
"M  c #110708",
"N  c #120708",
"B  c #170708",
"V  c #170709",
"C  c #140708",
"Z  c #190608",
"A  c #1A0608",
"S  c #190608",
"D  c #100809",
"F  c #110809",
"G  c #100909",
"H  c #100809",
"J  c #130808",
"K  c #120908",
"L  c #130908",
"P  c #120809",
"I  c #100B08",
"U  c #120A08",
"Y  c #130A08",
"T  c #130B09",
"R  c #130A09",
"E  c #11090A",
"W  c #12090A",
"Q  c #13090A",
"!  c #100A0A",
"~  c #110B0B",
"^  c #100B0A",
"/  c #120B0B",
"(  c #140808",
")  c #150808",
"_  c #150909",
"`  c #140908",
"'  c #160808",
"]  c #170909",
"[  c #140A09",
"{  c #140A09",
"}  c #150B0A",
"|  c #100C0B",
" . c #100C0B",
".. c #120C09",
"X. c #130C0C",
"o. c #100E0D",
"O. c #100E0F",
"+. c #100E0E",
"@. c #110D0D",
"#. c #140D0D",
"$. c #1A0E0D",
"%. c #15100E",
"&. c #1A100E",
"*. c #160F10",
"=. c #1A0F10",
"-. c #161110",
";. c #1B1111",
":. c #171813",
">. c #220906",
",. c #220D0D",
"<. c #2A0E0D",
"1. c #22070C",
"2. c #340D0D",
"3. c #2F1104",
"4. c #23110E",
"5. c #2A110E",
"6. c #32120D",
"7. c #3B120C",
"8. c #3B190E",
"9. c #230E11",
"0. c #2C0E12",
"q. c #340F14",
"w. c #3B0E15",
"e. c #330F18",
"r. c #3A0E19",
"t. c #231112",
"y. c #2B1113",
"u. c #2D1218",
"i. c #321213",
"p. c #3B1313",
"a. c #331219",
"s. c #3C121A",
"d. c #430D16",
"f. c #480F14",
"g. c #430F1A",
"h. c #4C0F19",
"j. c #431413",
"k. c #491513",
"l. c #461813",
"z. c #4B1913",
"x. c #441219",
"c. c #4A131A",
"v. c #4B191A",
"b. c #541515",
"n. c #5B1414",
"m. c #571816",
"M. c #581A11",
"N. c #51151A",
"B. c #551B1B",
"V. c #5C1A1C",
"C. c #5B171B",
"Z. c #621416",
"A. c #661B16",
"S. c #6A1A16",
"D. c #65121D",
"F. c #6C121B",
"G. c #641B1B",
"H. c #6B1D1C",
"J. c #721E1C",
"K. c #7A1F1E",
"L. c #761D17",
"P. c #6C201B",
"I. c #75211C",
"U. c #7F201E",
"Y. c #441520",
"T. c #4E1521",
"R. c #501420",
"E. c #5D1A20",
"W. c #5A1122",
"Q. c #6D1E20",
"!. c #661725",
"~. c #771F21",
"^. c #781F24",
"/. c #7B2123",
"(. c #81211D",
"). c #89201F",
"_. c #821F22",
"`. c #832121",
"'. c #8C2324",
"]. c #8D2429",
"[. c #922424",
"{. c #9C2624",
"}. c #9A2826",
"|. c #922628",
" X c #9B262A",
".X c #962C2C",
"XX c #A62A2C",
"oX c #AD2C2A",
"OX c #AA262D",
"+X c #B32A24",
"@X c #B22B2B",
"#X c #BB2D2C",
"$X c #B62626",
"%X c #AC2B30",
"&X c #BC2E32",
"*X c #B02C32",
"=X c #C32E2D",
"-X c #CA2E2E",
";X c #D22F2D",
":X c #DC2E2F",
">X c #C6322F",
",X c #CA302F",
"<X c #D5312F",
"1X c #DC312F",
"2X c #C42D32",
"3X c #CD2F30",
"4X c #D32E32",
"5X c #DC2F32",
"6X c #C53233",
"7X c #CB3032",
"8X c #C53039",
"9X c #D43132",
"0X c #DB3133",
"qX c #D3323A",
"wX c #DB3239",
"eX c #E42F2E",
"rX c #E92E2D",
"tX c #E4302E",
"yX c #EA302E",
"uX c #E52F31",
"iX c #EA2F32",
"pX c #E43232",
"aX c #E93232",
"sX c #E3333A",
"dX c #EB343B",
"fX c #F3323B",
"gX c #C73243",
/* pixels */
"< < < < < X o o o.o.- - - - o.X o - - - o o o o o X X X   < m F X X X X X F X - - - - - - @ @ - - - - - @ @ @ @ @ @ @ - - - - o o o - o o - o o o - - - - - - . # . # # # - - @ X o o . X X F F F F F F j F F F } } } u < j j j F } } } } } } u f Z f f f f f f ",
"< < < < < m m X F F o o o.%.o.| o o o o o.o X X X F F F F F X X X F m m F F F o o o o - - @ @ - - - @ - - @ @ @ - - o.- - - - o o o - - - - o o o - - - - - @ X X . . . # - @ . X o o o o X F F F F F F j F F j } } } ( < j j j } F j F } } } } Z Z f f f f f f ",
"< < < < < X X     X o o o o - o o X X X F F X X X X o.o.o.F X X X m m m F F X X o o o o @ X @ - - - @ @ - - @ - - - - - o o o o o - - - - - o o o - @ @ - - - o o o o @ X @ @ @ @ o o o o X X F F F F F F F F F F j } } F < j F } F j F } } } } } V Z f f f f f ",
"< < < < m X X X X X X o.o X o o o X X X X X F X X X F F | o X X   < m m m X X X X F X X @ X X - - - - - - - @ - - @ @ - o o # o o - - - - - o o # - @ X - - - o X X X @ @ @ @ @ @ # X # o X X X X F F F } } } } F j } } } j } } } } } } } } } } } V Z f f f f f ",
"      < < m m m m m X F X X o o X | | F F F F   F F m X X o X F   < < m m         X X X X X X - - - @ @ @ @ @ - - @ @ - - - o o o - - - - o - o . - @ @ @ X @ X | X X X @ @ X X X # o # o X X X F F F F } } } } F j F F F } } } } } } } } } } } } } V u f f f f ",
"m         < < < < < j j . j X X | o X F F F .     < < < j F j j     < < < j j <   . j F X X o o - @ @ @ - - - - - @ @ - - - - - - - - @ - @ @ @ @ - @ @ @ . @ X o o X X X X X X X # o . . X X X F F F j ( u u u ( } F F } } } } } } | } #.} #.} } F } } u ( u V ",
"F m               < j j . j X X X X X X . . j . < < < < j j . . j j <   < j j <   . . .   X o o - @ @ @ - o.- - - - @ - o.- - - @ @ - - - @ @ X . @ @ @ @ . X . o X X X X X X F X o o . X o | F F F F } } u f u ( } j j j F } F F F j j j j F #.} F } } u u u V ",
"    F F F           j j . j X X X .         j j j < < < < j . j j j j     < < < < j .     X X o - @ @ @ - - @ @ @ @ - - - - - - @ @ - @ @ @ - @ @ @ @ @ X X X o o o o F F X o.F X X o X X X | F F F F } } u u u u u < < j F F F j j j j F j F F F F } } ( ( u V ",
"  X F F F X             j j F X X X         j j j <   < < < j j . j F . < <   < < j .   < m X X o.- - - - - - - @ @ - - - - - - - - - - @ @ - - @ @ @ # . # # o o X o | F F F X X X X X X X X X X F F F } u u u u u u < j F F F j j j F | F F F F F u u } } } V ",
"  X X X F m m   X       j j     < F < < < < < < < <   < < < j j j j . . j < <       .   < < < . F - - - - - - - - - @ - - - - - - - - - O.@ @ @ @ @ # . . . @ o o X X F X X X | o.| X X . X X F F F F F } u u u Z Z u u < F F F F j j F F #.F F F j u V } } } } ",
"< m m m m < < X X X X F m     < <     < < < < < < < <   < <   < < <     m m F       < j <       j X X X o - - - - - - @ # # # - # # # - - @ @ @ # # X . . . @ o.X X X F F F F F o.o.F X X X j j F j j j j < } Z f f u u u u < j F F F F F F j j j F F } } } } } ",
"          <   m F F X X X     .         < < < j         < <   < < <     m m m       < <         .   X X . . # # @ - - # . . . . # # . . - @ @ @ # # . . X @ X X X o X X X X X X F F X X X X j j F j j j j j } S f f u u f u u j F F F F F j j j j j j } } } } } ",
"m m X m     m X m X X X X X       < < < < < < < <       < < < m < <       X X <             <     X X X X . . . # # # . . . . # - - . . # @ @ @ @ @ @ X X @ X X X o X X X F X X X X F X X X F j j j j j < j F V u u u f f u u u ( } F F F F F j F F F } } } } } ",
"F X X X X X       < F m X X X .       < < < < < <             m F F X X X X X < <           < <   X X X . . . # # # . # # # # - - # # - # @ @ @ # @ X . . @ @ X X X X X F F X X X X F X X F j j j j j j < < j } u u f f f f V u ( } F F F F F | | F F F F F | F ",
"X X X X X X F m m m m m X X X . .           < < <                   X X X X X < <             <   X X X . . # # # # . # # # . # - . # # # # . . . . . . . X X X X X X X X F X X X X . X X F j j j j F F j j j j u u u f f Z Z u u } F F F j F | | . j F F F F F ",
"< m   X X m m m             X X X . . .             <               < < <                       X X     X X . . o o . . . . # # o . # - # # . . . X . X X X X X X X X X X . . | X . . . . . F j j F F F F j < u u u } } V Z Z Z f u ( } } F F F F F F F F F F | ",
"<     . X m m                 X X   X X X X         < < <                             <         X X X       X X o . . . . . # o o o o # . X . . . . . X X X X X X X X X j j j j F F F F . j j j F F F ( ( < u u u u u } V V Z V u u } } } F F F F F F F F | F o.",
"o X     X F m F F F           X       X X X X m     <   < m                               X X   X X X         X X . . . # # . # o o o . . @ @ @ @ @ o X X X X X X X X F j j F F } ( } } F j < < F } } } } u u u u u u u V u u u u u } } F F F F F F F F F | F o.",
"# o o X X m   m F F F F                     X F <       < F X X       <                 X X X     . X X     < m X . . . # # # # o o o # - @ @ @ @ @ o o X X X X F X X F < < j j u u u } ( ( < < } } } ( V u u u u u u u u u u u u V } } F F F F F F F o.o.o.o.| ",
"o - - - - X X   X F m X m m m               X m F <       . . X X       <             . X X X X X .   X             X o # # # # o o o o - - X @ - - X X X X X X F F X F } u u u u u u u u u u u ( ( ( u u u u f u u u u u u u ( ( } } } } F F F F F F o.o.o.F | ",
"@ @ @ - - - - X X X X X   < < < < <         X X X X X X   X X X         < <   < X     . . X X X F X                 X X . . # # o o o o # # . o - | X X X F F X j j j j j u u V u f f f f f f f f f f f f f f f f f f f f u u u ( } } } } F F F | F F F F F F F ",
"@ - - @ - o.@ - @ X X F X     < < < <       X X X X X X X X X X X X X   <       X F X X . X X X X X                 . . . . # # o o o o # # . . o X X X X F F X j j j F j u u V f f f f f f f f f f f f f f f f f f f f f u f u u ( } } } } F F | F F F F o.o.| ",
"@ @ - - - - - - - - X X X X   < < < <   X X X X X X X o o o X X X X X X X         m X X X X X X X X                 . . . . # # o o o o o # . # o X X X X X X X F F j ( < u u u f f f f h h f f f f f f f Z Z f f f f f f f f u u u } } j F F F F F o.F F F F | ",
"- - - - - o.- - - - o o o X m < j < < . X X X X X X X X o o X o o X X o o X           F X X X X X X .               X . # . # # o o o o - # . o o X X X X X X | F F j ( u u u f f f f f h h h h h f f f f f Z f f f f f f f f f f u } } F F F F | F o.o.o.o.F o.",
"o.*.- - - o.- - - - # - - - X   .   < X X X X X X - - X o o o o o X o - - o X             X X X X X X X X X     X X X o # # # # # # # o o . . X o X X F F X X F F F j u u u u f f f f f f f h h h h h g h h h h h h h h f f f f f u } } } } F F F F F F F F F o.",
"- O.- - - @ @ @ @ - - - - - *.o.X X X X X X @ X @ - @ - - - @ - @ @ - - - # - X             X   X X X X X X X   X X . # # # # # # o # . . @ @ @ X X X F F F F j j j j j u u u u u f f g h h h h h h h h h h >.>.h h h h h f f f s f V } } } X.} F F F F F F o.F ",
"- - - - *.*.- - - - - - - - - *.- - X X X X X X @ @ @ - - - - - @ @ - - - - - - X X         X X X . X X X X X X X . . # - - - - o # # # o @ @ X X X o X F F F j j j j j < u u u u f f f h h h h h h h h h h h h h h h h h f f f s f Z } < } } } F F F F F F | F ",
"- - - - O.*.- - - - - - - - - - - - - - X X @ @ @ X @ - @ @ @ - - - - - - - - - o o X X     X X X X X . X X X . . . o - - - - - o . # o - X @ X X X X o X X F F j < j j < } u u u f f f f h h h h h h h h h h h h h h h f s f f f f f u u } } F F F F F F F | o.",
"- - - - O.*.- - - - *.*.o.- - - - - - - - @ @ @ @ X @ @ @ @ @ @ @ @ - - - # - - o - - X X X X X X @ . . @ @ . . . . - - - # - - # . . o o X @ X X @ o o X X F F < < j j < } u u u u f f f h h h h h h h h h h h h h h f f f f f f f f u u } F F F | | F F F o.o.",
"- - @ - O.- - *.- - *.*.o.o.- - - - - - - - @ @ - - @ @ . . . X # # - - - - - - - - - - X X X X - - . . - - - # . . o - o # - - # # . # . X @ @ # @ o o X X F F j < j F m } V u V u u f f h h h h h h h h h h h f f f f f f f f f f f u u } } F F F F | | | | | ",
"- - - - - - - - - - @ @ @ - - - o.- - @ - - - - - - - - # # # # . . # - - - - - - - - - - - - - - - # # # - - - - . . # # # # # # # # # - - - # # # # # @ @ @ X X F F F F F F F V u u u u f s s h h h h h h h h f f f f f f f f f f Z Z V } } F | F | | | | | | ",
"- - - - - - - - - @ @ @ @ - - - - - - @ - - - - - - - - # # - - # # - - - - - - - - - - - - - - - - - - # - . # - - # # # # # # # . # # # # - # # # # # @ @ @ X X X X F F F F F m < u u u f f f f f h h h h h h f f f f u u u u f Z Z V } } F F | F | | | | F | ",
"o.- - - - @ @ @ - @ @ @ @ - - - - @ - - - - - - - - - - - - - - # # - - - # - - - - - - - - - - - - - - @ # # - - - - - # . . # . # . . # # # # # - @ @ . . @ . . X X X X X X X F F F < < u u u u f f f f f f f f f f f u u u V V u u ( } } F F #.} F #.F F F F ",
"*.- - - - @ @ @ - @ @ - @ - - - - - @ - - - - - - - - # . # @ @ - - - - - - - - @ - - - - - - - - # - - # . # - - - - - o # . # . . . . # - # # # # @ @ . . @ # o X X X X X X X X X j j j < u ( u u u f f f f f f f f f u V V } } } } } } F F F F F F F j F } } ",
"*.- - - - @ @ @ @ @ - - - - - - - - @ @ - @ - - - - - @ . @ @ @ - - - - - - - - @ @ - - - - - @ # @ - - @ @ @ - - @ - - - - X @ # # # # - # # # - - @ - # . @ - - # # X o o o o X X X X F F F } V V V u u u u f f f f u u V } V V } } } } F F F F j j j j j } } ",
"o.- - - - @ @ @ @ - - - - - - - - - - - @ - @ @ - - - @ @ @ @ @ @ - - - - @ @ @ @ @ @ @ @ - - @ @ @ - - @ - - @ @ @ - @ - - - @ @ # - - - # # # - - # - # # # # # # # # - - - @ . # @ @ @ | F m V Z V u u u u u V V u u } } } } j F } } } } F F F F m F F F } } ",
"- - - - - - - - - - - - - - - - - - - - - - - - - - - - - @ @ @ @ - - o.- @ @ @ - - - @ @ - - @ @ @ @ - - - - - @ @ - @ - - - - @ # - - - - - - - - # # # # - # # # # - - @ @ @ X . @ @ @ @ F F m V V u u u u u } } } } } } } F F F } } } #.} F } F F F j F } } ",
"- o.- - - - - @ @ o.o.*.- @ @ @ - - - - - - @ @ - - - - - - @ - - - - - - @ @ @ - - - - @ @ - @ . . - - @ - - - - - - @ @ - - - - - - - - - - - . . . - - - - # # - - - . X @ @ @ . # . X X X F F m m } } } } } F } } } } } } } } } } } } } } F } F F F j j } } ",
"o.*.- - - - - - - *.o.- - - - - - - - - - - @ @ @ @ @ - - - @ - - - - - - @ @ @ - @ - - @ @ @ @ - - *.o.@ @ @ @ @ - - - @ - @ @ @ - - - - # - - . # . - - . . # # # - - . @ @ @ - - - - @ X o X F F F F } } F F F } F F } } } } } } } } } } } F F F F } } } } } ",
"*.*.- - - - - - - o.- @ - o.o.- - - @ @ - - @ @ @ @ @ @ - @ - - - - - @ @ @ @ @ - @ @ - @ @ @ @ *.- @ - - @ - - - @ - @ @ - @ @ - - - - - @ - - - @ @ @ . . . @ @ - - @ . @ @ @ @ - - - @ @ o o X X F F j F F j j F F } } } } } } F F } } } } F F F } } } } } } ",
"*.*.O.- - @ - - - - | o.- o.o.- - - @ @ @ @ - - - - @ @ - @ - o X - - @ @ @ @ @ @ @ @ @ - @ @ @ - - - - - o.o.o.o.@ | @ @ @ - @ o.- @ @ - @ - - @ @ @ @ @ X X @ @ @ @ @ @ @ @ @ @ . X @ @ @ o o X X F j j F } } < V } } } } } } } F j } F } } F F F } j } } } } ",
"*.*.- - o.- - - - - %.%.o.*.- - - - @ @ @ @ @ - - - @ - *.- - o X - - - - - @ @ - @ - @ - - @ @ - @ o.*.- - o.o.o.o.o.@ @ @ @ @ @ - - @ @ @ - - @ @ @ @ @ X X @ @ . @ - - - @ @ @ @ @ @ @ @ o o X X F j j F F } } } } } } F F } } } F j } } } } } } } } } } V V ",
"*.*.- - o.- - - o.$.,.$.#.o.- - - - - - - - @ - - - - - - - o.- - - - - - - @ - - - @ - o.o.- - - - - - o.o.o.*.-.o.o.@ @ - - - - - @ X @ @ @ @ @ @ - - @ . X @ @ @ @ - - - @ # @ @ X @ @ . o o.| F F F F F F } } } } } } F } } } } } } j F } } } } } V u u V V ",
"O.O.O.- O.- - o.o.$.x.9.| o.- - - - - - - - - @ - - - - - - o.o.- - - @ - - - - - @ @ - o.- @ - - - @ - - - o.*.-.*.o.@ @ - o.- - - - - - @ @ @ @ @ - - @ @ @ @ @ @ @ - @ - @ # @ @ X @ @ X - o.o.o.F F F F F } } } } } } F } } } } } } } } } } S V V Z Z Z Z Z ",
"o.o.o.o.o.- - o.o.o.$.$.o.- - - - - - O.- - - - - - - - - - o.o.- o.- - - - - - - - @ @ - - - - o.- - - - - - o.o.o.o.X @ @ o.o.o.- - - - - o o - - o - - X @ @ @ . @ - . @ @ @ @ @ X . . @ -.-.o.o.| F F F F } } } } } } } } } } } } } } } } S S } S Z S S Z Z ",
"o.o.o.o.o.- - o.o.o.#.#.o.o.- - - o.o.*.o.- - *.- o - - - - - - o.o.- - - - - - - - - @ - o.- o o.- - - - - o o o o o X o *.F #.*.o.- o - o o o o o o - - o - @ @ @ - - X X . @ @ @ @ . @ - - - - - - X F F F } } X.} V } } } V } } } } } } } S S } S } f S S Z ",
"| o.o.o.o.- - o.o.o.- o.F X.o.- - - o.*.- *.o.o.o.o.o.- - - - - o.o.o.*.- @ - - - - o.- - - - - - o.o.- - o.o o o X o o | X.#.b $.$.o.o o o o X o o o o.o.o.o.- - - - @ X @ @ @ - - - @ - - @ @ @ - o.- | F | } m } X.} } } } } } } } } } } } } } } S S u S Z S ",
"o.o.o.o.o.o.o.o.%.o.o.o.F F o.- - o.o.*.o.*.- - - - o.- - o - - o o.o.o.- @ - - - - - - - - - - - - - - - o.o o o o o.- | #.4.k.k.5.$.o.o o X X o o o - - - - - - - @ X X @ @ - - - - - - - @ @ - - - o o | o.#.F F } } } } F } } } } } } } } } } } } } S S S S ",
"#.#.o.o.o.o.o.%.%.o.o.o.o.o.o.o.o.o.%.*.o.o.- - o.o.o.o.o.o.o.o.- - - *.o.- - - - - - - - o.%.o.- o.o.o.o.o.o o - o.- o.#.,.7.].*Xz.#.*.| o o o o - . o - - - - - o.@ @ @ @ @ @ - o.- @ - - - @ - - - o o.o.o.o.X.X.} } } } } } } } } } } } } F } } } } f S S S ",
"#.#.o.F o.#.o.o.o.o.o.o.o.o.o.o.o.o.o.o.o.o.o.o.o.o.o.o.o.o.o.o.o.o.o.o.o.o.- - o.o.o.o.o.o.o.o.o.o.| | o.o.| | o.o.- o.X.p.L.$XdXG.#.*.- o o.o.o.o.X X | o.o.o.o.o.X X X o.o.o.o.o.o.@ - o.- - - - - - o.o.o.F o.o.F F F } } F F } } } } } } F F } X.} } } S Z ",
"#.#.o.o.#.#.o.#.o.o.o.o.o.o.o.#.#.o.#.o.o.#.o.o.o.- o.o.o.o.#.o.o.o.o.o.$.#.O.o.o.#.o.o.o.o.o.o.o.| o.o.| | | o.o.| o.#.} c.#X<XpXH.b $.%.| o.o.o.o.| | | o.o.o.o.| | | F o.| o.o.| o.o.o.o.o.- - - o.o.o.o.o.F o.o.| o.| X.X.F F } X.#.X.X.X.X.F #.#.#.| X.X.S ",
"#.#.#.#.#.#.o.o.o.o.o.o.o.o.o.o.o.o.o.o.o.o.o.%.o.o.o.o.o.o.o.o.o.o.o.o.o.#.#.o.o.%.o.#.o.o.o.#.o.o.o.o.| | | o.o.| o.#.#.c.wXaX0XA.$.#.o.o.o.#.o.o.o.o.o.o.o.o.o.o.o.o.o.o.| o.o.| | o.o.o.o.o.o.o.o.o.o.o.o.o.o.o.o.o.o.o.o.o.o.X.| #.X.X.#.X.X.#.#.#.o.X.} } ",
"#.#.#.#.#.#.o.o.o.o.o.o.o.o.o.o.#.o.#.o.o.o.o.o.| o.o.o.o.o.o.o.o.o.X.#.y.0.#.o.o.o.o.o.o.o.o.o.#.o.o.o.o.o.o.o.o.| F | &.k.4XrX0XS.$.*.o.o.o.#.o.o.o.o.o.o.o.o.o.o.o.o.o.o.o.o.o.o.o.o.o.o.o.o.o.%.o.o.o.| | o.o.o.#.o.o.o.o.o.o.#.#.#.#.#.#.#.#.#.#.#.#.X.X.} ",
"#.#.#.#.#.#.o.o.o.o.o.o.o.o.| | #.#.#.o.o.o.o.| o.o.#.#.#.#.o.o.o.o.$.#.p.x.$.o.o.o.o.o.o.o.o.o.o.o.o.o.o.o.o.o.o.X o.| $.k.-XtXpXH.$.;.o.o.o.%.o.%.o.o.o.o.o.o.o.o.o.o.o.o.o.o.o.o.o.o.o.o.o.%.%.%.%.o.o.o.o.o.o.| o.o.o.o.o.o.o.o.#.#.o.o.#.X.#.X.X.#.o.#.o.| ",
"#.#.#.#.#.#.#.#.#.#.o.o.#.o.o.o.#.o.o.o.o.o.o.o.o.o.o.o.#.#.o.o.o.o.#.#.#.$.$.#.o.o.o.o.o.%.%.| | | o.| | | o.o.o.o.o.| $.j.=XtXpXK.$.;.o.o.o.o.o.o.o.o.o.o.o.| o.o.o.o.o.o.o.o.o.o.o.o.o.o.o.o.%.o.o.o.o.o.o.o.o.o.o.o.o.#.#.#.#.#.o.#.o.o.#.#.X.X.X.X.#.#.#.| ",
"#.X.#.#.#.#.#.#.X.X.#.o.X.#.o.#.#.o.o.o.o.#.#.o.o.o.o.#.#.#.#.o.o.#.o.o.#.#.#.#.o.o.o.#.o.| #.F } F j F F #.#.#.#.#.#.X.$.p.=XpXdX(.$.;.o.| o.o.o.o.o.o.o.o.o.o.o.o.o.o.o.o.o.o.o.%.%.o.o.o.o.o.o.o.o.o.#.o.o.o.o.o.o.o.o.#.#.#.#.*.#.#.o.X.#.#.X.X.X.} } #.#.} ",
"#.X.#.#.#.#.#.#.X.#.#.o.#.#.#.#.#.o.o.#.#.#.#.o.o.o.#.#.o.%.#.#.o.#.#.o.#.o.o.o.o.o.#.#.F j F j F F F F F } | o.F | o.X.&.p.#XpXdXU.$.;.o.| o.%.%.%.#.#.#.#.o.o.%.o.o.o.o.o.%.%.#.%.%.o.o.#.o.o.o.o.o.#.o.o.o.o.o.o.o.o.#.#.#.| #.-.#.#.| #.#.X.X.#.#.#.#.#.} F ",
"X.#.#.#.#.#.*.#.#.#.#.#.X.#.#.#.#.#.$.$.$.=.#.o.o.#.#.#.o.#.#.#.o.o.o.o.o.o.#.#.o.X.} } V < < < ( } } } F } F F o.o.o.#.&.p.#XaXdXU.;.;.%.| o.%.%.%.o.%.%.%.#.#.#.#.o.#.o.o.#.#.#.#.#.o.o.o.o.o.o.o.o.o.o.o.o.o.o.o.| o.#.o.o.o.#.#.o.o.| X.X.X.X.#.#.#.#.#.#.#.",
"#.=.=.=.=.#.*.#.#.#.#.#.X.#.#.#.#.#.#.$.=.=.#.o.#.#.o.o.#.#.#.#.o.| o.o.o.o.#.#.| } m V f u u V } } S } u S #.o.#.%.-.-.t.p.+XaXpX`.t.;.#.%.o.o.#.o.o.%.o.o.o.#.#.o.o.o.o.o.o.o.o.o.o.o.| o.o.o.o.o.o.o.o.o.o.o.o.| o.#.#.o.#.#.#.o.o.o.o.X.#.#.#.#.#.#.#.#.#.#.",
"*.=.#.$.$.#.#.#.X.$.#.$.#.#.$.S #.#.#.#.$.$.#.#.#.#.#.o.%.&.#.#.#.#.#.#.#.#.#.} } } V u u u f f u u u u u $.$.=.$.#.#.$.0.k.+XaXpX`.t.;.%.o.#.o.o.o.o.#.#.o.o.o.#.#.o.o.o.o.o.o.o.o.o.o.o.o.o.o.#.#.#.o.F | o.o.o.#.o.#.#.o.#.#.o.o.o.#.o.F o.#.#.#.#.#.#.#.} } ",
"=.=.$.=.$.#.#.$.$.$.#.$.#.#.] ] $.%.%.#.#.#.#.$.#.#.#.#.$.;.&.$.#.#.#.o.#.#.S } } } u u u u u u u u u u f f V V #.#.#.$.9.G.-XpXpX`.4.=.o.o.#.o.o.o.o.#.#.o.| F o.o.#.#.#.#.o.o.o.o.#.#.o.o.o.o.#.#.#.#.o.o.#.#.o.#.o.#.o.o.#.#.o.o.o.o.o.o.o.#.#.#.#.S #.#.#.} ",
"=.=.=.$.$.$.$.$.$.$.#.$.$.#.$.] $.$.#.#.#.#.#.#.#.#.#.#.$.&.$.$.} #.#.o.#.#.S } V u < } u u u u u u f u u u u V X.#.#.$.9.H.0XtXpX`.,.$.| #.#.o.o.o.| o.#.| | F F o.#.#.#.#.o.o.o.o.#.#.#.#.o.o.#.#.#.#.#.#.#.#.#.#.o.#.#.#.] #.#.#.o.o.#.#.o.#.#.#.#.S #.} } } ",
";.;.=.=.=.$.$.$.#.$.$.$.#.#.$.$.$.$.#.%.%.#.#.#.#.$.$.#.%.$.$.&.#.| | #.#.#.} } } } < } V u f u f f u u u u V } #.#.%.&.&.G.0XpXpX(.,.=.#.#.#.#.#.#.| o.| | o.o.o.o.o.o.#.#.o.o.#.#.#.#.#.#.o.o.o.#.#.#.#.#.#.#.#.#.o.#.#.=.t.#.#.#.o.#.#.#.o.#.#.#.#.S } } } } ",
"=.=.=.=.=.&.&.&.#.#.$.$.$.$.$.#.b b #.%.$.b #.#.#.#.$.$.#.$.$.$.#.#.#.o.o.#.} } S ] #.$.] Z f u Z f f g g f S ] #.#.%.&.&.G.5XeXdX|.,.=.$.#.#.#.#.#.#.#.o.o.o.o.| o.o.o.#.#.#.#.#.#.#.#.#.#.o.o.o.#.#.#.#.#.-.o.| o.o.#.#.=.t.=.#.#.o.#.#.#.o.#.#.#.#.S S S } } ",
"#.#.=.#.$.&.&.$.&.#.#.$.#.#.$.$.$.$.$.#.#.#.#.#.#.#.#.#.#.$.#.$.$.$.#.#.#.#.S u } &.$.#.} } S f f f f f f f S S b b &.;.t.H.pXeXaX[.5.t.&.$.$.$.%.&.&.&.$.$.$.| | o.o.o.o.o.%.#.#.#.#.#.#.#.o.o.o.o.#.#.#.o.o.#.o.o.o.#.#.=.$.#.#.o.o.o.o.#.#.#.#.#.#.X.S S S S ",
"#.#.=.#.$.$.&.#.&.#.#.$.#.#.#.#.$.$.$.#.#.=.#.#.#.#.#.#.#.] #.$.$.#.%.#.#.#.b S } $.#.} } X.] A 1.>.1.>.>.>.S ,.4.,.t.t.4.A.sXeXaX(.<.y.<.,.t.&.t.y.5.y.y.4.$.=.;.#.| } #.o.-.-.#.#.#.o.#.-.o.o.o.o.#.#.#.o.o.-.#.o.o.#.o.#.#.#.o.o.o.o.o.#.#.*.#.#.#.X.$.#.S S ",
"#.=.=.$.$.$.$.%.&.$.$.$.#.#.#.#.#.#.$.$.=.=.#.#.#.#.#.#.#.$.$.%.$.$.%.$.} $.&.$.} #.$.S } X.=.9.S 2.k.7.k.m.Z.G.H.H.Q.^./.}.pXuXaX#X[.]._./.S.H.`. XXXXX%X'.M.6.,.=.=.] $.#.-.%.#.#.#.o.#.#.o.#.#.o.#.#.*.o.#.-.o.o.o.#.o.| o.#.o.o.o.o.#.#.#.#.#.#.#.#.$.$.$.S ",
"=.=.=.=.=.$.$.$.&.$.$.$.#.#.#.#.#.#.$.=.#.#.#.#.#.#.#.#.#.#.#.#.$.&.$.;.&.&.%.#.} } } } #.9.,.>.S.@X>X+X=X4X0X0X0X0X0XpXsXsXtXpXtXpXpX0X0X0X<X1XtXuXaXaXaXpX9XoXJ.7.,.$.=.*.#.%.*.#.#.#.#.#.#.#.#.| #.#.#.o.#.#.o.o.#.o.o.#.#.#.#.#.o.o.#.#.#.#.#.#.$.0.i.$.} } ",
"=.=.;.;.=.$.$.$.$.$.$.$.#.#.#.#.#.#.$.=.#.#.#.#.#.#.#.#.#.#.#.&.;.q.a.$.%.#.%.o.#.S S b $.&.7.[.sXaXtXyXrXtXtXtXeXpXeXeXeXpXtXuXpXuXyXyXiXiXaXpXpXaXtXpXpXuXaXyXpX2X`.k.t.=.#.#.-.o.o.#.#.#.#.#.#.o.#.#.#.#.#.#.o.#.o.F o.o.#.#.#.#.#.#.#.#.#.#.#.#.#.0.0.,.$.#.",
"$.&.&.&.&.$.$.$.$.$.#.$.#.#.#.#.#.#.$.$.#.=.$.#.#.#.#.#.#.#.#.;.;.u.a.t.&.%.-.$.#.#.$.$.b z.&XfXaXaXpXpXpXpXpX9X<X0XpXpX0X0XtXpXuXtX=X@XoXXX'.I.'.OX@X#X&X&X2X9X9X7X6X.Xa.%.-.%.*.#.#.#.#.#.#.#.#.o.#.#.#.#.o.o.#.#.o.| o.#.#.o.o.#.#.#.#.#.#.#.#.#.#.$.$.$.$.#.",
"$.&.$.$.&.&.$.$.$.$.#.$.$.$.#.#.#.#.$.$.#.=.=.=.X.#.;.;.=.*.%.&.&.$.$.$.&.-.;.&.%.#.#.$.S k.|.{.{. X}.[.'.).~.V.m.G.H.H.H.'.0XpXpX0XH.i.i.y.4.4.,.i.p.k.l.k.k.j.j.p.6.2.t.$.#.#.*.#.#.*.#.#.#.o.o.o.o.#.#.#.#.*.#.F | o.o.o.o.o.o.#.#.#.#.#.#.#.#.#.#.$.$.$.#.#.",
"$.&.$.$.&.$.$.$.$.$.#.#.=.$.#.#.$.$.$.$.#.#.=.=.=.=.;.;.=.#.%.&.;.=.,.,.&.-.;.&.&.$.} ] $.$.$.,.,.<.<.<.,.,.t.;.;.$.$.t.4.m.5XiXaX<Xz.t.t.;.=.=.;.=.$.&.;.=.$.=.=.;.=.;.$.$.#.#.*.*.*.#.#.#.o.o.o.o.o.o.#.o.#.#.#.#.o.#.o.o.o.o.#.#.#.#.#.#.#.#.#.#.#.#.} } #.#.",
"$.$.&.&.$.#.$.$.$.$.#.#.=.#.#.#.#.$.&.$.;.;.;.=.=.=.*.=.*.$.$.%.&.,.0.9.&.-.;.$.$.$.$.$.$.=.;.;.;.=.9.t.t.;.;.;.;.;.;.t.t.z.<XaXiX9Xl.;.$.*.#.#.#.#.#.*.$.=.;.-.-.-.*.*.$.%.#.#.*.o.#.#.#.#.o.#.o.o.o.o.#.#.#.#.#.#.o.#.#.o.o.o.o.#.#.#.#.#.#.#.#.#.#.#.#.#.#.} ",
"$.$.$.&.$.$.&.$.#.%.=.=.;.#.$.$.$.$.#.;.;.;.;.;.=.=.=.=.*.$.$.%.$.$.t.9.&.%.=.$.$.&.$.$.,.$.#.#.$.$.$.&.%.%.*.=.=.*.=.;.t.8.=XiXtX<Xk.;.%.-.-.#.#.%.%.%.%.%.o.o.o.o.-.%.%.%.o.#.o.F #.-.#.#.o.o.F o.o.o.#.#.#.#.#.#.#.o.o.#.#.#.#.#.#.#.#.#.#.#.#.#.#.#.#.#.#.} ",
"$.$.&.%.%.;.&.$.%.%.&.&.&.#.&.&.;.;.&.;.$.;.;.;.=.$.=.=.=.=.#.$.=.;.-.;.=.#.=.#.#.#.=.$.=.$.$.$.X.#.-.%.o.o.#.#.#.o.o.%.;.i.#XaXeX9Xk.;.&.-.-.-.-.-.*.*.o.o.#.%.#.#.o.#.#.#.o.o.o.o.o.o.o.o.F | F o.*.o.#.#.o.%.%.#.o.#.#.o.%.#.#.o.o.-.#.#.#.#.#.#.$.$.#.$.$.#.",
"$.$.$.%.&.&.&.&.&.&.&.&.&.;.&.&.;.;.;.&.&.;.$.;.;.=.=.=.;.=.=.=.=.=.-.=.;.*.=.#.#.*.=.#.=.-.*.*.#.#.#.#.#.#.#.$.#.#.-.&.t.i.#XaXtX4Xk.;.$.o.o.%.-.-.-.*.#.#.#.%.-.*.-.-.#.o.| o.o.o.o.o.o.o.| o.o.| o.*.o.o.#.#.o.o.o.#.#.#.%.%.-.%.#.-.#.#.#.=.$.#.$.$.#.$.$.$.",
"&.$.$.$.&.$.%.%.;.;.#.&.;.;.;.$.&.;.;.;.t.t.$.&.;.;.=.;.;.;.;.;.=.*.-.#.#.-.;.#.#.*.#.#.-.%.%.-.o.#.#.#.#.*.=.$.#.%.;.;.t.i.@XaXtX,Xj.=.b o o.%.%.%.%.o.o.%.%.&.$.o.%.#.} #.o.o.o.o.o.o.o.o.o.#.#.#.*.*.%.%.#.=.$.#.o.#.#.o.#.#.;.;.$.$.#.#.#.#.#.#.$.$.#.$.X.$.",
"%.#.$.$.&.$.&.#.#.$.;.&.&.;.$.$.;.=.;.y.x.y.;.$.&.=.=.;.;.*.;.;.-.#.#.-.-.=.#.-.-.-.-.*.-.%.#.#.-.#.#.=.;.=.;.t.$.#.$.$.t.i.{.aXtX,Xk.t.t.;.;.;.;.;.;.;.;.;.;.&.&.$.%.b ] $.#.o.#.o.o.| | o.#.#.#.#.#.-.%.&.0.0.=.#.o.o.o.o.;.=.=.=.=.$.#.o.#.o.o.#.$.$.#.$.} $.",
"%.#.#.$.$.#.$.$.$.&.;.&.&.&.$.$.;.;.;.t.p.y.;.&.$.=.;.;.;.;.;.;.-.%.#.-.-.;.-.-.-.-.#.-.;.;.*.;.;.;.;.;.t.t.t.y.9.$.t.9.t.p.@XaXeXsXG.y.u.t.,.9.9.t.t.;.9.t.t.4.6.j.!.v.=.X.X.o.o.o.#.#.#.#.#.#.#.#.#.*.#.#.q.x.9.#.#.#.#.#.-.=.e.u.=.=.#.o.#.#.#.#.#.$.#.$.} $.",
"#.#.%.&.;.;.;.;.;.;.;.;.;.;.;.;.;.;.;.;.t.t.;.;.;.;.;.;.;.-.-.-.-.-.-.%.#.#.=.-.-.-.-.;.-.;.=.;.;.;.;.t.t.t.<.y.i.i.p.j.k.S.9XuXtXpX}.P./.`.].]./.G.m.H.`.[.{.oX#X0XgXc.*.=.X.F | X.X.X.#.X.| #.#.#.#.o.#.%.o.*.*.#.o.#.o.%.&.,.s.s.&.;.$.*.*.o.#.#.#.#.$.$.} #.",
";.t.;.;.;.;.;.;.;.;.;.;.;.;.;.;.;.;.;.;.;.t.=.;.;.;.;.*.=.*.-.-.-.-.-.-.-.-.;.-.-.-.-.;.;.4.6.8.z.P.I.`.'.].}.XX@X#X=X,X<X<X1XpXpXpX0X0XpXpXaXaX0X9X9XpXdXaXaXaXdX8XM.b -.#.X.o.o.F } X.#.#.o.#.o.o.o.o.#.#.#.*.#.o.o.o.%.%.$.t.,.t.i.9.%.%.#.#.#.#.#.#.$.#.#.#.",
"t.t.&.;.t.t.y.y.t.;.;.;.;.;.;.;.;.;.;.;.;.;.;.;.;.;.=.#.#.;.-.-.-.-.-.-.-.;.;.-.-.-.-.;.&.v.8X-X-X-X<X0X1X:X:X:X0XpXaXtXtXtXuXuXuXuXuXtXtXtXeXeXuXiXuXpX5X5X:X5XXXk.&.$.#.#.o.o.o.F F } #.#.#.o.o.#.o.#.#.#.#.#.o.o.o.o.o.#.%.#.&.&.c.c.%.#.#.#.#.#.#.#.&.#.#.#.",
"&.;.;.;.t.y.Y.i.t.;.;.;.;.;.;.;.;.;.;.;.;.=.=.-.-.;.;.=.#.;.-.-.-.-.-.-.-.;.;.;.-.;.;.;.;.p.qXiXeXeXtXeXtXaXaXaXyXtXtXeXuXpXeXeXtXtXtXpXpXtXtXtXeXaXtXpXdX0X#X(.6.t.;.o.o.o.o.#.#.X.X.} X.X.o.o.#.#.#.#.#.#.#.o.o.o.o.#.o.%.%.%.&.&.4.4.&.#.-.*.#.#.-.%.%.#.#.#.",
"%.&.;.;.;.t.t.t.;.;.;.;.;.;.;.;.;.;.;.;.;.=.;.-.;.;.;.;.;.;.-.-.;.;.;.-.-.;.#.-.-.*.-.*.;.b J.wXpX9X4X9X=X#X6X7X3X7X9X9X9X9X9X9X7X-X7X7X4X0X0X9X3X-X=X&X XH.k.4.;.;.#.| o.o.%.%.#.#.#.#.#.#.o.o.#.#.#.#.#.#.#.#.#.#.o.o.o.*.-.;.%.%.#.| -.#.*.#.-.%.;.-.%.%.#.#.",
";.$.9.t.;.;.;.;.;.;.;.;.;.;.;.;.;.;.;.;.;.;.-.;.;.;.;.;.;.*.#.#.*.-.-.;.;.;.=.#.-.#.o.o.%.%.4.c.E.V.C.B.v.7.p.p.j.x.B.B.B.B.B.N.B.N.B.V.G.C.B.N.k.j.p.a.,.$.;.;.=.#.%.#.o.#.o.o.o.#.#.#.#.#.#.#.#.#.F F #.#.#.#.#.#.#.#.#.-.-.-.#.#.#.#.#.#.#.-.-.-.-.-.%.%.#.#.",
";.;.9.$.;.;.;.;.;.;.;.;.;.;.;.;.;.;.;.;.;.;.;.;.;.-.*.*.#.#.*.*.#.#.#.=.;.;.=.-.-.#.#.;.;.&.;.;.t.t.4.&.;.;.;.;.4.&.t.4.4.4.&.$.4.$.&.&.&.&.$.&.&.&.;.;.;.;.&.#.#.*.-.-.o.o.o.o.o.#.#.#.#.#.#.#.#.o.F F o.o.o.#.#.#.#.#.#.-.-.-.#.#.-.%.#.#.-.-.-.-.-.-.-.-.#.#.",
"&.;.;.;.;.;.;.;.;.;.;.;.;.;.;.;.;.;.;.;.%.-.*.%.*.#.=.=.=.#.#.#.#.-.%.#.;.;.-.#.*.;.;.;.;.;.;.&.&.-.&.=.&.%.$.&.$.&.$.&.$.$.$.$.#.#.#.%.-.-.-.-.-.-.#.%.o.%.o.#.%.-.-.-.o.o.o.o.o.o.#.o.o.o.o.o.o.o.o.o.#.o.o.#.#.#.#.*.#.#.-.-.-.%.;.-.#.#.#.#.#.-.-.-.#.-.-.-.",
";.;.;.;.;.;.;.;.;.;.;.;.;.;.;.;.;.;.;.#.o.#.*.*.*.=.;.=.=.#.#.o.#.-.%.o.=.*.%.o.;.;.;.;.-.;.;.;.-.-.-.=.*.-.%.%.&.&.&.-.-.%.#.#.%.#.o.%.%.o.*.-.-.-.o.%.#.#.o.-.-.%.%.%.%.%.o.o.o.F #.o.o.o.o.o.o.o.o.F o.o.#.#.#.#.#.*.#.o.#.-.-.-.-.-.#.#.*.-.-.-.-.-.#.-.-.-.",
";.;.;.t.;.;.;.;.;.;.-.;.=.;.=.#.#.#.#.#.$.=.=.=.=.;.=.$.$.=.*.#.#.-.%.o.-.#.o.-.;.-.-.-.-.-.;.;.-.-.-.;.;.-.-.-.;.=.t.;.&.%.%.#.#.#.o.o.#.#.*.*.o.#.-.-.-.*.o.%.%.o.%.%.-.-.%.o.#.#.-.o.o.o.o.o.o.o.o.F o.o.#.#.#.#.#.*.#.o.#.-.-.-.#.-.-.-.-.-.-.-.-.-.#.-.-.-.",
";.;.;.t.;.;.;.#.$.#.#.#.#.#.$.#.#.#.#.#.=.=.-.;.t.9.$.#.#.*.-.-.*.*.#.#.-.#.-.;.;.;.*.;.;.-.*.-.-.-.-.-.-.;.-.-.;.;.;.-.*.=.-.-.*.#.#.#.#.#.-.-.#.#.#.%.o.o.o.o.o.%.%.%.#.-.%.%.%.-.%.o.o.o.o.o.o.#.#.#.#.#.#.#.%.%.%.o.o.o.o.#.*.#.#.#.#.-.#.#.-.-.-.#.#.#.-.-.",
"t.a.a.t.$.=.=.=.#.;.-.*.*.=.=.$.%.-.#.#.-.-.#.-.;.&.$.$.$.$.-.-.#.#.#.#.-.o.-.;.;.=.=.;.=.=.;.;.;.-.-.-.-.;.-.;.;.;.o.-.-.*.*.-.-.#.#.#.#.#.-.-.#.#.o.o.o.o.o.%.#.o.o.o.o.%.%.%.-.-.%.#.o.#.#.#.#.#.#.o.#.#.=.;.%.%.%.-.#.#.-.#.#.#.#.#.#.#.#.-.-.-.-.o.o.#.-.-.",
";.a.s.t.;.=.=.=.=.=.-.-.=.;.=.$.*.%.-.#.#.-.#.*.;.#.#.#.$.=.=.=.#.$.#.#.*.#.-.;.#.#.*.;.-.-.-.-.;.-.#.-.;.;.;.=.#.o.;.;.;.;.-.-.#.#.#.#.#.#.#.#.#.#.o.o.%.o.o.o.o.o.o.o.o.-.%.%.#.o.o.o.o.#.#.#.-.-.#.o.#.#.=.=.y.t.-.-.*.#.-.#.#.#.#.#.#.#.*.-.-.#.-.-.#.#.#.-.",
"&.&.=.&.-.=.#.=.#.#.-.-.*.=.;.=.-.-.-.$.#.=.;.=.$.$.%.-.%.$.=.=.$.$.#.-.*.*.-.#.#.*.-.-.-.-.-.-.;.-.-.;.;.;.;.#.o.o.;.&.&.&.%.%.#.#.o.o.#.#.#.#.#.#.o.o.o.o.o.o.#.o.o.o.o.-.o.o.o.o.o.o.#.#.#.-.;.-.#.o.#.#.*.=.g.s.;.#.=.-.#.#.#.#.#.#.#.#.#.#.#.%.-.-.%.#.#.-.",
"#.$.$.%.;.=.*.#.#.#.-.-.*.=.;.;.;.-.-.=.#.=.-.=.-.%.%.%.%.;.=.=.$.$.*.-.-.*.-.#.#.#.-.-.#.#.#.o.%.o.-.#.#.#.#.o.#.$.%.0.W.y.%.%.-.-.#.o.#.#.#.#.#.o.#.#.o.o.o.#.#.o.o.o.o.o.o.o.o.o.%.%.%.#.#.-.-.#.o.o.#.#.#.$.&.;.;.%.#.-.-.*.#.#.-.-.#.#.-.-.-.-.;.-.-.-.%.;.",
"&.$.$.%.-.=.=.$.$.-.-.-.-.-.-.;.;.#.=.-.;.=.=.#.#.%.%.#.&.;.;.&.&.$.=.=.=.%.-.#.#.-.o.#.#.%.=.#.o | o.#.#.-.#.#.#.%.#.;.q.9.%.%.*.-.-.-.#.*.-.#.#.*.#.#.o.o.#.-.-.#.o.o.o.o.%.%.%.%.-.%.%.-.-.-.*.-.*.o.o.#.#.#.-.#.%.%.%.#.#.&.y.0.&.%.%.-.%.-.-.-.;.;.-.%.%.;.",
"$.$.$.&.;.=.9.$.$.#.#.*.-.-.-.;.=.$.#.-.-.;.;.=.$.$.$.$.;.=.$.$.$.#.#.$.#.-.-.#.$.=.#.=.$.;.;.%.| o.#.*.-.-.#.#.%.-.#.$.&.&.#.#.-.;.;.-.#.#.#.#.#.-.*.-.#.o.#.%.%.o.o.o.o.%.-.%.%.%.-.%.o.#.;.-.%.-.%.#.#.#.#.#.o.#.#.o.%.#.#.%.0.q.;.&.%.-.%.;.-.-.;.;.%.&.;.;.",
"&.&.&.%.-.=.;.#.*.*.#.#.#.#.*.;.;.#.#.=.=.=.-.*.$.$.$.$.;.;.$.$.$.$.#.#.#.#.#.#.$.=.=.;.$.$.$.%.$.#.-.#.o.o.*.#.#.-.-.;.;.-.%.#.-.-.-.#.#.#.-.-.-.-.-.-.-.*.*.%.%.o.o.#.#.%.%.#.%.%.-.o.o.%.;.-.%.$.$.#.#.#.#.#.-.;.o.o.#.#.$.$.$.$.&.&.%.%.%.-.-.-.;.;.%.%.:.t.",
";.;.;.%.%.#.-.*.-.*.#.#.-.-.*.;.-.#.#.=.=.*.%.#.=.&.;.;.$.$.#.#.$.$.$.#.#.#.#.#.$.=.*.;.$.5.p.&.&.$.-.#.o.o.#.#.*.;.;.;.&.%.%.%.#.*.#.#.#.o.;.-.#.#.-.-.#.#.#.%.%.-.%.#.#.-.-.*.#.%.#.%.-.;.t.u.;.%.&.#.#.#.#.#.-.-.%.-.-.-.%.&.$.$.t.t.&.-.*.*.-.#.;.;.%.;.;.t.",
"t.t.=.$.-.-.$.=.%.#.#.#.-.;.-.;.;.$.#.$.=.-.#.#.#.%.%.%.%.&.&.$.$.$.$.#.#.#.o.o.#.#.%.%.$.y.N.<.%.#.*.*.o.#.#.#.-.-.;.$.$.%.%.=.#.#.#.#.#.o.o.#.#.#.-.#.#.-.#.#.#.%.o.#.*.-.;.-.#.#.#.-.;.;.q.!.i.%.&.#.#.#.#.-.;.-.-.-.-.-.$.#.&.&.$.9.;.-.=.=.=.#.#.;.;.;.;.;.",
"=.;.=.$.%.#.#.#.#.=.$.$.#.%.%.%.=.=.-.#.%.%.#.$.$.&.$.#.$.,.9.9.$.$.#.#.#.o.#.o.#.%.#.%.-.;.=.$.-.*.#.#.o.#.#.o.#.%.%.$.=.;.;.;.-.%.o.o.o.#.o.#.#.#.-.-.-.*.#.#.-.-.o.-.-.-.-.-.-.%.*.;.;.t.y.u.t.&.%.o.-.*.-.;.;.;.%.%.&.&.&.&.&.&.%.%.&.&.&.&.#.#.&.;.;.&.;.;.",
"=.=.;.-.-.$.$.#.#.;.$.&.#.%.#.#.;.#.#.$.&.&.$.#.#.&.$.$.$.$.,.9.$.$.#.*.#.o.#.#.#.$.$.%.%.=.;.=.=.*.*.#.#.-.#.o.#.#.*.#.#.*.#.%.#.o.o.o.#.#.#.#.#.%.#.*.-.#.o.%.-.;.t.;.;.;.#.#.-.-.-.;.=.;.t.&.&.%.%.%.-.-.;.;.%.&.#.;.;.&.&.&.&.&.#.#.&.&.&.%.#.%.&.;.&.&.;.;.",
"=.=.;.*.-.*.#.#.#.$.$.$.$.&.#.$.$.#.$.$.=.$.$.$.%.$.$.$.$.$.$.&.$.$.#.#.#.#.#.#.$.$.$.$.#.#.#.#.#.#.#.#.#.*.#.#.#.#.=.#.#.-.-.%.o.o.o.o.#.#.o.#.#.#.#.-.#.#.#.%.*.=.;.=.#.-.#.#.-.o.o.-.-.-.#.#.%.%.-.-.;.;.;.-.%.%.#.;.;.&.&.&.&.&.&.%.#.&.#.#.#.#.&.&.$.#.;.;.",
"=.=.=.=.%.-.$.$.$.-.$.$.%.%.%.#.$.$.<.<.9.$.$.$.&.#.$.$.$.$.$.%.%.$.$.#.#.#.#.=.=.;.;.;.$.#.#.#.#.#.#.#.#.#.#.$.#.$.#.%.#.-.-.*.%.o.o.o.#.#.%.#.#.-.#.#.#.#.#.*.#.*.=.=.o.-.o.%.-.%.%.-.%.%.%.*.-.%.#.#.;.;.;.;.&.#.%.&.;.&.$.&.$.&.&.&.&.&.#.#.#.#.&.$.&.&.;.;.",
"$.$.*.-.-.#.=.=.-.%.&.$.&.&.$.%.&.&.w.T.t.;.%.$.$.$.#.$.$.%.#.#.#.$.$.$.$.#.;.t.&.y.q.,.&.#.o.#.$.#.#.#.#.#.#.#.#.$.$.#.#.#.#.$.#.#.#.o.#.*.#.#.#.-.#.o.#.#.#.%.%.#.#.#.o.-.%.%.-.%.-.-.o.%.-.-.*.*.#.#.#.=.;.;.&.&.#.%.&.;.&.$.&.$.&.;.&.&.#.%.&.&.$.$.$.&.&.%.",
"#.#.%.%.=.$.%.%.#.&.&.&.&.&.&.;.=.9.0.r.t.&.&.$.$.$.$.$.$.$.$.#.$.$.$.$.#.%.9.D.n.3.F.b.&.-.%.o.$.*.#.#.#.#.#.#.#.#.#.#.#.%.%.$.$.$.$.%.%.$.#.#.#.#.#.#.#.#.#.#.#.#.-.#.o.%.%.o.o.o.%.-.%.%.-.#.#.*.#.X.#.#.$.;.%.&.#.%.&.&.%.%.;.%.%.;.%.%.%.%.$.$.$.#.&.#.$.$.",
"=.=.%.-.9.9.;.&.&.&.&.;.4.;.;.;.;.t.;.;.9.,.$.&.$.$.$.%.&.$.$.#.$.$.$.$.%.$.=.f.F.6.2.i.&.#.o.o.$.*.#.#.#.#.#.#.#.#.#.#.#.$.&.%.$.$.$.%.%.-.-.o.o.-.o.o.o.o.#.#.#.*.-.-.o.o.o.o.o.o.o.o.%.%.%.o.#.#.#.#.=.=.#.#.#.#.#.%.;.&.&.%.%.#.#.;.;.;.%.#.$.$.$.$.#.$.$.$.",
";.=.;.;.=.$.;.&.i.i.&.;.s.a.;.9.;.=.;.;.$.,.;.;.$.$.$.$.&.%.$.$.$.$.$.%.#.$.;.&.b 9.;.-.=.#.o.#.#.#.#.#.#.#.#.X.#.#.#.#.#.&.&.&.;.%.#.%.%.#.o.o.%.-.#.#.o.o.o.#.#.-.-.%.%.-.o.o.o.o.o.%.%.-.-.#.-.-.-.#.*.$.=.#.#.#.#.$.$.$.&.&.%.#.$.;.;.;.%.&.#.} $.$.b $.S S ",
";.;.;.;.=.#.&.&.y.q.;.;.p.a.&.9.t.,.$.$.$.&.&.$.%.#.$.$.$.#.| $.9.$.$.&.&.$.;.&.&.$.#.-.=.#.o.#.#.#.o.#.-.*.#.#.#.#.$.#.#.%.&.;.;.%.$.$.%.#.#.#.-.-.*.#.#.*.#.#.o.-.-.-.-.-.o.o.-.%.%.%.-.-.;.-.-.-.-.-.#.#.#.#.&.&.$.$.$.$.$.$.&.&.$.$.;.&.#.%.#.S S S S S S Z ",
";.=.=.#.=.$.&.&.&.,.t.;.&.&.&.$.;.;.;.9.$.%.%.$.$.$.$.#.#.$.$.t.t.t.$.$.;.&.t.,.&.&.#.=.;.-.%.#.#.#.#.o.#.#.#.o.#.#.#.#.#.$.&.;.;.%.$.#.%.$.=.=.$.#.#.#.#.#.#.#.o.o.%.-.-.%.%.-.-.o.-.-.;.;.-.#.o.%.%.%.%.#.#.;.;.;.;.$.S S ] S $.&.$.$.;.$.#.&.$.b S S ] S V Z ",
";.;.;.;.$.%.%.$.=.=.&.;.$.&.$.&.;.%.;.$.$.$.&.$.=.&.#.#.$.&.$.t.y.,.$.%.;.;.;.$.$.$.#.;.y.0.&.%.%.#.#.o.%.o.o.#.#.#.#.#.&.&.4.&.;.$.#.%.o.#.$.9.$.o.o.o.-.#.o.o.o.#.#.#.-.#.%.-.%.%.-.;.=.;.#.-.%.o.o.#.#.#.#.;.;.;.-.$.$.$.,.$.$.$.#.#.#.$.&.&.&.$.&.%.%.#.$.S ",
"=.$.;.$.$.&.$.$.$.$.$.;.;.&.$.&.&.&.&.$.$.;.;.;.&.&.$.$.&.&.=.9.a.R.a.;.;.;.;.%.#.$.$.;.s.T.t.&.-.#.#.#.o.] #.;.;.#.#.#.$.$.x.a.&.#.#.#.#.| o.$.$.#.#.-.;.*.o.%.#.#.#.#.-.#.o.#.o.#.*.*.;.#.-.-.o.o.%.#.-.=.#.$.$.%.&.&.&.9.u.$.#.$.$.#.#.$.&.&.&.;.;.&.%.$.$.$.",
"$.$.%.%.$.#.&.&.$.&.;.;.;.&.$.$.&.&.;.$.;.t.4.&.&.$.$.$.&.&.$.&.&.i.i.;.&.$.;.%.%.$.$.;.t.t.;.;.;.$.#.o.X.=.$.#.#.#.=.-.$.&.y.i.t.$.#.#.#.| %.#.$.$.#.o.#.#.#.o.#.#.#.#.;.;.#.#.#.#.*.-.-.%.%.#.o.#.o.o.#.%.-.#.#.$.$.&.$.$.,.$.$.$.} } #.$.$.%.&.&.&.&.&.$.$.$.",
"$.$.$.&.$.#.;.;.;.;.;.;.;.&.&.$.$.&.&.;.t.y.y.4.$.$.$.$.;.$.%.&.&.&.,.t.;.9.t.&.&.;.;.;.4.&.;.;.$.*.%.#.$.#.#.#.#.#.$.#.$.$.&.4.&.$.$.#.#.#.$.%.,.9.#.o.#.#.#.o.*.=.$.$.;.;.=.=.#.o.#.-.-.-.%.o.o.*.#.%.-.-.-.#.#.&.t.9.&.%.#.$.$.$.} } } $.$.$.&.;.;.&.&.;.t.9.",
";.&.%.%.$.$.;.;.;.;.;.;.&.%.%.%.$.$.$.t.s.a.y.y.t.=.&.&.;.;.;.;.&.&.t.y.t.t.t.;.;.;.;.;.&.&.$.;.%.=.=.;.;.=.$.#.#.$.$.;.$.$.%.$.$.&.$.$.#.#.$.#.,.i.=.#.#.*.-.#.;.;.;.=.;.;.=.=.$.o.o.%.#.#.o.#.#.=.#.-.-.%.%.#.%.&.s.x.$.#.$.#.#.$.$.} } #.$.%.&.&.&.&.$.$.9.t.",
";.&.&.&.&.=.;.;.;.;.;.&.&.$.%.%.%.;.;.9.p.j.p.y.t.;.&.&.t.t.t.;.&.&.;.t.t.t.t.;.&.$.#.#.-.-.=.&.%.-.=.-.-.=.#.$.$.$.$.$.9.=.;.t.9.$.$.#.$.$.$.#.$.$.$.#.#.-.-.#.=.;.=.=.%.%.=.S $.*.#.#.#.#.#.=.#.#.#.%.#.o.%.%.#.$.t.9.$.$.$.#.$.#.#.] X.#.-.%.&.&.$.$.$.$.$.4.",
"$.$.;.&.$.$.$.9.;.;.&.$.,.;.&.$.%.;.;.t.5.b.n.i.y.9.$.,.a.u.;.;.&.$.%.&.,.4.t.t.i.9.%.#.*.*.$.$.%.&.$.%.%.$.#.$.$.$.$.$.0.9.&.;.$.$.$.$.,.,.$.$.$.#.#.#.o.o.o.#.#.$.$.=.%.%.;.t.=.-.*.#.#.#.#.=.#.*.#.%.#.#.%.%.%.%.;.$.$.$.$.$.#.$.$.S S b $.&.&.$.$.$.$.$.$.,.",
"&.&.$.$.$.$.$.,.;.;.&.$.=.;.;.$.$.$.;.t.y.Z.n.4.0.0.9.t.u.t.;.;.&.$.b &.,.$.4.y.s.t.&.#.#.$.$.$.,.$.$.#.#.&.$.$.$.#.$.$.$.$.&.$.#.#.$.$.9.0.4.,.&.%.#.#.#.#.#.o.#.#.$.#.%.%.$.;.;.;.*.;.#.#.#.#.#.#.#.%.#.#.&.%.%.%.%.;.&.$.&.$.#.$.b $.S S b %.&.&.$.$.$.$.$.$.",
"&.;.&.$.&.&.$.$.$.;.&.;.;.u.y.&.&.$.;.;.&.5.5.y.t.i.u.t.&.$.$.$.&.#.&.&.5.x.y.4.&.&.#.#.#.&.&.i.p.<.&.&.$.b $.$.$.$.$.$.$.$.$.$.$.$.$.$.9.x.6.w.p.,.#.#.#.#.o.o.#.#.%.#.%.%.%.&.$.*.=.;.;.=.=.#.#.#.#.%.#.#.#.#.#.&.&.%.#.$.&.&.&.,.2.5.5.,.b #.#.#.$.$.b S $.,.",
"&.;.;.&.&.&.%.%.$.;.;.;.t.y.t.;.;.$.#.#.%.4.,.&.;.t.9.&.&.$.$.;.;.&.&.4.4.c.h.&.&.b #.%.$.;.&.5.p.x.<.&.4.c.0.$.%.#.#.$.$.$.$.#.#.b #.$.&.,.,.,.p.,.#.#.#.#.o.o.#.#.-.=.$.%.#.$.#.#.*.#.;.;.;.$.#.#.#.#.#.} } S $.$.;.&.#.&.&.&.&.,.x.y.<.4.%.$.#.#.S S S S $.$.",
"%.;.$.&.-.-.-.#.-.&.;.i.0.t.;.=.;.;.#.#.%.;.t.t.t.&.&.%.$.$.b t.u.t.;.t.4.5.p.4.$.&.b $.&.&.;.t.9.0.0.4.&.r.0.$.$.#.#.#.$.#.$.#.| #.#.b ,.$.$.$.#.#.#.#.o.#.#.%.#.$.=.t.;.&.#.| o.o.#.#.#.-.&.&.#.#.$.&.&.#.} V S $.&.&.%.$.$.$.;.;.&.&.$.$.$.$.$.#.} S S S ] $.",
"%.&.%.%.%.*.;.#.%.;.;.0.9.&.;.=.;.;.;.;.&.;.;.;.;.&.%.#.$.y.9.&.9.0.y.4.,.4.4.4.,.t.,.$.&.&.;.;.9.t.4.$.$.,.$.#.$.$.#.$.$.#.#.$.b $.$.,.,.$.$.#.%.#.#.#.o.#.#.o.#.#.$.=.;.&.%.#.#.o.o.#.%.;.&.&.#.#.$.;.%.%.#.} S $.#.$.$.$.t.9.;.;.&.&.,.$.$.&.&.$.] S S $.$.$.",
";.;.%.%.;.;.=.=.$.t.y.t.&.&.;.;.;.#.#.#.$.a.i.;.9.&.$.$.&.9.,.&.&.s.d.4.4.;.9.$.$.t.4.&.$.;.$.$.$.$.$.$.$.$.%.#.#.$.$.$.#.#.#.$.b #.&.,.$.$.$.#.#.#.#.#.o.o.o.o.#.#.=.=.$.&.#.| #.o.o.#.%.;.&.#.#.#.$.&.%.#.#.#.$.$.#.#.$.#.9.y.;.$.9.y.,.,.0.t.,.$.$.] $.$.$.$.",
";.;.;.;.;.;.;.;.;.;.;.&.%.%.;.-.*.#.#.#.=.y.y.;.&.&.$.$.%.&.$.$.$.t.,.t.t.:.;.&.;.;.&.&.&.;.#.| %.%.=.t.&.#.#.$.} #.#.$.#.#.#.$.,.$.;.$.$.#.#.#.| | #.#.#.o.o.#.#.=.=.#.#.#.%.#.#.#.#.o.#.*.#.#.#.#.$.$.$.$.#.%.%.#.#.} #.$.$.$.$.$.&.t.9.q.r.<.,.b #.#.} } S $.",
";.;.;.u.a.;.;.=.$.;.&.%.#.#.#.-.-.%.#.$.$.&.t.;.$.;.;.$.&.&.$.$.&.;.$.$.$.%.4.y.4.&.&.$.$.$.$.#.&.t.0.9.$.&.#.#.} #.#.$.#.#.#.&.0.g.,.$.$.$.$.%.o.o.#.#.#.#.#.%.#.#.%.;.%.&.%.;.=.#.%.o.o.#.#.#.#.#.$.$.1.<.$.| | #.#.$.#.#.$.$.9.$.$.$.&.t.y.,.$.b #.} } } } b ",
"-.-.;.;.u.;.%.&.$.$.=.=.$.#.o.#.*.%.%.#.#.$.;.t.;.%.;.;.;.&.$.;.*.#.$.X.$.&.4.x.i.&.&.;.;.$.$.$.,.i.q.&.&.$.$.$.#.#.S #.#.#.$.&.2.D.<.b b 9.$.$.$.%.#.#.#.$.&.%.,.x.,.%.#.$.$.t.9.$.%.o.| #.#.o.#.#.b $.,.2.,.V S $.$.$.#.| $.$.9.9.,.$.$.,.9.9.,.$.#.$.} } } } ",
"-.;.;.-.;.&.;.&.$.$.=.=.#.#.o.#.*.-.-.$.#.&.&.;.&.;.&.&.$.$.&.;.;.&.#.#.&.9.5.5.5.4.4.;.;.$.$.$.&.$.,.$.%.s.q.$.S } #.$.$.#.$.&.<.<.,.$.b 9.$.$.$.$.#.| #.$.9.b ,.g.0.#.#.$.$.y.t.$.$.#.#.#.o.| #.b S $.$.b A Z } S $.$.#.#.$.$.$.9.9.$.$.t.9.9.9.$.| #.#.#.#.#.",
"-.;.;.;.;.;.;.;.&.-.=.=.%.#.#.#.*.%.-.#.%.#.#.&.;.9.;.&.9.<.&.$.&.&.#.%.,.c.w.4.4.t.t.;.&.$.#.#.%.#.$.b b d.w.#.1.S | } #.$.#.&.$.$.%.#.S S $.#.| | #.} } #.#.$.&.#.#.| | #.&.$.$.$.$.$.#.$.o.| #.,.x.,.b $.#.} } #.#.%.#.#.#.$.$.t.9.$.$.$.$.&.&.$.#.#.#.#.#.#.",
";.;.;.-.;.-.;.;.&.-.#.#.#.-.%.#.#.o.o.#.%.%.%.;.;.$.$.#.i.h.4.&.&.,.,.#.$.0.<.4.4.t.t.;.%.%.#.| #.#.#.| b >.1.$.] S F } #.$.$.#.$.#.o.| } S S } } #.| #.} } $.$.=.#.#.| F #.%.$.#.$.9.$.$.$.#.#.| $.w.,.| X.b #.#.#.#.#.#.#.#.#.$.$.$.b b b $.#.#.#.| #.#.#.#.#."
};
