/* XPM */
static const char *blood_WE[] = {
/* columns rows colors chars-per-pixel */
"128 128 209 2 ",
"   c #1D050E",
".  c #1D080F",
"X  c #1D0511",
"o  c #1E0811",
"O  c #26040E",
"+  c #25040E",
"@  c #23050E",
"#  c #2B030B",
"$  c #2B020A",
"%  c #29030A",
"&  c #2C020B",
"*  c #28040A",
"=  c #2A050B",
"-  c #2E040A",
";  c #2D040B",
":  c #28030D",
">  c #29030C",
",  c #2A030D",
"<  c #29020E",
"1  c #28030F",
"2  c #28030F",
"3  c #2B030E",
"4  c #2A030E",
"5  c #2C030C",
"6  c #2C030E",
"7  c #2C020F",
"8  c #2F020D",
"9  c #29040C",
"0  c #29040D",
"q  c #28040D",
"w  c #2A040D",
"e  c #2B040D",
"r  c #2B040C",
"t  c #28040E",
"y  c #29040E",
"u  c #2A040E",
"i  c #2C040D",
"p  c #2F040D",
"a  c #2D040E",
"s  c #2F040E",
"d  c #2F060C",
"f  c #2B050E",
"g  c #24080E",
"h  c #2B090E",
"j  c #320209",
"k  c #35030A",
"l  c #37030A",
"z  c #370208",
"x  c #310409",
"c  c #360409",
"v  c #30030C",
"b  c #32030D",
"n  c #34030C",
"m  c #36030C",
"M  c #35030E",
"N  c #30040D",
"B  c #33040C",
"V  c #32040E",
"C  c #31050E",
"Z  c #37040C",
"A  c #35040D",
"S  c #33060D",
"D  c #39030A",
"F  c #3C030B",
"G  c #3F020B",
"H  c #38030C",
"J  c #3B020C",
"K  c #3C020C",
"L  c #38040C",
"P  c #3B050C",
"I  c #34090E",
"U  c #3B0A0E",
"Y  c #210310",
"T  c #200310",
"R  c #230311",
"E  c #240310",
"W  c #250311",
"Q  c #260310",
"!  c #210510",
"~  c #210411",
"^  c #200410",
"/  c #230410",
"(  c #220410",
")  c #240510",
"_  c #250410",
"`  c #260410",
"'  c #230611",
"]  c #2A0310",
"[  c #2A0410",
"{  c #2B0611",
"}  c #240911",
"|  c #2C0911",
" . c #330611",
".. c #3C0611",
"X. c #340A12",
"o. c #3C0C12",
"O. c #360A18",
"+. c #3B0C18",
"@. c #3D1012",
"#. c #450407",
"$. c #43060C",
"%. c #4B060C",
"&. c #440A0E",
"*. c #4C0A0E",
"=. c #540507",
"-. c #5B0607",
";. c #550907",
":. c #53060C",
">. c #5B060B",
",. c #530A0E",
"<. c #5B0A0D",
"1. c #45100F",
"2. c #4C100F",
"3. c #53100F",
"4. c #5C100E",
"5. c #430611",
"6. c #4C0611",
"7. c #430C12",
"8. c #4B0C12",
"9. c #520710",
"0. c #5C0611",
"q. c #530D12",
"w. c #5B0D12",
"e. c #441013",
"r. c #4B1113",
"t. c #531213",
"y. c #5B1113",
"u. c #5B1019",
"i. c #620507",
"p. c #690607",
"a. c #670906",
"s. c #6C0806",
"d. c #63070B",
"f. c #6B070B",
"g. c #640B0D",
"h. c #6B0B0D",
"j. c #710907",
"k. c #74070B",
"l. c #7A070A",
"z. c #730B0D",
"x. c #7B0C0D",
"c. c #64100F",
"v. c #6C110E",
"b. c #74110E",
"n. c #7B100E",
"m. c #630710",
"M. c #630D11",
"N. c #6C0D11",
"B. c #640F18",
"V. c #7D0710",
"C. c #740D11",
"Z. c #7B0D11",
"A. c #631012",
"S. c #6B1012",
"D. c #661018",
"F. c #731112",
"G. c #7C1011",
"H. c #81070A",
"J. c #830C0D",
"K. c #8C0D0D",
"L. c #930D0D",
"P. c #9C0D0D",
"I. c #83100E",
"U. c #8C100E",
"Y. c #94110E",
"T. c #9C110E",
"R. c #820711",
"E. c #830E11",
"W. c #8B0E11",
"Q. c #930E11",
"!. c #9C0E11",
"~. c #831112",
"^. c #8C1111",
"/. c #871119",
"(. c #941111",
"). c #9B1111",
"_. c #A30E0E",
"`. c #AC0E0E",
"'. c #B30F0D",
"]. c #BB0F0D",
"[. c #A3110E",
"{. c #AB110E",
"}. c #B3110E",
"|. c #BB120E",
" X c #A40F11",
".X c #AB0F11",
"XX c #B20F11",
"oX c #BF0F10",
"OX c #A31111",
"+X c #AC1211",
"@X c #B31212",
"#X c #BB1311",
"$X c #B41810",
"%X c #C10F0F",
"&X c #C2120E",
"*X c #CA140F",
"=X c #D4140F",
"-X c #C31312",
";X c #CC1512",
":X c #C21814",
">X c #CD1914",
",X c #CB1A19",
"<X c #D31513",
"1X c #DA1613",
"2X c #D31815",
"3X c #DB1A15",
"4X c #D11518",
"5X c #E31A15",
"6X c #E41C18",
/* pixels */
"@ @ ) ) O O O @       O 2 @ @ ) @   @ u 6 M H j M p @ @ @     X X X       @ @ * O / X   O u 6 & 2 W           O ] T @ @ 2 & # 2 T       X X X       @ & % * u O       X         @ @ X       X             @ @ O @           @ @ O / @       @ @ X X @ O W @ @ O ",
"X @ O 2 O 2 6 u     X @ u W O @ O O O u p Z G G D j O @ O @ / O O u ]         @ @ @ X   2 b Z k * @     @ @ O j D & O @ @ @               @ O @ @ @ @ O O @ T /       T X       @ @   X   X X @ @ @ @ @ 2 2 * 6 # O T   @ T       X X X X   2 # * O O p 6 p u M ",
") O O O O O u @   / O u p 6 6 u W @ O O u M V V V p O @ ) @ O u u u 2     X     @ @ O O O O 2 2 O @ @   @ O 6 H k V 2 O T       @ @ @ O 6 @ u 6 2 O * O / X X   @ O O     @ @ @     @ X X @ O 2 # O @ @ O 2 2 2 O @ @ @ @ @ @ / 2 u * u X @ O O @ O - M V k G D ",
"6 2 @ @ / @ @   @ @ 2 V H M b V O O / / ] { u u 6 O   T u & p p b u @ @   X       @ O @       X X / @       O b & 2 2 O         @ O O O k v k M 6 2 # @ @       @ 2 O     O # 2 u u u X   2 b V j & O   X @   @ @ @   @ @ O O 6 L Z D v   X X X X W 2 b k K $.Z ",
"# O @   X / @ W 6 u 6 b Z v V p u ) X X @   2 2 u @ @ 2 - D D D H { O ] T X T O O @ / O             @ O @     @ @ @     @ T       @ @ O 6 & V V 6 @   @ @ O O @ u @ / / T u - k M L M O @ O p p 6 6 O   X / @ / O O O @ @ O 2 & v v Z - @   X   @ @ @ * D Z - L ",
"p u / X X O @ O p & p 6 * O O u ] /     X   O O O u p 6 - G $.$.D v - O     @ O p p u p W @ @     T @ @ * O X X @   X   O O @ @   @ / O @ @ @ ] O @ X / 6 @ - G G O ] O @ u V L L D M u @   @     2 O   X ) p u u v Z u @ O O # u O O O @ O O O O @   O 6 u @ u ",
"u u @ / @ u O / O @ W @ @ @ @ ) ) ) ) p O   O @ @ u p - v H K L D Z v u @ X @ O v L Z k b 6 O X   T 2 j k p @   X     @ O 6 u  .O O u             X X @ O L %.$.%.L L # @ O p p * V & O @     X X @ @ @ O @ Z G Z L G L O T   @ @ X X     O @ @ @   X X X   / O ",
"@ @ / O @ V p ] O O / X ) O O O V G v G L Z  .O O O u Z V V V O 6 * O O T T O u p D G L Z - O X / O Z K D j u O /   O u - V v L Z v Z @     /     ) @ * V $.%.%.%.%.G v u W ) O @ ) O @ X X X X X @   @ v Z Z G G $.G Z u O @   X @ O O p O   @ V u     X X X X ",
"X X @ p L $.%.L p { O @ O 2 u u - %.$.#.%.%.M O u O @ u O u p @ O @   @ O O u u V G Z u v v O   / ] p v v p u @ @ @ @ O H P L $.$.$.P O O @ /     O O - Z G Z $.$.$.$.Z O O O @ @ X X X @   @   X @ @ @ p Z P L - D G Z 6 u O @ X @ Z @ L L Z Z L $.u / @ X X X ",
"/ / O Z $.G %.%.P V u u O O p Z P %.%.%.%.$.Z p u O   .   @ @   @   X   X   @ O p - u X O - @ @ O ) T / O @ @ @     ] ) p $.$.%.%.$.G * u @ @ O   @ @ u p v L V * L H u u ] @   @ T     O * M - V p V v u O p p @ p b V @ X @ @ @ u $.V L $.:.:.%.%.p X O O   X ",
") O p V $.%.%.%.%.L { u @ O ] p Z #.$.$.%.%.L V O @ @ @   ) ) X ) @ / X X   @ @ / .     @ / X / O @   X X X T       @ u Z G P $.%.%.%.L O @ O @   @ @ @ O O Z @   O V @       X X       p G $.Z *.$.L P u / @ X X / O O @ X X @ @ X Z :.%.%.%.%.:.P u )  .u   X ",
"O u V L %.%.$.$.$.$.V u O O u O Z $.V V - G Z u / O @   / ) @ X / O  .u @ u V @ @ @ X   X @ /   O O u O O X X   X @ O ) Z Z p V Z %.%.Z p u /     X     X /     o   u @ X     X X   O O - $.%.$.%.:.%.G L V     X X       @ @ O u v G %.%.%.%.%.$.G L V u   @ @ ",
"O u Z G $.p V Z Z P V u @ O O u L Z ! / / O O   @ O @   o .   @ u V L $.V %.L @ O ) / X   V g V - O | L P * @ @ / / p V V @ H b X u L u O /   o .   @ @ )   X X X       . @ O     / O u Z $.:.%.:.:.:.%.G u ) O   @       @ @ O 2 v V p Z $.v P #.L v O   @ @ @ ",
") O O u p /  .u @ u u O @ @ O O p O . . / / ) . @ O @   o . ) g S %.%.$.%.:.L V u O ) / / Z v %.G &.%.%.%.$.p g O X   u ) / - @ X @ u / X X ] O p h @ u V Z @ . X ) @   @ u O     / ] u V $.%.$.G $.$.G Z p O   @   @     2 @ @ /   @ p %.Z O L G O p u / @     ",
"@  .} o . ! ] ) . @ O O O O / g O g O  .V | o V I / ) O X @ h p V %.%.:.:.%.$.$.O ] u O u  .%.:.:.%.%.>.P L $.V / / @ / @ /     o / X X @ X V { P p Z P p %.p u O / @   @ / /   o X / ) Z $.Z Z v u Z G p O O @ O u O v ..O u u ] @ / u Z @ / p Z X X   X     @ ",
"u p @ o o o o X @ u p p p V ) u u p L Z P :.6. .$.V } h @ O O p P %.%.%.%.%.%.] / u u - &.G :.%.:.%.%.:.%.%.%.p @ u O @ @       X / X @ h ) V P $.>.<.d.%.%.L %.G g @ @ @     X X o o   u @ O Z V   O V u u p ) O L - :.Z I $.u { p / X / X / O u X X X     @ u ",
"... O @ X / o / u L Z P $.V } L v U :.U >.:.z.*.:.<.] V { O g u P P L L p P %.p O O { p %.:.>.>.:.:.:.:.:.=.%.P V } / ) @ . . @ X X X / p ! V ,.d.g.%.>.>.:.:.:.%.V X ) @ o X   / ) ! @ @ / . p V / / @ / u u ) u G P :.$.:.f.P Z %.V O X .   @ X   / / X   @ ) ",
"p u ] @ g u . / u L L v L Z g Z &.%.d.l.K.d.:.f.f.:.{ $.L @ O V h ) L Z g p V p u @ u  .Z G $.%.%.%.:.:.%.:.%.$.p O ) )   .   @   / @   g I ..%.>.-.%.:.<.>.:.$.Z Z  .O   ] O u L p g u V O u u )   X @ @ @ ) @ P >.%.:.k.:.:.:.$.%.P u O / / / X   @ { X P  .u ",
"P V @ o g @   ! | ] ) ! / L h O :.d.k.f.:.h.d.k.k.-.%.%.V g p p g ]  .p ! / o / / . @ u |  .$.%.P L P %.$.$.$.L p g @ @   o     X ) ] / / V 6.>.>.p.i.>.>.>.:.%.$.Z u O u p O I Z P 6.h $.$.* p O ) @ @ O @ ] ] v %.>.>.>.:.>.>.:.%.P @ { { / / X X v L O %. .%.",
"5...u u O O / ! ) / X o / ] I I L ,.f.h.>.d.a.s.f.<.>.$.I p { u Z { o o . g ! / ! ! ! O u L %.%.P u p $.:.p u V ] /   .   } X o . @ O h h Z $.&.:.g.>.%.%.%.$.$.%.Z g O Z V u $.#.%.>.$.P d.L p * O     ] u } p L L $.:.:.:.>.>.d.i.%...p g @ u h @ 5.:.p :.:.U ",
"$.V h O O p u O g @ ! g p p u  ...%.>.f.f.d.d.d.:.%.$.G U U p ) p ) o |  ./ ! U h ] u / { u { $.Z   / V $.) o u p O / g ] ) / o   O O ) O U P P >.:.Z P $.L $.h u u O O u V P :.>.d.%.*.d.>.L Z p / u / O p h V P %.:.:.:.>.>.>.d.:.P p @ / X @ p u { %.%.>.>.U ",
"%.V / } ] O g u u u h / ) Z  .| G d.-.>.:.:.:.,.>.:.*.$. .u g } u h g  .h I 6.&.{ &.*.{ ..h g - u X / o g ! o X ! X O 5. .) L  .) g g Q / Z Z L :.Z g L P g %.} o / ] @   P >.>.%.<.-.d.>.%.$.L g u V p O   g g P :.%.G $.$.%.>.%.U Z p O ) /   u L Z  .%.>.>.>.",
"$.V ' o g ! ! g ! O V u ! g ] V :.:.L Z :.*.V { P %.L ] } o g @ } I L V I d.$.&.U P f.&.L %.g ! / ! V g o / O ! o | I &.g h %.&.g S U g g ] / Z $.{ g O { p I O o ! u h h V %.-.%.:.>.:.%.:.$.P L $.p { ) . o h *.%.O L %.] } :.%.u h } g / X   @ V I $.%.:.>.f.",
"h g ! I ,.h ! ] | } V Z ] O O  .$.p }  .U $.] } g I P ] ! o | ] | V %.L %.<.*.K.K.<.f.5.$.<.] O ! h ] g o !  .| ] %...L 6.:.$.V 6.U 9.%.p I ) p  .} g ! o ) ! / ) h u ) p L %.:.:.:.%.%.>.:.%.%.$.v  .p g O ] h v p @ $.$.! } P :.u . o X o o @ V v p $.>.:.%.:.",
" .| h d.:.} ) I %...h * ! } ] { V | ] $.- %.p } | Z Z } / / V p |  .d.%.$.f.k.f.k.J.i.$.<.$.U 0.V 5.h / / ! V ] P >. .&.x.l.g...<.9.*.j.{ I U g O O g / o ! / g u p p V V G %.$.%.$.V I %.d.P { } ] I u u p V u o X o u h o O L Z ! X o X X o   { p G >.%.h ..%.",
",.U &.h.I 9.g.I $.,.g U *.g g g g } } I ] Z h ! |  .O o g o u L I g :.f.:.f.:.9.>.l.f.<.>.U %.<.{ ..I g ! ! V Z I f.i.g.d.>.P.W.>.<.k.h.| U $.h ) g ! / . } ] p V p u p p U V L :.I ! / u >.*.h | | O o o ! ] / o ! o ! o ! @ g / o / ! / / ) O ) O ..G / { >.U ",
":.>.<.g.*.P.W. .I >. .P i.U ..{ o ! ! ! } } g ! ! o ! | } } } h $...U :.f.f.<.d.f.l.f.f.i.d.i.%.| I h  .] o h U ,.:.z.l.<.d.H.K.H.f.l.:.%.h.P ] h p | ) . O ] V Z u | / / ]  .$.L ! ! ! g %.L h | O ) / u ) / ) } o o ) ! o / o o / . ) { u - g ) O p Z ! L :.I ",
"f.L.J.h.<.L.d.d.x.k.U *.d.U  .|  .| @ } } } g g { | p  .p I h | P $.5.*.>.i.d.d.f.g.i.d.<.,.U { | I ] O { ] } U d.I %.l.k.g.8.0.x.k.g.:.l.J.$.{  .P h g O ) O u h O ) g / ! g p u ! ! / | Z h O g | } g $.{ @  .h g g ! o @ /   . u @ p V V L p { V g O g p P u ",
"k.x.K.f.f.J.k.L._.P.>.z.k.U ..g ..L I | } } g h Z P L L p P I Z $.L $.:.,.,.>.%.>.>.%.>.>.%.U  .| g ) ) h  .L P %.d.*.:.l.f.,.g.z.f.f.h.g.$. ...I h ! } @ ] ) g g ! ! } / o ! O g @ } X / g ) u h p L ..Z h ,.$.g { *.Z  .L @ o . @ g p L L G Z L L O / g / O / ",
",.$.g.k.k.k.l.h.>.L.J.l.f.*...]  .Z U h ! } | V $.%.$.Z Z V  .L U U U L L :.$.I &.k.>.U ,.f.>.h ) @ } g g | ..:.>.f.f.d.g.h.g.f.i.d.g.>.%.$.%.&.h ! } h g ] } g $. .g ..*.| ! | g g } O } ! h P h { :.5.I L h.&.h h %.>.p $.{ ] p ! ) - Z P L G L p O } / ! } ! ",
"*.5.5.d.h.f.g.,.d.x.f.d.&. .|  .5...{ } ! g | L $.G L ..$...V u ] u | h :.8.g | | $.h.,.h &.%.O } g } |  .| V L %.>.f.d.*.:.>.>.>.:.>.<.:.U  .| ) } | g ] g h | 5. .] I &.*.p h I I } h I g ! | u } *.$.I P :.9.h.>...>. .%.&.g I ) p v v p u V Z Z p O / ! g g ",
"d.>.<.d.g.g.<.g.l.f.z.J.>.*.9.$... .g | } } } h I I I Z L $.I | | |  .$.>.V } | | ! P %.{ | I } ) | O | {  . .5.:.:.%.U %.d.$. .5.d.%.*.f.:.| h | | | O ) I 9.h U | 9.z.5.z.h.U ..5.| } } ! ! h U O &.l.>.:.i.z.>.>.:.>.$.h.$.p  .h Z ] O g g g ) u h g } ! h U ",
"6.d.k.d.,.d.h.g.i.g.l.K.H.d.5. .| | g I p ! ! O { | h V h  .{ |  .| h %.&.| } | }  .U Z } | h | ) {  .V p } | $.:.U h 5.f.:.I | h %.>.h >.i. .| h | h } } I $.I M.&.z.L.:.g.h.*.h 5.| |  .) | u U  .L l.J.f.f.i.:.z.Z.f.d.d.L :.%.V I ] h h | . o O P h u h U <.",
":.f.>.U U g.l.>.0.,.U :.J.f.U | | |  .I g | h 0.*.h  .M.:.h | U U I I U | } h | h g } g |  .I | Z I p V | } I $.%.| | :.>...| | } h ,.$.$.6. .| } g I } h h U <.J.,.J.K.6.%.0.>.<.:.I ..p g  .] h 5.&.:.f.z.f.i.f.l.f.x.k.>.:.d.:.I p { g O ] u  .p  .] %.<.5.P ",
"d.>.I  .<.l.k.k.*.&.5.5.h.l.$... . .| g  .| L d.&.| *.M...&.,.&.U &.I  .| | | | } } } h P %.$.Z %.U h V V } } I U | | $.:.5.I h } { $.$.| ] g g } h %.h I V  .h.p.%.x.x.:.d.H.J.x.k.<.$.U u L  .| I &.:.<.f.k.g.d.<.d.d.<.>.>.>.&.h g V O g @ I %.V  .h g.f.Z %.",
":.:.I  .6.6.U f.>.I  . .%.g...h | ) g |  .I <.,. ...g.0.| *.E.h. .0.6.| { g } | ! | | V %.:.:.%.%.%... .h } } g g | | h &.P h | g I U ] } } O g  .Z U I I ....:.k.i.g.f.i.l.J.d.%.l.d.L 5.U ..h  . .$.f.z.h.g.>.:.<.d.>.<.>.$. .u p  .u g } g Z :.&.$.,.J.f.d.E.",
"P U  .| | } | *.d...| h U U | } !  .5.| &.h. Xz...,.J.h.N.0.:.L.9.&.*.|  .5. .| g } |  .$.:.%.%.%.P h | h } h h g h | | ] h h | } } ! } | h | } Z ..p ......&.%.z.l.g.g.f.l.d.<.d.<.P V U  .| ) g | :.d.5.U $.>.%.%.>.:.%.d.i.%.$.L I u u  .] L <.d.<.:.<.H.l.d.",
"| } | | | | h  .,.U h I  .] |  .g &.*.I 9.,.K.J.<.+X;XU.g.J.g.P.N.,.h.*.I ,. .| h } | ..U U  . . .| }  .5. . .I | | |  . .h | | } ) ) { h Z L h | I h { ..:.f.h.s.l.l.k.f.g.f.g.<.>.,.,...| } ) } h 6.V ! p :.>.I | >.f.$.p %.>.$.| } ) h U |  .$.g.x.g.%.z.z.:.",
" .| X.| | | |  .%.U } | } u &. .|  ...I 5...N.W.J.OX}.-XE.l.K.P.N.h.L.J.&.&.I |  .5.h  . .h  .| ..U | &.8.h  .8.*.&.,.| | } | | ] | | Z P P P Z | |  ...I &.:.>.f.f.g.>.>.>.>.d.>.*.%.U | ! h I ! } ..L } I d.%.| | U d.%. .! ....} g } u I I p *.i.k.l.z.k.l.d.",
"P P  .{ X.| | U %. .} ] } } I I .. ...*.C.,.6.E.L.J.J.P.!.x.P.Q.z.L._.J.9.5. .| I  .g | | } |  .8... .5.Z  .| 8.,.U d.&...I | | h I I $.$.$.$.L  .u h  .U ....<.z.:.P $.d.*.{ ,.d.&. .h I I V h g ! h h } Z 9.U | | g ..%.I h Z I O @ | g h  .$.>.f.f.k.l.l.k.g.",
"&.&.U U | | | | h } } | } } | $.*. .L z.P.K.h.h.K.K.W.z.P.L.L.J.K.J.h.x.<...U I  .| | | | } 8.6.I ..<.W.6.U g.d.&.| ,.M.d.<. .| h I Z Z .. .P G V | } g h  .U f.*. .5.I :.d.I | ,.&. .U  . .u g h | } o } h p h | | | I $.p | { } } )  .I u |  .5.*.<.f.k.l.f.g.",
"U | &.<. .| | | | h } | | |  .6.,.I  .*.x.K.L.K.K.K.W.z.K.L.J.K.J.d.d.N.&.| *.5.| | | | | | *.9. .9.L.K.5.C._.J.h.o.<.k.5.,.U ..9.U *.P | | h Z V g g } ! | %.f.L ] h | &.d.U } U %.h | | } | } h { ! } | | g h | | | L Z ) } g } p Z p 6.$. .Z U ,.h.h.f.d.>.<.",
"$. . .*.U | | | } } } |  .| h I 9.9.U ..&.0.h.x.L.K.K.J.J.J.J.J.H.x.z.<.5.9.w...| | ..5.| | ..9...*.K.z.q._.z.8.z.,.C.z.8.d.&.U <.U &...} | } | O O { u ! ! I $.U | h | ..%. . .L $.h ] } } h |  .| I I | | | | | | } ] ) } h } ] Z $.Z $.*.$.6.&.<.f.>.*.$.%.&.",
"U ..U C.C...| | | | } h ..| h | | 5.7.8.9.<.d.h.l.x.l.l.l.g.h.l.R.J.J.C.M.0...| | | ,.8. . .&.J.l.,.x.x.h.P.<.g.H.J.x.<.,.l.h.,.*. .5.U | | } ! ! } ] ] } | | h I | | h h { h Z P I I V | h 6.I |  .0.5.} |  .h | | | } | V ] { P G %.$.G $.U  .I :.g.*.p *.,.| ",
"Z.h.q.C._.z.X. .m.8.} | | } ....|  . .&.f.x.J.l.g.g.g.,.N.z.*.<.k.l.0...I | } &.7.| U &. ...f.l.K.P.K.J.z.L.N.P._. XK.h.z.K.L.J.&...P &.5.| h g h g }  .h p U u g g g | g } g h h | h Z ....9.z.Z.*.%.5.w.U ..l.*.| <.U h Z ) ] $.%.%.$.$.I {  .Z :.:.{  .<.$.| ",
"L.XXM.&.K.Z... .h.9.| ! | | ..5.| | &.x.J.h.<.m.<.x.N.o.6.H.h.5.<.l.k.*... . .5.U | ..,.&. .M.<.,.W.P.L.J.L.Z.Q.l.K.K.J.x.z.g.<.8.,.U 5.&.g } | I I { $.I  .Z h h h u | h } h  .h | &.U ....g._.x.0.5.5.Z.x.&.<.z.&.<.,.| | | I G L Z L G Z | ] I $.$.h 5.d.U h ",
"M..XC.9.L.h.o...<.5.| ..I | { U 5...<.l.6...o.m.L.J.5.o.I d.K.d...,.k.d.5.o.o.| |  . . .*.<.<.M.,.,.x.K.J.K.J.K.z.J.J.J.x.g.7...,.0.U &.h | h h Z &.U %.$.$.$.| h h h | h } h  .| L C.M. .o.h.K.&.6.9...&.E.<.h g.g.U 7.| h h  .| h | | V L { } g ]  . .I :.&.h ",
"0._.x.h.K.9.o.6.,.U I h.&.| | |  .U :.,. . .o.h.J.d. .o.I U x.J.5.I g.9.| | | | I &. .| h 8.0.M.g.N.l.x.J.J.J.J.l.x.x.z.k.h.g.<.9.8.5.I |  .I Z P L %.%.%.:.P  .L I | | | } | | | I <.6.5.7.d.K.8.C.{.!.<.C.z...h.h.6.,.X.| &...! g | | g h h } } } } I h .. .| ",
"N.P.J.E.C.g.M.<.7.X. .0.X...&.| | | | 5.o. .5.k.f.....U  .| d.J.&...8...| | X.| | 5.5. . .X...8.g.J.W.h.g.z.h.l.x.z.z.z.h.z.z.g.,.o.X.|  . .I U %.%.:.%.%.%.$.5.L ..I | | | .. .| I *.q.x.x.0.J.z.+X@Xn.x.L.x.8.K.<.C.P.9.| <.:.} g | | } g h } | | } ....| | | ",
"x.L.x.l.<.T._.K.h.X.5.5.| &.w.|  .| | | | | 8.l.<.| X.@...5.<.l... .| | | | | |  .|  ...5.8.,.z.H.L.z.*.g.z.,.z.N.*.N.x.m.5...6.6.h  . .|  .| ..%.$.%.&. .U %.P I  .I X.| h w... . ...N.P.K.0.l.P.'.h.x.#X-X+Xx.J.0.<.J.w. .5... .V I | u h g | &.L | ..$.Z  . .",
"J.K.J.z.J.'.'..XJ.&.6...| ..U } | | | |  . ...<.<...I o.U 6.,.*.| | | | | | X.| U | |  .I X.6.K.K.d.U d.J.g.7.h.g.U 8.h.J.h.......U 8...|  . .I Z {  .U | I I I | | | X.| | &.U  .5...g.K.L.Z.h.P.L.h.P._.P.`._.z.z.J.K.,...5.| ,.*. . .h ..| | Z I &.U %.&.I X.",
"J.J.x.L.P.J.h.g.k.*... ...5.h |  . .| U U  . .I 5.5. .o.h  . .| |  .|  .U X.X.X.I | | I 8...<.K.9.I  .d.J.9.X.0.l.*.X.&.<.l.,.8.6.7.o. .|  .I | 5.*.I X. .| | I U I | X.| X.I 5.9.,. .9.h.J.L.J.K.L.x.P.J.l.J.P.K.L.L.x.E.%. .I &.U  .Z h  .| ] } $.Z.:.$.%.C.h.",
"J.J.J.J.h.,.*.w.,.o.5.5.7. .| I U 5.U %.*...5. .| |  .+. .|  .X.....U &.&.&.5.U 5. .X. .&.*.0.:. .X...g.l.5.X.o.8.0.U |  .d.0. ... .|  .I I  .I 6.0.5.7.5.I 8.U I  . .X.| | X.U 9.d.8.&.0.<.z.L.J.K.W.L.J.J.K.L.L.x.*.,.N.&.X.5.5.{  .U  .|  .5. .9.<.&.5.&.J.W.",
"z.l.J.h.h.z.g.0.,.9.9.5. .| &.U I :.:.,.:.*.&.I X.X.X.@.| .... .&.&.,.*.&.<.>.:.,.I &...h  ...*...|  .g.k...| +. .,.*.X. .:.9. .| |  . .C.8. .5.*. .+.&.C.9.0.M...X. .X.h X. . ...5.w.,.d.z.h.h.z.z.x.J.K.L.K.x.z.h.<.<.*.U &.5.I | h ..M. .,.N. .8.,.N.9...&.<.",
"Z.<.f.l.g.N.h.<.*.o. .I  . .7...U *.<.,.:.*.&.U X...o.o.I *.*...5. .*.d.;.d.d.d.>.*.<.U | X.X.I  .X. .d.f.*. .I 5.9.5. .&.*...X.U ..| 8.I.5.5.N.h.0.q.Z.h.7.8.h.6...U o. .X.X. ...I ..5.*.<.l.x.z.z.z.x.L.K.z.Z.l.h.M.9.0.<.*.I  . .| 8.x.U <.*.+.d.h.,.x.h.o.0.",
"N.Z.<.d.0.5.,.C.>.U o.....o. . ...%.,.7.....&... .X.+.o. .7.....,.*.,.d.d.d.<.>.d.<.5. . .| | | |  .X...,.9.U o. . .X. . .I  . .d.9. .*.x.7.<.x.J.+X<.E.P.,.5.h.h.C.g.+.5.,. . .6.U ..+.5.h.P.P.l.h.h.g.z.L.h.<.x.l.<.*.8.U 5...|  .| U 9.o.9.8.*.).~.5.0.K.h.h.",
"6.J.K.<.8.o.U <.z.*.o.X. .I | X...&...X.X. .X.5.M.w.o.o.....X.5.d.i.d.>.d.0.,.<.:.&.X...X.| h |  . .| |  . .| +.| | I X.X.I X. .,.&.o.7.J.g.g.z..XU.*.,.L.h.8.Q.+Xx.d.7.*.N.U  .&.5.5.5.h.P.K.>.d.f.z.9.*.K.K.,.g.J.z.,.5.o...| o.&. . .9.0.^.W.d. Xd.8.E.XX{. X",
"..h.L.g...o.o.X.h.,.I I .. .X.X..... .o.U o.o.E.T.Z.&.o.o.w.W.h.>.<.<.f.d.*.6.<.<.,.*... .| | | ..o.| |  . . .o.| | 5. .&.9.X.X.6.M.,.7.x.XX).Q.{.l.Z.Y.`.x.M.'.W.,.,.o.&.,. .X.|  ...5.l.E.8.X.<.J.z.8.o.<.K.x.*.C.l.>... . .h M.g. ...7.h._.|.J.!.N.g. XJ.C.{.",
" .5.x.z.U X.5.U d.&...U 5. .5.5.<.L.9.o.&.7.,.W.,.q.w.w.8.C.{.+Xw.&.<.,.*.5...5.*.5... .| |  . .X.X. .|  . . .o. . .5. .&.,.o...5.W.z.w.L._.-X@X_.K.|.#X+XP.K._.h.M.g.5.,.<... . .| |  .g.*.X.o.,.x.*...7. .*.E.h.*.<.&.|  . .| 6.,.o.9.M.M.E.}.P.L.W.L.P.g.w.[.",
" ...h.V.*. .9.0.6.X.o.X. ...8.5.W.[.w.5.M.^.Q.J.8.q.^.@X~.q.0..XZ.7.9.,.7.+.o.o.X.X. . .| .. .X.o.X...X. . .X.o. .| I |  .M.7.+.7.h.K.x.x.<.Q.{.).Q.}.x.z.P.`.L.z.Q.OXx.<.*.5.5.&.|  . .,.,... .,.h...+.U  . .*.l.5. .U h ....X...0.*.(.OXg.n.L.P.P.-X-X#XW.<.P.",
"..&.h.z.&.| U 5. .| O.8.C.8.7.7.W.N.8.w. X}.#X Xw.8.w.E.+Xz.*.U.E.8.w.W.J.o.o.&.5.X. .U I &.*.U X.5.:.U ..7. .o.X.X.X.....9.,.o.0.Z.E.J.z.y.N.OXP.P.!.N.I.P._.x.h.J.L. Xw.5...,.*.| X.X.U &.5. .9.g.U o.@. .o.*.h.&.I ........5.8.*.w.P.}.h.h.K.L._.#XK.[..Xx.P.",
"5.M.,.5. . . .| ..5. .h.(.8.7.7.Z.C.8.Z.#X^.x.K.C.C.G.g.L.Q.w.L.K.~.b.,.I.*.7.w.C.....X. .U >.,...9.,.U *.9.o.@.X.X. .w.&...<.0.h.h.*.C.L.x.N.J.T.P.L.E.K. Xx.C.J.K.L.L.,.o.U 6.&. .X. . .X.X. ...,.9.X.@. .8.0.*.U o...&.g.&.*.<.,.<.J.'.P.l.x.K. X_.Q.J.L.L.P.",
"o.5. .|  . . .X.7.6...w.m.5.8.q.Z.K.8.~.].W.w.b.#X,X{.Y.L.OXN.P.|.-XOXM.N.*.8.8.h.7...5.8.5.,.<.,.d.,.,.M.5. .o.o.X.I *.8...7.w.x.C.w.0.E.L.K.J.K.L.L.K.K.J.z.K.L.J.l.f.,.U 6.5.X. .X. . . .X.| |  ...X.o. ..... . ...5.P M.5.,.h.<.>.,.x.`.+XL.L.L.W.J.W.K.L.K.",
"X.X.X. .5.U U &.o.....8.M.7.,.(.#X'.E.Z.}.Y.w.).<X@Xx.N.T._.^.@X#X^.v.F.C.q.7.7.0.5.o.5.:.>.,.<.g.d.m.M.*.I 5.7.o. .X.I 8.6.7.&.,.z.W.J.x.x.J.x.J.W.x.x.J.J.L.K.x.g.,.g.g.q.U X.| ....X. . .X.| | | |  .o.X...X.X...&.,.*.<.w.,.f.<.<.*.6.N.L.P._._.L.^.J.W.I.K.",
"5. .X. .8.<.&.,.M.U ..8.N.9.w.@X{.'..XK._.[.C.+X&XK.(.n.P.[.T.}.).<.~.#X.XN.7.9.w.o.....%.<.<.<.g.<.<.*.5.&.*.7.o.X.X...o.8.w.w.w.<.h.x.l.x.J.J.K.J.x.W.d.M.C.J.x.C.g.9.8... .X. .6.&.X. . . . . .o... .o. .8.U X.7.*.d.h.,.6.0.x.J.<.w.g.h.z.x.L.K.x.J.J.J.x.z.",
".. .o...*.,.5.9.n.&.5.7.<.C.C.+Xz.Y.&X@XOX_.W.{.+XM.K.{.|.}.}.[.C.M.Q.|.|.C.8.M.6.o.5.<.,.,.6.,.9.5.,.<.6.*.&.o.o.X...6.7.X.o.7.8.7.g.K.W.h.W. XW.h.E.K.N.7.5.g.Z.f.Z.<.U ......5.&.o.X.X. .8.5.o.6.&.U o...5... ...*.>.<.*.5.5.*.<.M.M.<.h.U.K. XW.h.L.C.z.K.x.",
" .X. .U ..o.&.&.N.8.7.8.g.C.U..XE.+X1X2X;X}.L.[.Q.N.[.;X<X;X2X{.b.E.[.-X#Xz.w.w.5.o.*.N.&.U ..,.6.+.&.,.&...o.o.7...o.&.&...o.U o.8.J.L.M.<.L.z.8.8.x.K.J.g.7.o.h.k.*.0.9.8.&.&.7. .o.o.7.&.,.,.*.,.7.5.7.o.o.X.X.5.8.&.5... . . .X...o.q.J.J.z..XP.L. X<.w.Z.K.",
"U X.X.o...5.N.U 8.m.7.M.!.w.h.Y.`.#X[.U.#X;X`. XW.W.-X#X@XL.}.;X`.`. XE.P.L.h.<.7.o.9.q.+.....,.6.+.o.6.6.X. .7.7...5.5...o.U q.8.M.J.,.o.N.L.<.+.8.M.K.H.x.8.o.&.Z.0...o.X. . .o...*.,.,.,.<.<.*.*.o.5.*.7.&.U ..7.5.I  .o. . . ...5.o.,.K.C.9.l.P..XE.8.r.8.l.",
"..o.o...o...M.7.o.0.w.h.Q.0.q.g.).].Y.N.Z.@X|.OX(.P.}.P.W.x.OX;XXXL.g.h.Q.J.h.C.8.6.w.5.5.o.U 8.7.+.+.7.5...o.7.7.5.9.7.o.o.U 6.<.h.h.o.o.<.J.<...7.7.,.h.K.w.....&.k.,.o.U X.I ....*.,.,.<.<.<.x.9.5.8.8.<.(.W.5.7.5.8.w.5.o...X...w.*.<.C.0.7.*.l.K.9.o.r.o.,.",
"5.8.....o.X.&.w.5...M.Z.L.E.w.w.z. X`.!.Z.E.T.P.T.[.P.Q.W.(.`.#XU.C.b.W.N.8.0.l.<.M.8.7.o.+.o.o.7.7.7.5.7.+.M.y.7.7.6.6.7.5.+...5.7.0.,...5.z.k.*.o.7.X.&.J.d.o.6.<.g.*.5.*.U X.o.o.+.5.7.8.<.).@XN.7.8.q.z.Q.K.Z.8.&.Z.XXz.o.o.o...&.0.9.&.o...8.l.z.U o.e.5.6.",
",.<.5.7...X.o.8.w.w.7.w.z.Q.P.).!.P.P.`..X!.(.(.Y.T.(.T.OXOX.XP.U.W.E.S.w.M.x.h.w.8.7.7.M.7.+.7.7.+.6.N.8.8.Q.S.7.7.q.OXU.9.7.7.7.7.8.8.5.o.8.M.9.+.o.7.&.z.0...8.,.&.I 7.8.5...5.5.7.5.7.7.x.OXg.w.9.h.M.y.w.w.L.w.8.M.x. X<.o.o...X.U o.o.5.5.,.J.<.X...e.5.8.",
"d.0.8.0.8.+.+.o.&.0.w.w.w.M.J.K.K.L.{.{.!.U.J.L.K.^.U.J.Q.P.K.E.W.(.~.C.F.N.<.8.7.7.7.,.N.5.7.7.7.7.C.+XM.,.z.*.t.8.y.J.U.~.8.q.*.7.o.U ..o.o. . .+.o.*.m.g.8.+. . .X.5.5.5.5.&.n.C.7.,.w.8.E.T.w.M.[.#XOXc.3.w.x.J.w.q.q.Q.N.+.7.5.5.....5.U 9.<.l.<.8.5.e.o.o.",
"h.d.m.<.5.o.o.o.o.7.7.8.8.q.q.w.<.Z.P.P.x.J._.OXh.z._.K.h.x.!.K.J.W.W.z.,.7.7.7.6.*.t.t.5.7.q.w.8.w.(.g.8.w.C.8.t.G.x.2.N.T.w.w.q.q.5.7.7.7..... .7.o...5.7.o.U o...&.,.&.&.0.<._.Z.*.^.~.,.W..Xh.(.<X(.M.N.G.n.OX-XU.w.w.K.C.7.8.^.K.*.5.5.....U *.h.d.*.e.+...",
"h.h.<.,.*.&.o.o.5.7.8.7.7.7.6.C.W.L.x.z.W.L.L.x.w.S.P.P.x.w.h.K.!.L.L.K.C.w.w.w.w.w.8.8.e.,.(.^.*.w.~.q.8.M.E.w.h.(.+XW.h.T.N.8.Z.OXN.7.7...+.o...7.o.X.X.X...5.7.o.8.*.&.*.<.<.J.<.<.K.<.q.Z.+XK.{.#XN.M.+X-X-X5X;XK.<.M.K.N.*.*.N.J.N...5.o.o.X.o.5.5.+.7...o.",
"g.<.>.<.g.<...8.M.&.7.7.7.7.N.Q.P.W.M.q.g.x.J.w.t.y.z.P.W.w.M.z.<.W.!.L.h.6.8.,.,.5.e.8.8.g. Xg.S.E.I.w.w.I.#X|.).,.v.+XK.).z.w.G.[.P.8.8.8.8.7.+.e.o.o.U ....q.<.8.9.*.8.5.6.*.C.g.M.^.I.^.Y.P.U.'.+Xg.).1XOXJ.OX-X#XF.C._.(.W.N.8.0.h.o.+...o.o.+.o.o.o.e.o. .",
"6.6.<.<.9.U o.5.M.q.7.7.7.w.J.P.K.0.7.w.E.L.E.8.t.t.8.J.`.P.E.M.8.,.Z._.W.8.7.8.w.8.8.8.q.M.!.b.@X;X@XN.w.).%X;X).~.h.Q. XP.OX@XT.c.Q.w.8.M.E.*.o.7.o.5.6.5.5.g.k.<.<.x.~.7.7.&.N.h.<.).3X5X2X#XT..X`.z.@X;XQ.W.z.T.-XK.T.&X|.L.Y.x.M.h.5.U N.M.X.o.X.o.X.e.o. .",
"+.o...6.9.+.X.o.5.8.q.q.q.N.K.x.8.7.8.N.P.!.M.o.r.t.7.,.E.P.l.7.8.7.8.C.K.,.9.w.7.<.~.9.q.w.(.@X+X;X1X+Xz.OX#X+XY.-X@X[._.{.-X-X+Xx.K.w.8.<.^.w.o.r.5.6.<.<.,.d.h.d.<.J.x.&.9.*.w.G.g.Y.;X@X:X*X}.+X{.U.|.&X`.P.S.J.|._.@X&X@XM.g.Q.x.w.5...g.h.o.....8.5.e.7. .",
"7.7.5.o.o.+.o.o.o.5.5.7.7.,.J.d.5.5.7.x.P.Z.7.7.r.r.7.7.q.K.E.9.o.7.7.,.K.0.8.9.5.N.OXq.8.q.E.T.w.^.-X&X(.OX}.W.4.OX<X-X_.@X-X(.b.z.G.q.q.8.N.w.7.r.7.5.*.,.<.,.,.d.d.g.N.&.,.8.w.J.E.U.).g.C.OX].[.`.Y.&X1X6X}.M.^.}.{.'.@XI.w.N. Xz.*.6.7.9.0.o.*.*.:.,.8.e...",
"7.&.&.8.7.o.7.7.7.7.7.8.7.7.g.C.,.7.8.Z.L.w.+.7.2.e.o.o.5.x.L.g.7.7.,.h.Z.q.7.5.8.g.Z.,.w.q.w.^.C.c.OX|.`.[.`.{.(.Y.#X-X{.#XOXv.+X[.E.w.8.0.N.8.7.w.8.5.8.,.<.*.5.6.9.,.N.,.8.9.Q.[.L.T._.E.A.z.OX`.T.@X<X<X3X1XU.P._._.'.Y.<.G.+X^.w.8.8.5.<.8.6.,.:.>.:.8.7.&.",
"7.8.w.w.8.7.8.8.7.7.8.<.8.7.7.,.8.8.5.w.K.d.6.8.r.e.o.6.,.z.x.,.7.7.9.M.8.7.5.7.w.9.N.<.w.g.n.!.Y.N.G.#X}.}.;X5X2XK.T.@X{.@XE.N.{.|.}.W.<.N.g.7.7.C.N.7.o.7.5.7.o.o.5.o.,.h.*.8.OXQ.N.E.P.P.I.z.Z.OXT.`.`..X[.-X@X[.P.+X).h.t.~.#XJ.w.q.7.<.M.o.8.,.:.*.*.7.8.&.",
"*.b.@X^.8.7.8.8.Z.^.<.,.8.7.+.o.7.7.7.7.h.Z.M.5.r.7.X.q.C.g.&.+.o.o.X.o.8.6.S.*.q.8.<.C.w.(.|.XX`.).b.).#X-X3X;X].I.Y.{.`.OXh.~.@X|.}. XK.C.q.8.7.g.w.o.7.o...7.o.o.U 8.7.,.N.g.K.).C.N.x.T.!.(.^.U.OX XT.OXT.[.@XL.!.L.N.A.N.x.P.Q.9.8.M.b.8.+.7.*.*.7...7.8.&.",
"w.(.T.G.w.w.8.N.+X}.W.7.8.7...7.7.7.5.8.5.&.U o.r.o.X.o.7.U 5.o.U o.o.7.7.*.Z.*.7.8.8.M.U.`.T..X'.'.!.U.{.*X-XK.@XT.T..XOXU.^.+X*X#XI.h.^.h.q.8.,.g.7...7.o.X.7.o. .,.<.*.7.9.h.K.+X_.K.K.W.(.{.`.(.W.Y.T.[.T._._.L.P.J.^.).P.P.P.x.M.Z.Z.6.7.7.7.U o.o...o.8.8.",
"Z.).<.8.w.w.8.M.M.g.).M.8.*.5.7.7.7.o.7...+.X.7.r.o.X.+.o.+.X. .7.7.o.o.7.U <.9...7.8.8.T.!.Z.K.).+X'.OX!.}.}.^.{.+X_..X)._.@X}.@XY.C.M.<.!.N.,.S.t.+.w.9. . .e.o. .Z.Z.o.7.7.7.w.x.^.L.Y.T.|.#X{.OX).U.Y.T.T.).T.[.!.OX}.}.`.`.Y.J.C.<.7.8.e.&.7.X.o.7.o.o.8.5.",
"[.L.w.t.c.^.~.q.q.q.I.J.8.8.7.8.w.7.+.o.o.+.o.o.e.o.X.X.X.X. . .7.7.6.*.7.o.U 0.9.7.8.8.E.U.N.F.x.K.Y.OX X[.[.!.).[.+X_.OX).Y.P.Q.W.^.Z.x.L.z.M.w.e.o.M.w. .X.o.o.o.&.N.0.7.7.7.8.w.<.C.J._.#XK.x.W.J.K.P.J.W.U.x.K.Q.L.K.P._.W.M.q.r.8.8.8.8.~.N.I 7.o...o.e.o.",
"+XY.y.M.+X5X[.<.q.w.Z.~.w.q.8.M.OXC.+.+.7...o.o.e.o...X. ...o.X.7.8.w.&.@.X.o.&.,.w.w.y.M.U.C.Z.W.I.E.J.~.W.Q.).Y.OXOXOXY.n.Z.W.I.K.L.P.!.L.S.q.8.7.5.8... .I o.X...X.&.w.N.C.N.h.G.G.J.K.+X{.Y.^.F.h.Q._.C.n._.x.<.z.L.L.J.J.J.M.8.8.8.5.8.q.x.w...7.7.5.o.e.o.",
"}.L.t.E.@XP.@X@XI.w.E.W.).n.8.w.L.U.7.5.w.7.o.o.e...&.....,.7.X.8.8...X.o...8.7...6.g.v.S.K.!.L.L.L.Q.(.OXOX[.).^.).W.^.OXY.I.W.Q.!.P.K.h.w.8.7.8.<.w.+.X.X.I o.X.5.o.X.o.*.w.<.M.w.M.J.J.Q.[.Q.M.w.^.`._.N.4.Y._.Q.z.Q.P.J.K.L.K.z.g.w.,.<.M.q.U o.o.7.&.7.8.7.",
"{.).F.).(.w.n.*X@Xg.I.J.(.#XU.w.Z.x.7.7.8.5.o.e.e...6.6.&.g.7.7.9.o.o.I o...o.o.o.7.7.q.,.M.E.K.Q.E.z.+X|.[.Z.v.N.OXK.g.Q.#XU.<.M.C.W.L.z.M.w.w.M.M.8.X.....X.o.o.o.U o.o.7.o.o.7.8.Z.K.L.K.x.K.G.J.+X{. XM.t.w.L._._.L.m.w.z.J.L.P.z.N.m.,.&.o.o.7.7.8.U 5.8.7.",
"L.@X4X,X(.y.A.OX#XI.Y.F.M.{.#XZ.n.N.7.7.7.7.5.e.e.X.o.0.,.:.9.0.8.X.o.X.X.X.X.o.7.7.8.8.M.P._.K.N.w.!.'.{.C.w.c.M.P.@XZ.A.{.-XE.z.g.w.w.M.M.M.w.8.7.o.o.5.8...+.I X.o.o.o.7...+.7.M.L.`.OXw.r.M.g.C.`.'.!.<.t.7.q.J._.x.,.q.q.q.M.K.h.&.&.o.o.o.7.8.o.7.7.5.8.r.",
"+X2X3X3X:XC.y.(.|.{.T.S.S.{.|.Y.n.w.8.w.q.7.7.r.7.8.&.&.,.<.d.,.7.5...o.o.o...5.N.,.7.w.P.{.x.<.8.S..X}.Y.w.N.w.t.E.|.OXg.).;X(.K.K.M.8.8.7.e.o.7.8.o.o.o.7.o.7.7...o.o...7...o.7.C.P.(.g.7.8.q.8.C.+X}.I.t.t.8.q.9.W.P.x.,.q.q.8.z.C.7.7.7.7.o.e.5.o.7.7.7.8.e.",
"-X3X,X;X<X).y.(.}.XXK.C.).-X}.(.C.q.q.^.~.7.8.r.8.q.,.0.,.9.,.,.,.,.5.7.&.8.7.5.,.0.0.x.P.N.q.r.q.x._.[.M.w.w.8.t.w.OX#XT.@X@Xg.z.L.K.,.7.8.7.o.7.e.o.o.o.7.o.5.9.5.U 7.8.&...8.6.k.K.0.7.7.7.8.*.Z.'.L.w.8.t.7.8.8.<.L.P.M.w.N.<.z.g.8.8.7.7.7.e.+.7.8.<.y.8.8.",
";X@XK.^.-X@XS.(.'..XK.(.&X&X#X^.w.q.q.N.W.7.7.r.7.5.*.0.&...7.,.<.....o.7.&.,.,.*.5.7.g.z.8.r.e.w.K.P.x.8.8.7.r.t.8.<.(.+XOXC.w.q.h.L.l.,.9.N.q.o.7.U 8.*.*.7.8.M.*.o.5.7.8...7.8.d.l.,.7.7.q.w.8.L.P.<.8.8.t...o.7.8.J.`.C.q.g.M.g.8.r.8.7.7.e.7.5.8.,.U.#Xh.e.",
"@X[.(.b.@X|.G.!.}. XT.}.|.@X+Xx.q.w.8.M.C.7.7.r.o.+.7.5...7...o.*.o.o.o.7.5.0.<.,.5.7.8.M.N.g.7.w.L.K.g.7.7.7.r.r.8.8.w.K.x.,.q.q.8.h.J.w.w.w.o.7.8.&.*.,.g.8.0.h.*.7.7.&.7.5.+.o.7.m.N.0.5.8.Z.N.K.l.r.7.*.t.o.5.*.7.h.L.M.8.7.8.8.r.8.M.E.N.q.8.8.8.w.Z.Y.U.w.",
"{.!.[.G.[.{.^. X[.P.[.}.OXE.x.).M.q.q.C.w.7.7.t.w.o.+.+.X.o.o.o.@.o.o.o.7.7.7.7.7.o...e.7.w.,.7.8.h.J.g.7.7.7.r.r.7.8.8.E.K.w.8.q.8.M.x.8.+.o.+.7.e.o...*.g.<.g.g.,.,.g.w.7.7.o...o.e.&.o...7.k.x.g.C.*.7.7.r.o.8.C.g.C.N.7.7.8.8.8.w.8.G.|.).h.w.,.8.w.y.,.I.z.",
"+XP.[.E.)._.). X!.[.`.OXK.z.h.+X~.8.z.F.8.7.e.n.).7.+.o.X.o.U o.e.o.X.e.+.o.o.o.o.o.o.o.o.X.o.7.7.8.z.C.,.t.7.r.r.7.8.7.C.L.<.7.w.h.z.d.7.+.+.o.7.8.&.7.*.g.h.g.g.g.h.M.7.7.7.o. .o.e. . ...+.7.8.&.h.h.*.7.r.o.7.N.Q.h.@.7.7.8.8.q.w.,.I.T.h.M.q.C.~.M.A.w.x.).",
"[.Y.P.^.).OX).Y.+X+X(.G.W.E.W.{.U.N.G.<.8.8.8.C.N.7.7.o. .e.o.o.7.o.o.8.U o.o.X.o.8.5.o.+.o.+.+.7.7.6.N.z.w.o.r.8.7.w.<.W.J.q.7.7.9.q.7.o.7.7.o.8.w.M.d.<.g.h.d.g.f.d.8.7.7.7.o.o.o.e...X.o.o.7.o.X...6.7.7.r.o.o.7.*.&.7.7.7.t.S.<.y.w.W.Z.w.S.b.+X2XU.M.y.C.Y.",
"_.OXT.(.T.(.Y.[.Y.I.z.E.J.I.Y.{.Y.z.q.q.q.8.4.N.7.7.o.X.+.7.7.5.q.5.7.*.7.+.o.....7...+...o.+.o.o.7.o.7.*.o.o.r.7.7.g.W.C.8.7.7.o.+.+.7.7.7...7.8.*.<.d.d.z.g.q.<.h.g.g.M.w.8.o.X.o.e.o.o.7.U 7.o.+.o.o.X.7.r.o.7.e.o.5.7.7.7.~.@XC.t.t.~.G.y.).-X#X#X+Xc.y.C.E.",
"!.OX{.T.Y.Y.T.Y.Y.(.)._.{.{..XW.M.8.8.q.q.w.A.2.o.7.7.o.o.8.&.7.m.<.*.d.q...6.q..... .+.o.o.e.o.o.e.o.7.7.+.o.r.e.o.5.w.8.o.7.7.o.+.7.7.7.7...8.8.8.q.8.w.g.*.r.7.w.h.g.<.,.8.+.o.U 7...5.<.,.7.o.o...o.o.7.r.7.8.7.U *.7.7.7.Z.T.c.w.w.n.G.v.@X#X).N.~.I.^.T.W.",
"G.I.P.(.(.L.n.~.Q.L.!.OX+XOXW.N.A.y.A.h.S.A.r.e.o.7.7...8.g.h.<.h.h.<.h.<.*.w.9.o.o...+.o.o.e.+.o.o.o.7.7.+.o.r.7.+.o.@.7.o.7.7.o.e.7.5.q.*.7.q.8.8.7.7.8.8.7.r.7.7.w.w.8.7.8.7.7.8.,.6.&.>.,.o.o.7.7.7.5.7.r.7.6.o.8.M.8.7.7.N.~.y.M.M.v.~.U.}.@X~.M.J.:X2X;X@X",
"~.Q.W.<.C.).J.g.4.^.E.x.W.W.J.N.N.N.S.M.q.7.e.8.o.o.o.o.7.<.N.z.g.h.h.d.g.g.*...5.8.o.o.o.o.7.o.o.7.7.o.o.+.7.e.o.o.o.7.7.+.&.7.e.r.7.7.q.,.8.t.g.^.F.7.7.5.8.r.w.C.3.8.8.8.8.7.8.,.<.q.&.7.7.o.o.8.7.5.q.6.r.7.5.7.7.,.7.8.q.y.^.v.(.).n.E.).@X@X~.v.$X6X3X>X@X",
"(.K.x.q.w.!. XW.h.I._.K.J.J.Y.Z.9.8.8.8.7.7.r.7.+.o.o.7.7.7.,.g.z.h.g.d.h.d.8.7.6.q.o.X.@.o.7.8.&.&.d.*.7.7.7.e.o.+.o.e.7.o.7.r.7.r.8.7.8.8.q.A.+X|.).w.7.8.r.w.).#X).g.r.q.8.7.7.8.0.6.7.e.7.o.o.7.7.o.q.8.r.7.7.7.7.7.7.,.w.t.E.+X,X<X-X+X(.{.@X~.G.3X5X3X{.L.",
"L.K.F.t.q.I.`.T. X_.T.Z.J.E.K.L.~.w.8.8.8.8.r.7.9.o.+.7.7.8.w.N.d.*.,.d.0.d.h.<.6.7...X.7.e.7.,.,.,.g.,.*.8.8.r.o.7.&.e.7.7.r.8.8.r.8.8.8.q.q.I.@Xz.A.D.8.8.q.M.).I.OXT.,.q.*.C.h.*.r.8.7.e.7.o.8.7.o.&.7.o.e.7.o.*.G.q.7.q.q.y.^.{.-X<X*X;XT._.{.(.(.-X<X;X_.Y.",
"L.W.A.t.8.h.+XL.L..Xn.q.w.<.C.K.L.F.8.8.r.8.r.0.N.o.+.7.r.q.M.9.7.o.8.g.<.8.q.8.7.7.+. .8.t.5.7.,.M.<.,.<.6.8.e.o.8.q.8.e.e.+.8.F.w.8.8.q.q.w._.OXM.t.y.w.w.M.A.A.w.F.+XN.q.M.).T.h.q.7.o.7.8.5.w.8.7.*.7.o.e.e.o.,.OXg.7.q.8.C.~.J.+X@X#X;X@X[.@X[.OX}.;X{.!.U.",
"K.w.t.t.8.q.E..X`.Q.g.8.8.8.q.N.Q.K.N.w.w.w.M.t.7.o.7.7.7.7.&.o.o.+.7.<.d.7.o.+.+.7.o. .o.r.7.7.8.8.8.8.8.5.e.r.7.7.*.r.r.e.7.v.@XE.q.r.w.G.~.{.T.y.w.c.OX>X+XS.y.y.A._.Z.w.w.g.J.J.8.e.7.7.7.o.q.q.*.<.<.8.e.e.5.7.Z.<.7.8.8.z.S.A.U.J.v.+X|.[.OX{.[.}.@XU.[.Y.",
"C.7.t.t.7.7.q.z.L.L.C.q.8.8.8.8.C.K.M.t.w.t.t.7.+.7.7.o.e.e.o.7.7.+.e.7.8.7.o.7.o.7.7...o.7.e.o.+.7.e.o.e.o.e.r.o.o.&.r.7.r.8.K.Y.c.y.w.K.2X;X;XOXA.M.(.-X|.|.).I.g.F._.W.w.y.q.N.^.q.r.8.7.7.7.w.9.w.,.<.6.e.8.5.7.w.M.5.7.8.N.Z.w.N.Q.Z.b.+X}.T..XP.{.+XU.+XT.",
"w.7.t.r.5.8.8.q.N.K.K.M.8.8.8.8.w.x.w.7.7.r.e.7.7.8.8.o.7.r.5.7.7.o.e.@.o.o.o.7...o.7.7.7.5.e.U o.7.e.o.7.o.e.e.o.7.r.7.8.r.r.W.~.y.y.A.+X=X-X}.@XC.v.@X~.A.^.;X-X~.Z.+XW.A.S.F.h.~.w.8.8.S.w.7.q.9.8.7.7.7.e.r.7.7.7.q.w.*.7.,.Z.A.w.z.L.W.U.+X+XT.T.[.+X_.).).",
"8.7.r.r.8.8.8.8.w.K.L.h.8.8.w.w.M.M.8.7.8.r.7.7.e.7.8.7.7.r.7.7.7.o.r.7.7.5.7.o.+.7.&.q.q.5.e.e.o.o.e.+.+.o.e.e.7.r.t.q.r.8.t.~.^.y.w.S.@X;XU.F.T.G.F.OXS.D.c.).<X@X(.{.L.(.+X+XOX~.y.q.9.).^.7.8.7.e.o.+.o.e.r.7.7.7.7.8.w.c.M.M.C.z.z.x.P.(.U.[._.).!.T.).T.).",
"7.5.r.r.8.8.7.8.8.x.K.C.8.7.q.N.w.8.r.r.r.r.8.8.t.N.w.8.8.r.8.7.8.7.8.8.7.q.8.7.7.9.,.<.,.5...e.7.e.e.o.+.o.r.e.7.r.c.OXM.,.t.S.~.A.A.v.@X&X~.F.{.Y.OX>X).F.N.G.;X|.OX_.}.&X|.Y.+X).A.t.8.x.E.8.8.7.e.o.o.o.7.r.7.7.7.7.7.8.w.N.v.W.Y.Y.(.P.!.L.U.^.(.).Q.^.).T.",
"7.o.r.r.o.+.8.q.7.h.K.N.7.7.7.7.7.r.8.r.r.8.8.t.K.@X^.w.q.t.t.8.8.q.M.Z.N.r.8.7.7.w.<.<.,.7.7.e.8.r.e.o.+.o.r.7.8.7.N.(.8.w.q.y.^.).OX~.+X*X(.C.OX-X6X5X2X{.z.F.#X|.).+X-X;XOXb.OX`.x.w.q.v.Z.8.8.7.8.5.7.7.7.7.q.M.7.&.8.8.r.r.N..X[.L.P.T.K.^.E.J.).L.^.^.I.^.",
"7.5.r.r.o.o.w.8.q.z.N.q.7.8.7.7.r.r.8.t.t.8.r.M.OXK.I.M.t.q.q.q.w.A.+X#X@XC.8.8.8.8.8.t.8.7.7.7.r.7.e.7.o.e.r.7.r.e.w.x.8.y.y.v.).-X;X+XY.#XOXF.).5X6X2X=X<X(.n.@X}.OXXX-X#XF.F.OX_.~.<.q.x.M.8.8.8.r.7.7.7.7.e.,.Z.,.7.7.7.8.N.OX|.{.OX(.h.A.g.z.(.Q.h.v.^.E.h.",
"<.7.t.t.7.+.0.Z.J.h.7.7.8.w.7.7.t.8.8.8.q.q.8.x.(.w.w.w.y.~.~.4.t.A.OXU.OXOXg.8.8.8.8.r.r.7.7.o.7.7.e.7.7.7.r.7.e.8.8.F.g.t.y.(.#X#X-X-X[.{.@X~.(.&X{.[.+X;X{.~.@X{. X{.{.~.y.~.{. XW.w.g.Z.q.8.8.C.*.7.r.o.e.r.o.6.M.M.g.w.g.).|.+X).G.y.y.w.C.T.`.x.S.z.J.W.I.",
"7.7.r.r.o.o.7.M.M.r.7.7.7.8.8.8.y.S.w.8.q.w.w.n.Z.w.y.w.^.;X1X+Xg.t.M.t.x.{.x.q.r.A.G.w.t.r.7.e.o.e.e.r.o.o.r.r.e.7.r.N.G.w.A.+XOXI.OX|.|.+X{.(.OX{. X^.b.{.}.Y.@XOXOX|.#X(.Z.)..X(.A.w.~.A.q.8.q.Q.g.5.e.U o.r.7.o.o.8.q.w.J.P.Z.c.h.w.q.w.h.OX}.[.N.C.Z.Q.U.Q.",
"7.o.e.r.o.5.7.7.7.8.8.7.7.7.8.w.^.@X^.q.q.t.t.G.F.y.N.OX;X;X@X#XE.w.y.w.h.+XW.w.q.~.-X^.<.8.7.e.7.r.r.7.o.e.r.r.r.8.8.q.v.F.C.OXF.y.C.OX@X}.{.Y.T.+XT.OXA.Y.@XT.+XT.@X-X;X;X-X@X^.c.M.E.v.q.t.q.8.x.,.7.e.o.@.r.7.o.5.7.o.8.K.x.w.q.N.N.q.M.).}.|.^.w.y.v.K.L.K.",
"7.o.7.r.7...7.e.7.e.8.r.7.7.8.A.Y.T.~.w.w.w.y.Z.C.w.(.1X;X(.g.I.^.y.w.M.N.OXT.M.t.F.Y.OXv.8.8.8.8.t.r.+.7.7.e.r.4.q.7.8.8.N.~.(.N.w.y.G.OX{.}.{.T.OXOX+XZ.K.@X+XT.OXoX@X@X#X&X#XI.C.~.N.M.y.q.8.8.g.7.7.7.o.e.r.o.o...7.o.w.K.g.8.8.w.N.h.U.#X-X).w.q.u.t.M.!.K.",
"8.7.e.r.o.7.7.7.e.e.&.7.8.8.8.h.J.4.w.w.y.^.).I.F.M.+X*XOXM.A.N.U.(.).S.b.{.T.M.w.u.t.W.G.q.q.<.t.r.e.7.7.o.7.8.(.Z.7.8.r.w.M.G./.h.4.G.Q.I.).XX{.T._.OX X(.@X[.OX'.+XU.K.(.(.}..XZ.w.q.h.x.t.8.w.q.5.7.7.7.e.7.o.+.o.7.o.8.x.h.<.w.8.<.Z.!.}.OXw.r.r.y.y.8.E.[.",
"7.7.e.r...7.e.7.7.7.8.7.q.w.8.N.x.w.y.t.,.E.].@XI.F.}.&XI.A.A.N.OX#X;X-X[.{.(.A.y.A.v.K.F.q.N.+XZ.7.e.e.o.e.r.7.Z.J.7.8.q.q.A.g.v.~.~.(.(.x.x.I.).[.).).OXOX@XOX{.[.U.x.W.Z.N.[.[.y.w.w.g.z.,.M.w.7.7.7.e.e.e.e.e...o.o.o.7.w.z.E.N.8.8.q.x.L.C.8.r.8.t.t.8.w.J.",
"7.5.7.r.o.7.r.7.7.7.M.M.*.w.q.w.G.w.y.S.(.(._.XX#XT.}.'.n.S.b.OX@X~.G.#X;X+X~.A.A.C.n.).S.w.C.P.(.8.r.e.7.e.e.7.8.S.y.8.r.8.M.w.q.w.F.W.{.T.^.I.Y.U.U.(.(.T.Y.T.Y.(.U.U.G.h.A._.!.M.q.w.C.z.N.M.&.7.7.7.r.7.o.8.8.+.o.7.o.7.8.8.3.*.7.7.q.J.K.w.8.8.7.t.r.7.7.8.",
"7.7.8.r.o.o.8.8.8.8.[.!.*.q.8.q.G.M.M.(.L.+X#X.X|.}.'.{.F.F.@X1X=X:X(.Y.;X}.Z.G.T.+X[.(.A.w.y.N.E.8.7.7.7.7.e.e.7.7.M.S.A.M.N.h.C.F.~.^._.[.P.[.(.K.(.~.W.(.I.x.E.W.^.P.Y.K.(._.Y.U.U.(.W.N.w.7.e.8.7.e.e...7.w.7.o.7.7.o.7.8.8.7.7.5.5.<.K.J.q.7.7.7.t.r.7.8.8.",
"8.q.r.r.7.8.q.r.7.w.).C.8.8.8.8.N.C.N.).g.z.+X;X-X+X@X{.S.(.;X<X>X{.~.I.#X@XN.U.+X&X#XY.4.w.w.M.Z.7.7.7.7.7.r.r.7.7.7.r.w.M.S.v.J.U.Y.[.T.W.U.E.z.(.J.~.(.h.~.^.W.!.U.J.K. X!.K.J.x.Z.C.<.r.8.7.8.t.*.e.o.X.7.r.7.8.7.o.7.5.7.e.7.o.5.8.9.J.J.8.w.8.7.t.r.7.6.8.",
"8.w.8.r.7.9.*.r.7.8.E.A.8.q.8.w.4.Z.~.T.b.A.N.Y.#X'.{.+Xn.+X*X;X}.!.S.F.XX[.n.^.x.{.|._.G.w.w.C.h.8.8.7.r.7.8.r.7.o.7.e.7.r.8.h.OX_.`.OXb.w.w.w.(.!.x.(.U.t.M.T.K..X`.W.M.h.J.P.P.G.w.t.q.8.8.7.*.N.<.7.o.X.o.r.7.9.8.&.*.7.o.e.7.o.5.8.7.0.Z.z.C.8.7.t.e.7.w.g.",
"7.8.r.t.7.o.8.w.8.7.A.n.,.q.w.F.).L.!.+X Xz.A.M.U.@X{.+X^.{.<X+X[.OXS.Z.#XP.^.K.(.{.P._. XM.q.z.<.8.8.8.r.7.r.8.*.8.7.e.7.8.w.OX}.).^.M.8.q.q.I.`.T.W. Xn.y.q.(.[. X X[.x.q.M.C.W.P.J.w.8.7.7.7.w.m.q.o.o.o.o.8.w.,.8.<.<.+.o.1.r.7.7.7.7.7.0.M.w.8.8.t.7.5.w.h.",
"7.e.r.t.7.7.8.t.7.8.8.N.C.q.A.+X-X#XOXXX}.OX^.~.E.).{.[.!.#X#XZ.[.{.z.Y.+XQ.P.@X+XL.K.x.T.M.S.C.8.q.8.W.F.7.r.8.,.q.o.e.7.8.~.+X~.w.r.8.8.8.w.T..XL.T.(.M.u.q.C.+X@XP.`.(.w.w.q.w.x.!.Z.v.g.w.w.q...+.U o...o.7.M.<.<.h.<.&.*.,.3.8.8.7.7.7...7.r.8.8.t.7.o.7.*.",
"7.r.r.r.7.o.7.e.7.8.8.8.G.C.h.+X}.}.@X}.}.}.+XT.Y.I.OX{.T.#XT.N.OX_.W.[.L.!.].@XI.J.Z.g.W.x.F.w.8.q.8.T.x.&.r.8.*.7.7.7.7.q.K.L.w.8.q.8.8.8.M.P.P._.OXN.t.y.q.q.G.OXT._. XN.w.w.w.q.E.K.<.q.r.7.o.o.o.X.7.8.w.*.0.h.g.d.<.g.g.<.r.7.7.o.o.o.o.e.7.7.7.t.7.7.7.o.",
"7.r.r.r.7.7.e.q.w.7.8.8.q.S.G.[.).G.Z.(.[.}.}.[.L.I.J.+X[.+X(.G..XOX).P..X-X}.^.Z.E.M.w.I.Z.w.r.w.w.q.C.8.7.e.e.7.7.8.r.7.8.J.J.8.r.7.8.q.8.A.L._.T.C.8.t.t.8.t.q.w.C.P._.Z.q.8.q.8.N.K.*.+.o.+.+.7.o.+.8.<.d.d.d.g.d.<.g.z.<.U +.@.o.o.U 7.e.o.o.o.7.t.7.7.e.o.",
"7.8.2.r.7.7.7.C.[.w.8.8.8.w.g.(.W.M.y.w.h.E.Y.OX!.).~.x.T.).^.Y.OX).T.+X@XT.n.Z.E.v.c.G.E.w.q.q.w.g.M.w.o.7.e.o.+.7.7.r.8.w.g.J.h.w.5.8.g.8.C.P.!.g.8.8.t.t.8.8.8.8.w.U.P.K.q.8.<.<.C.E.,.+.o.o.o.e.X.o.7.&.,.<.d.,.0.g.>.&.8.o.o.e.o.o.o.7.7.7.7.o.1.t.o.o.7.8.",
"8.8.r.r.7.e.e.<.L.w.7.8.q.w.q.M.Z.~.G.G.Z.~.E.W.^.Q.OXQ.Y.(.Y.T.U. X XQ.I.n.~.(.~.G.G.b.w.q.t.8.w.h.M.7.7.o.e.o.o.7.e.e.*.q.o.<.x.N.8.7.g.0.J.P.E.8.7.7.t.t.7.8.8.q.q.J.L.K.w.8.w.z.h.,.U ..7.7.7.e.X.X.o.7.,.d.<.8.7.,.m.6.o.+. .o.o.e.e.o.8.9.8.7.e.r.+.7.8.,.",
"o.7.r.r.o.e.7.e.w.S.w.8.8.w.8.w.w.w.N.K.L.P.T.P.).W.U.K.Q.T.T.(.U.I.n.^.).Y.Y.OX^.v.<.q.8.q.,.M.N.g.&.7.7.7.e.o.o.e.e.e.o.7.o.7.7.7.7.7.,.Z.h.J.x.8.7.7.t.t.7.8.w.w.r.z.L.W.w.7.8.8.7.+.o.7.o.o.e.o.X.e.7.5.8.8.7.o.+.o.*.q.o.7... .e.e...8.*.,.*.7.e.r.5.7.7.8.",
"o.o.e.r.o.7.7.7.7.q.A.S.C.N.A.M.S.G.(.Y.T.OX+X).C.M.z.OX@X).z.C.(.E.M.h.E.Y.P.L.L.Q.E.E.G.Z.G.C.q.7.7.7.7.7.7...7.e...e.7.8.7.7.7.7.7.7.7.8.8.N.J.8.7.&.t.t.7.7.w.N.w.x.K.M.8.7.7...7.7.o.o.+.7.e.o.+.+.o...o.o.7.7.7.o.o.+...o.o.o.e.7.7.8.,.,.6.5.1.r.8.7.U 7.",
"+.o.e.r.+.e.7.7.7.+.7.,.g.h.F.E.Q.Q.^.(.P.@X+Xn.w.M.).|.[.F.w.y.x. X~.w.M.c.(.[.L.P._.Y.F.A.w.7.7.7.7.e.7.7.o.o.e.o.o.e.7.8.8.7.7.e.7.7.7.7.7.w.J.M.7.7.t.r.7.r.,.N.z.K.M.o.7.e.+. .8.8.o.o.7.r.r.e.e.+.X.X. . .7.o.o. .+.+.X.I @.e.o.@.o.o.&.5.o.o.e.8.8.o.o.7."
};
